_backup/뉴턴_LUT/뉴턴_추구미_60.cube
TITLE "newton_match_v2"
LUT_3D_SIZE 33
0.000000 0.000000 0.000000
0.027793 0.000000 0.000000
0.055322 0.000000 0.000000
0.082491 0.000000 0.000000
0.109297 0.000000 0.000000
0.135713 0.000000 0.000000
0.161767 0.000000 0.000000
0.187461 0.000000 0.000000
0.212789 0.000000 0.000000
0.237730 0.000000 0.000000
0.262310 0.000000 0.000000
0.286528 0.000000 0.000000
0.310379 0.000000 0.000000
0.333845 0.000000 0.000000
0.356949 0.000000 0.000000
0.379693 0.000000 0.000000
0.402066 0.000000 0.000000
0.424057 0.000000 0.000000
0.445686 0.000000 0.000000
0.466954 0.000000 0.000000
0.487851 0.000000 0.000000
0.508366 0.000000 0.000000
0.528520 0.000000 0.000000
0.549148 0.000000 0.000000
0.570416 0.000000 0.000000
0.593195 0.000000 0.000000
0.618073 0.000000 0.000000
0.643326 0.000000 0.000000
0.666976 0.000000 0.000000
0.697110 0.000000 0.000000
0.730373 0.000000 0.000000
0.764544 0.000000 0.000000
0.795044 0.000000 0.000000
0.000000 0.025213 0.000000
0.024558 0.024012 0.000000
0.050519 0.023448 0.000000
0.076929 0.022654 0.000000
0.103119 0.021813 0.000000
0.128980 0.020972 0.000000
0.154489 0.020144 0.000000
0.179627 0.019330 0.000000
0.204395 0.018533 0.000000
0.228801 0.017755 0.000000
0.252844 0.016995 0.000000
0.276509 0.016254 0.000000
0.299803 0.015532 0.000000
0.322734 0.014830 0.000000
0.345302 0.014146 0.000000
0.367491 0.013481 0.000000
0.389309 0.012836 0.000000
0.410765 0.012500 0.000000
0.431858 0.012500 0.000000
0.452569 0.012500 0.000000
0.473974 0.012500 0.000000
0.495756 0.012500 0.000000
0.518990 0.012500 0.000000
0.544113 0.012500 0.000000
0.568541 0.012500 0.000000
0.593255 0.012500 0.000000
0.623641 0.012500 0.000000
0.656357 0.012500 0.000000
0.688498 0.012500 0.000000
0.718771 0.012500 0.000000
0.754486 0.012500 0.000000
0.792058 0.012500 0.000000
0.827353 0.012500 0.000000
0.000000 0.049445 0.000000
0.021601 0.048286 0.000000
0.047866 0.046831 0.000000
0.072591 0.046229 0.000000
0.097702 0.045464 0.000000
0.122783 0.044602 0.000000
0.147622 0.043702 0.000000
0.172155 0.042795 0.000000
0.196351 0.041893 0.000000
0.220196 0.041002 0.000000
0.243670 0.040124 0.000000
0.266784 0.039262 0.000000
0.289537 0.038418 0.000000
0.311924 0.037592 0.000000
0.333932 0.036782 0.000000
0.355577 0.035992 0.000000
0.376949 0.035226 0.000000
0.398940 0.034528 0.000000
0.421233 0.033866 0.000000
0.444970 0.033279 0.000000
0.469976 0.032735 0.000000
0.493804 0.032144 0.000000
0.519526 0.031604 0.000000
0.549658 0.031154 0.000000
0.581641 0.030701 0.000000
0.612125 0.030176 0.000000
0.642328 0.029613 0.000000
0.677726 0.029086 0.000000
0.713812 0.028516 0.000000
0.746893 0.027877 0.000000
0.779280 0.027204 0.000000
0.814905 0.026519 0.000000
0.853014 0.025804 0.000000
0.000000 0.072666 0.000000
0.018589 0.071380 0.000000
0.044804 0.070118 0.000000
0.069903 0.068436 0.000000
0.093633 0.067730 0.000000
0.117568 0.066931 0.000000
0.141516 0.066035 0.000000
0.165301 0.065087 0.000000
0.188823 0.064114 0.000000
0.212035 0.063133 0.000000
0.234918 0.062155 0.000000
0.257458 0.061187 0.000000
0.279637 0.060229 0.000000
0.301669 0.059318 0.000000
0.324074 0.058521 0.000000
0.346836 0.057806 0.000000
0.370878 0.057262 0.000000
0.395704 0.056793 0.000000
0.419392 0.056193 0.000000
0.445584 0.055815 0.000000
0.475215 0.055678 0.000000
0.506250 0.055570 0.000000
0.535404 0.055253 0.000000
0.565526 0.054946 0.000000
0.600306 0.054855 0.000000
0.634886 0.054664 0.000000
0.666402 0.054247 0.000000
0.698165 0.053796 0.000000
0.733845 0.053467 0.000000
0.770420 0.053110 0.000000
0.805083 0.052623 0.000000
0.841004 0.052132 0.000000
0.881233 0.051722 0.000000
0.000000 0.094870 0.000000
0.015806 0.093466 0.000000
0.041448 0.092085 0.000000
0.066711 0.090721 0.000000
0.090665 0.088824 0.000000
0.113483 0.087997 0.000000
0.136368 0.087125 0.000000
0.159233 0.086171 0.000000
0.181960 0.085161 0.000000
0.204463 0.084121 0.000000
0.226950 0.083151 0.000000
0.249637 0.082305 0.000000
0.272796 0.081623 0.000000
0.296904 0.081173 0.000000
0.321461 0.080787 0.000000
0.345092 0.080184 0.000000
0.371761 0.080114 0.000000
0.400553 0.080300 0.000000
0.430437 0.080525 0.000000
0.458430 0.080363 0.000000
0.488906 0.080447 0.000000
0.522252 0.080769 0.000000
0.555434 0.080937 0.000000
0.585686 0.080689 0.000000
0.617273 0.080509 0.000000
0.652191 0.080561 0.000000
0.687337 0.080533 0.000000
0.720982 0.080298 0.000000
0.756610 0.080144 0.000000
0.796510 0.080212 0.000000
0.841103 0.080483 0.000000
0.884364 0.080541 0.000000
0.926893 0.080450 0.000000
0.000000 0.116068 0.000000
0.013252 0.114541 0.000000
0.038318 0.113034 0.000000
0.063006 0.111551 0.000000
0.087317 0.110091 0.000000
0.110158 0.108001 0.000000
0.132096 0.107045 0.000000
0.154272 0.106251 0.000000
0.176702 0.105522 0.000000
0.199727 0.105021 0.000000
0.223580 0.104791 0.000000
0.247480 0.104460 0.000000
0.271266 0.104010 0.000000
0.297810 0.104369 0.000000
0.325789 0.104949 0.000000
0.354121 0.105409 0.000000
0.381461 0.105454 0.000000
0.411778 0.106040 0.000000
0.443693 0.106765 0.000000
0.474999 0.107177 0.000000
0.504708 0.107157 0.000000
0.535966 0.107300 0.000000
0.570015 0.107762 0.000000
0.603567 0.108004 0.000000
0.636529 0.108048 0.000000
0.671684 0.108276 0.000000
0.711586 0.108960 0.000000
0.753860 0.109747 0.000000
0.795331 0.110273 0.000000
0.836156 0.110584 0.000000
0.881619 0.111217 0.000000
0.932235 0.112160 0.000000
0.981102 0.112760 0.000000
0.000000 0.136251 0.000000
0.012500 0.134601 0.000000
0.035419 0.132975 0.000000
0.059535 0.131378 0.000000
0.083455 0.130100 0.000000
0.107239 0.128974 0.000000
0.129990 0.127502 0.000000
0.152798 0.127569 0.000000
0.175594 0.127374 0.000000
0.199094 0.127387 0.000000
0.224643 0.128254 0.000000
0.251465 0.129341 0.000000
0.278254 0.130021 0.000000
0.305060 0.130427 0.000000
0.334526 0.131566 0.000000
0.364985 0.132713 0.000000
0.394527 0.133286 0.000000
0.423678 0.133552 0.000000
0.454586 0.134124 0.000000
0.487497 0.134996 0.000000
0.519534 0.135458 0.000000
0.551943 0.135842 0.000000
0.586575 0.136523 0.000000
0.625850 0.137893 0.000000
0.665905 0.139153 0.000000
0.705590 0.140119 0.000000
0.745186 0.140875 0.000000
0.790317 0.142282 0.000000
0.838825 0.143929 0.000000
0.884434 0.144929 0.000000
0.928125 0.145493 0.000000
0.983697 0.147348 0.000000
1.000000 0.149949 0.000000
0.000000 0.155498 0.000000
0.012500 0.154131 0.000000
0.032879 0.152984 0.000000
0.056949 0.152388 0.000000
0.081191 0.152091 0.000000
0.105298 0.151381 0.000000
0.129963 0.151334 0.000000
0.154373 0.151347 0.000000
0.179425 0.152923 0.000000
0.204474 0.153905 0.000000
0.230169 0.154826 0.000000
0.258234 0.156671 0.000000
0.286956 0.158282 0.000000
0.314913 0.159050 0.000000
0.343207 0.159661 0.000000
0.373513 0.160816 0.000000
0.404928 0.162059 0.000000
0.435704 0.162777 0.000000
0.467349 0.163548 0.000000
0.501428 0.164815 0.000000
0.539346 0.166865 0.000000
0.577472 0.168613 0.000000
0.615442 0.170013 0.000000
0.654076 0.171304 0.000000
0.698200 0.173539 0.000000
0.744406 0.175862 0.000000
0.787239 0.177192 0.000000
0.830697 0.178404 0.000000
0.885716 0.181425 0.000000
0.947969 0.185268 0.000000
0.975000 0.188910 0.000000
0.987500 0.190863 0.000000
1.000000 0.192708 0.000000
0.000000 0.176552 0.000000
0.012500 0.176325 0.000000
0.030748 0.175578 0.000000
0.055135 0.176008 0.000000
0.080195 0.177257 0.000000
0.106011 0.178740 0.000000
0.131884 0.179297 0.000000
0.158593 0.180312 0.000000
0.184871 0.181030 0.000000
0.211584 0.183054 0.000000
0.237812 0.184079 0.000000
0.264847 0.185185 0.000000
0.293779 0.186981 0.000000
0.323468 0.188649 0.000000
0.352934 0.189721 0.000000
0.383575 0.190987 0.000000
0.416553 0.192902 0.000000
0.452822 0.195704 0.000000
0.488976 0.197943 0.000000
0.525217 0.199788 0.000000
0.562744 0.201695 0.000000
0.605534 0.204863 0.000000
0.648824 0.207693 0.000000
0.689609 0.209413 0.000000
0.732639 0.211415 0.000000
0.786614 0.215771 0.000000
0.846465 0.220944 0.000000
0.905475 0.225318 0.000000
0.950000 0.227584 0.000000
0.962500 0.230700 0.000000
0.975000 0.234009 0.000000
0.987500 0.236330 0.000000
1.000000 0.236949 0.000000
0.000000 0.200859 0.000000
0.012500 0.202520 0.000000
0.028828 0.204143 0.000000
0.054082 0.204769 0.000000
0.080069 0.206495 0.000000
0.106993 0.208731 0.000000
0.134472 0.210450 0.000000
0.161865 0.211078 0.000000
0.190013 0.212066 0.000000
0.217138 0.212403 0.000000
0.244877 0.214374 0.000000
0.272730 0.215861 0.000000
0.301939 0.217769 0.000000
0.333618 0.220655 0.000000
0.367412 0.224058 0.000000
0.401450 0.226845 0.000000
0.435778 0.229165 0.000000
0.472517 0.232085 0.000000
0.512962 0.236037 0.000000
0.553432 0.239336 0.000000
0.592097 0.241401 0.000000
0.635622 0.244805 0.000000
0.686950 0.250300 0.000000
0.743855 0.256829 0.000000
0.797867 0.261675 0.000000
0.846972 0.264504 0.000000
0.903173 0.268846 0.000000
0.937500 0.272922 0.000000
0.950000 0.275420 0.000000
0.962500 0.276416 0.000000
0.975000 0.278687 0.000000
0.987500 0.281627 0.000000
1.000000 0.283279 0.000000
0.000000 0.230495 0.000000
0.012500 0.232866 0.000000
0.026596 0.235444 0.000000
0.052982 0.237108 0.000000
0.079787 0.238023 0.000000
0.107238 0.239467 0.000000
0.135676 0.241685 0.000000
0.164469 0.243218 0.000000
0.193693 0.244489 0.000000
0.223996 0.246303 0.000000
0.253609 0.247789 0.000000
0.284841 0.251613 0.000000
0.316538 0.254930 0.000000
0.348715 0.257778 0.000000
0.383951 0.261912 0.000000
0.421751 0.266714 0.000000
0.459217 0.270394 0.000000
0.495798 0.272883 0.000000
0.538966 0.278051 0.000000
0.587814 0.284972 0.000000
0.640494 0.292523 0.000000
0.690303 0.297868 0.000000
0.737157 0.301323 0.000000
0.791066 0.306795 0.000000
0.845203 0.311625 0.000000
0.894853 0.314364 0.000000
0.925000 0.315839 0.000000
0.937500 0.319111 0.000000
0.950000 0.322545 0.000000
0.962500 0.324641 0.000000
0.975000 0.325809 0.000000
0.987500 0.325651 0.000000
1.000000 0.323800 0.000000
0.000000 0.263842 0.000000
0.012500 0.265059 0.000000
0.025000 0.267148 0.000000
0.051271 0.269656 0.000000
0.079125 0.271272 0.000000
0.107569 0.272945 0.000000
0.136978 0.275440 0.000000
0.168047 0.279449 0.000000
0.200038 0.283081 0.000000
0.232662 0.286121 0.000000
0.266033 0.288899 0.000000
0.298431 0.291148 0.000000
0.333512 0.296649 0.000000
0.367964 0.300552 0.000000
0.402987 0.304006 0.000000
0.444016 0.310726 0.000000
0.489780 0.319185 0.000000
0.537957 0.327643 0.000000
0.583246 0.333175 0.000000
0.628660 0.337846 0.000000
0.679577 0.344390 0.000000
0.730111 0.349803 0.000000
0.776407 0.352605 0.000000
0.822905 0.355006 0.000000
0.875552 0.359354 0.000000
0.912500 0.363070 0.000000
0.925000 0.365552 0.000000
0.937500 0.367134 0.000000
0.950000 0.366493 0.000000
0.962500 0.364664 0.000000
0.975000 0.362436 0.000000
0.987500 0.359407 0.000000
1.000000 0.356499 0.000000
0.000000 0.297726 0.000000
0.012500 0.299514 0.000000
0.025000 0.301568 0.000000
0.049271 0.304782 0.000000
0.078672 0.309540 0.000000
0.109053 0.313551 0.000000
0.140249 0.316948 0.000000
0.172389 0.320345 0.000000
0.206761 0.325834 0.000000
0.242426 0.331120 0.000000
0.277969 0.334544 0.000000
0.314704 0.338142 0.000000
0.352088 0.342943 0.000000
0.394537 0.352786 0.000000
0.438278 0.361955 0.000000
0.479336 0.367506 0.000000
0.523276 0.373977 0.000000
0.570366 0.381315 0.000000
0.617108 0.387212 0.000000
0.660125 0.389991 0.000000
0.706063 0.393742 0.000000
0.756422 0.399055 0.000000
0.805713 0.403054 0.000000
0.853840 0.405894 0.000000
0.900000 0.407731 0.000000
0.912500 0.406740 0.000000
0.925000 0.404997 0.000000
0.937500 0.402436 0.000000
0.950000 0.399320 0.000000
0.962500 0.396296 0.000000
0.975000 0.392926 0.000000
0.987500 0.389633 0.000000
1.000000 0.386847 0.000000
0.000000 0.334550 0.000000
0.012500 0.339869 0.000000
0.025000 0.344221 0.000000
0.047198 0.347914 0.000000
0.078026 0.352265 0.000000
0.110381 0.358627 0.000000
0.143906 0.364179 0.000000
0.177877 0.367767 0.000000
0.213590 0.372837 0.000000
0.253029 0.381760 0.000000
0.295847 0.392453 0.000000
0.339263 0.400938 0.000000
0.381380 0.405903 0.000000
0.421287 0.409576 0.000000
0.464859 0.417486 0.000000
0.507534 0.423330 0.000000
0.548030 0.426442 0.000000
0.592316 0.431518 0.000000
0.639919 0.437840 0.000000
0.686156 0.442238 0.000000
0.731642 0.445390 0.000000
0.776333 0.447471 0.000000
0.815344 0.446090 0.000000
0.853982 0.444425 0.000000
0.890366 0.441640 0.000000
0.912500 0.438504 0.000000
0.925000 0.435361 0.000000
0.937500 0.431980 0.000000
0.950000 0.428475 0.000000
0.962500 0.425821 0.000000
0.975000 0.423188 0.000000
0.987500 0.420442 0.000000
1.000000 0.417354 0.000000
0.000000 0.379057 0.000000
0.012500 0.384712 0.000000
0.025000 0.391769 0.000000
0.044619 0.397434 0.000000
0.077213 0.401160 0.000000
0.111402 0.408352 0.000000
0.148043 0.418695 0.000000
0.187352 0.430484 0.000000
0.227484 0.438997 0.000000
0.267697 0.444469 0.000000
0.311191 0.452914 0.000000
0.356094 0.460750 0.000000
0.400027 0.465381 0.000000
0.443149 0.467918 0.000000
0.482781 0.468852 0.000000
0.527429 0.475725 0.000000
0.570748 0.480389 0.000000
0.613634 0.483844 0.000000
0.655177 0.485591 0.000000
0.692924 0.484230 0.000000
0.730651 0.482699 0.000000
0.766244 0.479748 0.000000
0.801595 0.476697 0.000000
0.836519 0.473472 0.000000
0.871155 0.470185 0.000000
0.905282 0.466748 0.000000
0.925000 0.464074 0.000000
0.937500 0.461551 0.000000
0.950000 0.458669 0.000000
0.962500 0.455491 0.000000
0.975000 0.452743 0.000000
0.987500 0.450724 0.000000
1.000000 0.449225 0.000000
0.000000 0.430785 0.000000
0.012500 0.435166 0.000000
0.025000 0.444290 0.000000
0.041382 0.456235 0.000000
0.077183 0.468651 0.000000
0.114541 0.477074 0.000000
0.152971 0.483346 0.000000
0.193878 0.493005 0.000000
0.236026 0.501155 0.000000
0.277947 0.505668 0.000000
0.320150 0.508912 0.000000
0.365373 0.515280 0.000000
0.411660 0.521202 0.000000
0.457613 0.525191 0.000000
0.503252 0.527791 0.000000
0.538568 0.522681 0.000000
0.575498 0.521331 0.000000
0.612009 0.519647 0.000000
0.646812 0.516589 0.000000
0.681705 0.513667 0.000000
0.716017 0.510372 0.000000
0.750385 0.507180 0.000000
0.784659 0.503986 0.000000
0.819765 0.501346 0.000000
0.855159 0.498887 0.000000
0.889765 0.496018 0.000000
0.923681 0.492855 0.000000
0.937500 0.490272 0.000000
0.950000 0.488563 0.000000
0.962500 0.487032 0.000000
0.975000 0.484722 0.000000
0.987500 0.482867 0.000000
1.000000 0.481815 0.000000
0.000000 0.494291 0.000000
0.012500 0.507244 0.000000
0.025000 0.515133 0.000000
0.037500 0.523312 0.000000
0.075363 0.533500 0.000000
0.115035 0.541836 0.000000
0.155240 0.545836 0.000000
0.196520 0.550472 0.000000
0.239842 0.557802 0.000000
0.283894 0.563631 0.000000
0.328206 0.567736 0.000000
0.372581 0.570449 0.000000
0.414949 0.569346 0.000000
0.456304 0.566850 0.000000
0.496713 0.563434 0.000000
0.535887 0.559043 0.000000
0.566444 0.549860 0.000000
0.600309 0.546268 0.000000
0.634078 0.542896 0.000000
0.668317 0.540065 0.000000
0.702826 0.537491 0.000000
0.737595 0.535106 0.000000
0.771619 0.532198 0.000000
0.805524 0.529246 0.000000
0.840337 0.526885 0.000000
0.877013 0.525593 0.000000
0.913156 0.523911 0.000000
0.937500 0.521780 0.000000
0.950000 0.520121 0.000000
0.962500 0.519373 0.000000
0.975000 0.518103 0.000000
0.987500 0.516267 0.000000
1.000000 0.515428 0.000000
0.000000 0.563798 0.000000
0.012500 0.574505 0.000000
0.025000 0.582524 0.000000
0.037500 0.586125 0.000000
0.071989 0.592369 0.000000
0.113248 0.600548 0.000000
0.155461 0.606354 0.000000
0.198296 0.610431 0.000000
0.241501 0.613117 0.000000
0.283380 0.611167 0.000000
0.324901 0.608576 0.000000
0.365471 0.604581 0.000000
0.405308 0.600008 0.000000
0.444767 0.595530 0.000000
0.483473 0.590667 0.000000
0.521615 0.585740 0.000000
0.560371 0.581978 0.000000
0.590217 0.573124 0.000000
0.624382 0.570470 0.000000
0.657807 0.567375 0.000000
0.691471 0.564617 0.000000
0.726074 0.562625 0.000000
0.762086 0.561598 0.000000
0.797185 0.559800 0.000000
0.832282 0.557929 0.000000
0.868543 0.556721 0.000000
0.906026 0.556126 0.000000
0.937500 0.554769 0.000000
0.950000 0.553287 0.000000
0.962500 0.552726 0.000000
0.975000 0.552140 0.000000
0.987500 0.550651 0.000000
1.000000 0.548718 0.000000
0.000000 0.627297 0.000000
0.012500 0.634659 0.000000
0.025000 0.643590 0.000000
0.037500 0.649369 0.000000
0.067897 0.653439 0.000000
0.110071 0.655626 0.000000
0.151911 0.652959 0.000000
0.193595 0.650190 0.000000
0.234565 0.645656 0.000000
0.275047 0.640895 0.000000
0.315069 0.636086 0.000000
0.354565 0.631135 0.000000
0.393502 0.626046 0.000000
0.432754 0.622160 0.000000
0.471806 0.618446 0.000000
0.510287 0.614416 0.000000
0.548032 0.609970 0.000000
0.585877 0.606064 0.000000
0.615533 0.597859 0.000000
0.650918 0.596816 0.000000
0.685230 0.594868 0.000000
0.719810 0.593162 0.000000
0.755698 0.592414 0.000000
0.792179 0.591939 0.000000
0.827561 0.590512 0.000000
0.863638 0.589444 0.000000
0.901235 0.589210 0.000000
0.937500 0.588671 0.000000
0.950000 0.587070 0.000000
0.962500 0.585553 0.000000
0.975000 0.584510 0.000000
0.987500 0.583504 0.000000
1.000000 0.582344 0.000000
0.000000 0.692587 0.000000
0.012500 0.696632 0.000000
0.025000 0.697473 0.000000
0.037500 0.694749 0.000000
0.062437 0.691759 0.000000
0.103972 0.686641 0.000000
0.145097 0.681747 0.000000
0.185729 0.676534 0.000000
0.225949 0.671516 0.000000
0.265671 0.666357 0.000000
0.305365 0.662245 0.000000
0.344876 0.658443 0.000000
0.383837 0.654187 0.000000
0.422171 0.649513 0.000000
0.460645 0.645647 0.000000
0.499706 0.642955 0.000000
0.539070 0.640807 0.000000
0.577331 0.637535 0.000000
0.615923 0.634846 0.000000
0.646174 0.627679 0.000000
0.681901 0.627131 0.000000
0.716383 0.625477 0.000000
0.752144 0.624866 0.000000
0.788828 0.624827 0.000000
0.825162 0.624318 0.000000
0.859913 0.622519 0.000000
0.895870 0.621468 0.000000
0.932462 0.620701 0.000000
0.950000 0.619683 0.000000
0.962500 0.618802 0.000000
0.975000 0.617708 0.000000
0.987500 0.616682 0.000000
1.000000 0.615130 0.000000
0.000000 0.736530 0.000000
0.012500 0.732820 0.000000
0.025000 0.727529 0.000000
0.037500 0.722516 0.000000
0.056745 0.716875 0.000000
0.097597 0.711492 0.000000
0.138055 0.706586 0.000000
0.178222 0.702256 0.000000
0.218143 0.698272 0.000000
0.257574 0.693703 0.000000
0.296575 0.688994 0.000000
0.335584 0.685178 0.000000
0.375043 0.682777 0.000000
0.414314 0.680234 0.000000
0.452958 0.676922 0.000000
0.491887 0.674323 0.000000
0.531634 0.672942 0.000000
0.571043 0.671131 0.000000
0.609534 0.668357 0.000000
0.649283 0.667021 0.000000
0.679527 0.660088 0.000000
0.714930 0.659280 0.000000
0.748965 0.657287 0.000000
0.784552 0.656606 0.000000
0.820529 0.656106 0.000000
0.856103 0.655148 0.000000
0.892185 0.654424 0.000000
0.928306 0.653577 0.000000
0.950000 0.652677 0.000000
0.962500 0.650989 0.000000
0.975000 0.648928 0.000000
0.987500 0.647429 0.000000
1.000000 0.645458 0.000000
0.000000 0.763038 0.000000
0.012500 0.757121 0.000000
0.025000 0.751325 0.000000
0.037500 0.746708 0.000000
0.051325 0.742310 0.000000
0.091670 0.738024 0.000000
0.131626 0.733103 0.000000
0.171239 0.728449 0.000000
0.210725 0.724788 0.000000
0.250404 0.722593 0.000000
0.289711 0.719571 0.000000
0.328753 0.716332 0.000000
0.368001 0.713941 0.000000
0.407735 0.712624 0.000000
0.446985 0.710458 0.000000
0.485918 0.707926 0.000000
0.525707 0.706728 0.000000
0.565654 0.705667 0.000000
0.604716 0.703502 0.000000
0.643025 0.700605 0.000000
0.682258 0.698813 0.000000
0.711547 0.691225 0.000000
0.746582 0.690176 0.000000
0.781871 0.689366 0.000000
0.817401 0.688689 0.000000
0.852944 0.687910 0.000000
0.887194 0.686032 0.000000
0.921617 0.684236 0.000000
0.950000 0.682742 0.000000
0.962500 0.680968 0.000000
0.975000 0.679494 0.000000
0.987500 0.677248 0.000000
1.000000 0.675351 0.000000
0.000000 0.786759 0.000000
0.012500 0.782369 0.000000
0.025000 0.777726 0.000000
0.037500 0.772470 0.000000
0.050000 0.767834 0.000000
0.085991 0.764450 0.000000
0.125771 0.762246 0.000000
0.165297 0.758884 0.000000
0.204661 0.755708 0.000000
0.244162 0.753689 0.000000
0.283814 0.752276 0.000000
0.323051 0.749754 0.000000
0.362298 0.747497 0.000000
0.402087 0.746464 0.000000
0.441830 0.745236 0.000000
0.480840 0.742773 0.000000
0.519605 0.740109 0.000000
0.558883 0.738306 0.000000
0.598282 0.736689 0.000000
0.637417 0.734773 0.000000
0.676448 0.732792 0.000000
0.715694 0.731079 0.000000
0.743876 0.722657 0.000000
0.777736 0.720610 0.000000
0.811928 0.718964 0.000000
0.846066 0.717290 0.000000
0.880440 0.715786 0.000000
0.914878 0.714276 0.000000
0.948524 0.712120 0.000000
0.962500 0.710379 0.000000
0.975000 0.708771 0.000000
0.987500 0.706408 0.000000
1.000000 0.704088 0.000000
0.000000 0.811864 0.000000
0.012500 0.807274 0.000000
0.025000 0.804102 0.000000
0.037500 0.801870 0.000000
0.050000 0.798215 0.000000
0.080685 0.795129 0.000000
0.120284 0.793445 0.000000
0.159894 0.791924 0.000000
0.199239 0.789029 0.000000
0.238696 0.787148 0.000000
0.278412 0.786215 0.000000
0.318015 0.784777 0.000000
0.357002 0.781829 0.000000
0.396154 0.779551 0.000000
0.435506 0.777801 0.000000
0.474781 0.775953 0.000000
0.514063 0.774167 0.000000
0.553184 0.772185 0.000000
0.592411 0.770407 0.000000
0.631188 0.768108 0.000000
0.669136 0.764963 0.000000
0.707420 0.762376 0.000000
0.745192 0.759398 0.000000
0.772347 0.750405 0.000000
0.806093 0.748486 0.000000
0.839586 0.746446 0.000000
0.873471 0.744789 0.000000
0.907340 0.743106 0.000000
0.940356 0.740734 0.000000
0.962500 0.738498 0.000000
0.975000 0.736549 0.000000
0.987500 0.734747 0.000000
1.000000 0.732579 0.000000
0.000000 0.841328 0.000000
0.012500 0.837502 0.000000
0.025000 0.834565 0.000000
0.037500 0.833131 0.000000
0.050000 0.831427 0.000000
0.075539 0.828270 0.000000
0.115068 0.826855 0.000000
0.154677 0.825936 0.000000
0.194214 0.824235 0.000000
0.233343 0.820832 0.000000
0.272710 0.818942 0.000000
0.312141 0.817340 0.000000
0.351385 0.815267 0.000000
0.390735 0.813553 0.000000
0.429973 0.811647 0.000000
0.469204 0.809793 0.000000
0.507903 0.807115 0.000000
0.546109 0.803875 0.000000
0.584645 0.801355 0.000000
0.622675 0.798318 0.000000
0.661095 0.795952 0.000000
0.698603 0.792658 0.000000
0.736202 0.789672 0.000000
0.773960 0.787009 0.000000
0.799856 0.777235 0.000000
0.832643 0.774693 0.000000
0.865566 0.772423 0.000000
0.898897 0.770572 0.000000
0.932289 0.768778 0.000000
0.962500 0.766579 0.000000
0.975000 0.764364 0.000000
0.987500 0.762323 0.000000
1.000000 0.760204 0.000000
0.000000 0.872819 0.000000
0.012500 0.870684 0.000000
0.025000 0.867753 0.000000
0.037500 0.866580 0.000000
0.050000 0.865668 0.000000
0.070460 0.863533 0.000000
0.109885 0.860179 0.000000
0.149303 0.858330 0.000000
0.188760 0.856887 0.000000
0.228081 0.854740 0.000000
0.267420 0.852887 0.000000
0.306754 0.851108 0.000000
0.346013 0.849183 0.000000
0.384747 0.846083 0.000000
0.423277 0.842886 0.000000
0.461959 0.840308 0.000000
0.500256 0.837243 0.000000
0.538740 0.834732 0.000000
0.576473 0.831262 0.000000
0.614345 0.828261 0.000000
0.652359 0.825639 0.000000
0.689696 0.822350 0.000000
0.726598 0.818785 0.000000
0.763476 0.815430 0.000000
0.792653 0.804669 0.000000
0.825809 0.802579 0.000000
0.858511 0.800254 0.000000
0.891108 0.797971 0.000000
0.923968 0.795988 0.000000
0.956484 0.793749 0.000000
0.975000 0.791291 0.000000
0.987500 0.789049 0.000000
1.000000 0.786632 0.000000
0.000000 0.906346 0.000000
0.012500 0.905312 0.000000
0.025000 0.902802 0.000000
0.037500 0.899683 0.000000
0.050000 0.897825 0.000000
0.065361 0.896306 0.000000
0.104773 0.894215 0.000000
0.144141 0.892185 0.000000
0.183506 0.890425 0.000000
0.222805 0.888425 0.000000
0.261718 0.885014 0.000000
0.300557 0.881963 0.000000
0.339303 0.879067 0.000000
0.377915 0.876164 0.000000
0.416490 0.873480 0.000000
0.454521 0.869916 0.000000
0.492649 0.866905 0.000000
0.530809 0.864199 0.000000
0.568269 0.860585 0.000000
0.605536 0.856999 0.000000
0.642784 0.853670 0.000000
0.680185 0.850768 0.000000
0.717204 0.847583 0.000000
0.753867 0.844197 0.000000
0.790392 0.840872 0.000000
0.818627 0.829729 0.000000
0.850972 0.827169 0.000000
0.883088 0.824612 0.000000
0.915333 0.822317 0.000000
