_backup/뉴턴_LUT/뉴턴_팝_C.cube
TITLE "newton_pop_C"
LUT_3D_SIZE 5
0.000000 0.000000 0.040000
0.155283 0.000000 0.036734
0.326076 0.000000 0.033878
0.504436 0.000000 0.030895
0.746872 0.000000 0.026841
0.000000 0.179643 0.029468
0.173269 0.194743 0.025264
0.402492 0.208490 0.020696
0.653889 0.220866 0.015836
0.923151 0.231863 0.010757
0.000000 0.452161 0.014009
0.227985 0.472376 0.008868
0.486718 0.489783 0.003606
0.757880 0.504373 0.000000
1.000000 0.516134 0.000000
0.003636 0.763201 0.000000
0.268086 0.778900 0.000000
0.539530 0.790345 0.000000
0.813657 0.797521 0.000000
1.000000 0.800424 0.000000
0.020722 1.000000 0.000000
0.290829 1.000000 0.000000
0.558183 1.000000 0.000000
0.815315 1.000000 0.000000
1.000000 1.000000 0.000000
0.000000 0.000000 0.243284
0.151306 0.000000 0.222782
0.322289 0.000000 0.210543
0.521505 0.000000 0.213257
0.767413 0.000000 0.223568
0.000000 0.184922 0.217221
0.179378 0.199565 0.226877
0.452546 0.201991 0.223927
0.722876 0.209533 0.225785
1.000000 0.217420 0.227765
0.000000 0.459340 0.242872
0.185572 0.497386 0.199754
0.494934 0.496467 0.231305
0.784777 0.505576 0.225323
1.000000 0.511658 0.220317
0.005432 0.769009 0.250633
0.202888 0.810474 0.181567
0.511930 0.810515 0.168480
0.818523 0.801007 0.218752
1.000000 0.799562 0.213999
0.022309 1.000000 0.243245
0.213786 1.000000 0.160265
0.508831 1.000000 0.147317
0.790770 1.000000 0.133473
1.000000 1.000000 0.189244
0.000000 0.000000 0.432941
0.148216 0.000000 0.400753
0.320128 0.000000 0.384083
0.538134 0.000000 0.405735
0.787351 0.000000 0.429465
0.000000 0.190046 0.414746
0.181241 0.200108 0.490271
0.465096 0.199841 0.499942
0.742093 0.207481 0.494327
1.000000 0.215147 0.496021
0.000000 0.466197 0.478311
0.184805 0.498691 0.504790
0.500000 0.500000 0.500000
0.836719 0.495497 0.489399
1.000000 0.496289 0.484175
0.007219 0.774328 0.508277
0.202056 0.811007 0.486992
0.476812 0.823291 0.441967
0.820845 0.801978 0.482925
1.000000 0.795078 0.464426
0.023860 1.000000 0.507387
0.212295 1.000000 0.457225
0.453607 1.000000 0.389581
0.761418 1.000000 0.363369
1.000000 1.000000 0.430234
0.000000 0.000000 0.611844
0.145998 0.000000 0.573296
0.326647 0.000000 0.567029
0.554334 0.000000 0.607854
0.806662 0.000000 0.644038
0.000000 0.195016 0.621561
0.185610 0.203126 0.728143
0.457493 0.206461 0.753392
0.751581 0.207657 0.772902
1.000000 0.215562 0.773389
0.000000 0.472728 0.719836
0.203140 0.496398 0.790707
0.499478 0.497944 0.840508
0.847550 0.489425 0.833367
1.000000 0.489404 0.808920
0.008995 0.779155 0.768810
0.201058 0.811005 0.794753
0.472425 0.818267 0.796331
0.820623 0.800435 0.773123
1.000000 0.778969 0.746671
0.025371 1.000000 0.771221
0.210652 1.000000 0.752824
0.446686 1.000000 0.712963
0.727445 1.000000 0.655491
1.000000 1.000000 0.687083
0.000000 0.000000 0.782852
0.144623 0.000000 0.742891
0.338464 0.000000 0.765402
0.570075 0.000000 0.819107
0.825376 0.000000 0.866821
0.000000 0.199825 0.837165
0.190517 0.206653 0.965350
0.457929 0.211566 1.000000
0.745732 0.214570 1.000000
1.000000 0.215777 1.000000
0.000000 0.478938 0.966966
0.214343 0.497660 1.000000
0.501886 0.498820 1.000000
0.832188 0.494216 1.000000
1.000000 0.486408 1.000000
0.010757 0.783492 1.000000
0.219801 0.806206 1.000000
0.488610 0.809297 1.000000
0.813985 0.792510 1.000000
1.000000 0.766433 1.000000
0.026840 1.000000 1.000000
0.208859 1.000000 1.000000
0.439790 1.000000 1.000000
0.716522 1.000000 1.000000
1.000000 1.000000 0.960000
