_backup/뉴턴_LUT/뉴턴_팝_B.cube
TITLE "newton_pop_B"
LUT_3D_SIZE 9
0.000000 0.000000 0.000000
0.100558 0.000000 0.000000
0.192017 0.000000 0.000000
0.277521 0.000000 0.000000
0.359953 0.000000 0.000000
0.441940 0.000000 0.000000
0.535331 0.000000 0.000000
0.651396 0.000000 0.000000
0.773713 0.000000 0.000000
0.000000 0.091480 0.000000
0.089303 0.089303 0.000000
0.176043 0.088022 0.000000
0.271911 0.090637 0.000000
0.377630 0.094407 0.000000
0.490013 0.098002 0.000000
0.608521 0.101420 0.000000
0.732625 0.104661 0.000000
0.861797 0.107725 0.000000
0.000000 0.184063 0.000000
0.095737 0.191475 0.000000
0.198533 0.198533 0.000000
0.307859 0.205239 0.000000
0.423188 0.211594 0.000000
0.543987 0.217595 0.000000
0.669725 0.223242 0.000000
0.799874 0.228535 0.000000
0.933908 0.233477 0.000000
0.000000 0.311392 0.000000
0.106909 0.320728 0.000000
0.219690 0.329535 0.000000
0.337815 0.337815 0.000000
0.460752 0.345564 0.000000
0.587971 0.352783 0.000000
0.718943 0.359472 0.000000
0.853141 0.365632 0.000000
0.990032 0.371262 0.000000
0.000000 0.454263 0.000000
0.116084 0.464336 0.000000
0.236853 0.473706 0.000000
0.361776 0.482368 0.000000
0.490324 0.490324 0.000000
0.621967 0.497573 0.000000
0.756176 0.504117 0.000000
0.892420 0.509954 0.000000
1.000000 0.515085 0.000000
0.000000 0.606682 0.000000
0.123261 0.616306 0.000000
0.250019 0.625047 0.000000
0.379743 0.632905 0.000000
0.511904 0.639880 0.000000
0.645973 0.645973 0.000000
0.781419 0.651182 0.000000
0.917713 0.655509 0.000000
1.000000 0.658954 0.000000
0.000000 0.762656 0.000000
0.128440 0.770640 0.000000
0.259188 0.777566 0.000000
0.391716 0.783433 0.000000
0.525493 0.788239 0.000000
0.659988 0.791986 0.000000
0.794673 0.794673 0.000000
0.929020 0.796303 0.000000
1.000000 0.796874 0.000000
0.000000 0.916188 0.000000
0.131621 0.921346 0.000000
0.264362 0.925269 0.000000
0.397695 0.927956 0.000000
0.531088 0.929404 0.000000
0.664013 0.929618 0.000000
0.795941 0.928598 0.000000
0.926343 0.926343 0.000000
1.000000 0.922847 0.000000
0.000000 1.000000 0.000000
0.132803 1.000000 0.000000
0.265540 1.000000 0.000000
0.397679 1.000000 0.000000
0.528691 1.000000 0.000000
0.658021 1.000000 0.000000
0.782327 1.000000 0.000000
0.903755 1.000000 0.000000
1.000000 1.000000 0.000000
0.000000 0.000000 0.104120
0.098901 0.000000 0.098901
0.189416 0.000000 0.094708
0.274633 0.000000 0.091544
0.357381 0.000000 0.089345
0.440212 0.000000 0.088042
0.543251 0.000000 0.090542
0.660228 0.000000 0.094318
0.783336 0.000000 0.097917
0.000000 0.090636 0.090636
0.088770 0.088770 0.088770
0.192643 0.083676 0.083676
0.298664 0.085770 0.085770
0.409335 0.088428 0.088428
0.525485 0.091196 0.091196
0.647094 0.093940 0.093940
0.773831 0.096601 0.096601
0.905271 0.099151 0.099151
0.000000 0.186617 0.093308
0.077887 0.201505 0.077887
0.201425 0.201425 0.093061
0.318926 0.206168 0.093411
0.442397 0.210442 0.094465
0.569249 0.214819 0.096676
0.699583 0.219199 0.099103
0.833353 0.223466 0.101489
0.970309 0.227545 0.103751
0.000000 0.314622 0.104874
0.079624 0.335051 0.079624
0.208543 0.339659 0.077427
0.341368 0.341368 0.102404
0.469290 0.347694 0.104503
0.602497 0.353376 0.104255
0.738850 0.358552 0.105020
0.877478 0.363373 0.106320
1.000000 0.367844 0.107801
0.000000 0.457764 0.114441
0.082412 0.481332 0.082412
0.216105 0.487243 0.080536
0.354342 0.492307 0.078414
0.493920 0.493920 0.109662
0.629058 0.499892 0.112392
0.767471 0.505223 0.111852
0.907931 0.509764 0.111596
1.000000 0.513640 0.111809
0.000000 0.610050 0.122010
0.084893 0.634896 0.084893
0.222488 0.640613 0.083113
0.363247 0.645353 0.081142
0.506596 0.649130 0.078991
0.649024 0.649024 0.114365
0.787004 0.653014 0.117054
0.926206 0.656286 0.116447
1.000000 0.658603 0.115547
0.000000 0.765487 0.127581
0.086614 0.789931 0.086614
0.226675 0.794106 0.084817
0.368585 0.797164 0.082866
0.511777 0.799115 0.080770
0.655683 0.799969 0.078541
0.796607 0.796607 0.116356
0.932729 0.797047 0.118634
1.000000 0.796635 0.117908
0.000000 0.918080 0.131154
0.087382 0.940517 0.087382
0.228232 0.941875 0.085503
0.369652 0.941965 0.083496
0.511082 0.940794 0.081371
0.651955 0.938366 0.079135
0.791712 0.934695 0.076797
0.926585 0.926585 0.115567
1.000000 0.921917 0.117218
0.000000 1.000000 0.132729
0.087099 1.000000 0.087099
0.226941 1.000000 0.085098
0.366098 1.000000 0.082989
0.504010 1.000000 0.080780
0.639385 1.000000 0.078388
0.770160 1.000000 0.075727
0.898252 1.000000 0.073103
1.000000 1.000000 0.111095
0.000000 0.000000 0.204465
0.097351 0.000000 0.194702
0.187044 0.000000 0.187044
0.272081 0.000000 0.181387
0.355222 0.000000 0.177611
0.440208 0.000000 0.176083
0.551072 0.000000 0.183690
0.668911 0.000000 0.191117
0.792785 0.000000 0.198196
0.000000 0.089900 0.179801
0.086585 0.086585 0.199217
0.196360 0.082388 0.196360
0.305334 0.084717 0.195026
0.417978 0.087412 0.197601
0.535682 0.090159 0.201540
0.658555 0.092855 0.205995
0.786353 0.095455 0.210605
0.918677 0.097937 0.215186
0.000000 0.189134 0.189134
0.076899 0.202044 0.202044
0.203127 0.203127 0.203127
0.340435 0.202563 0.202563
0.471620 0.204853 0.204853
0.603203 0.208094 0.208094
0.737008 0.211653 0.211653
0.873512 0.215257 0.215257
1.000000 0.218770 0.218770
0.000000 0.317789 0.211859
0.078917 0.336701 0.207809
0.194176 0.346886 0.194176
0.344006 0.344006 0.217573
0.480494 0.348380 0.216265
0.622503 0.351626 0.216187
0.764921 0.355002 0.218363
0.907874 0.358481 0.221133
1.000000 0.361895 0.223958
0.000000 0.461183 0.230591
0.081804 0.483436 0.215681
0.192663 0.498450 0.192663
0.344320 0.499822 0.188819
0.496738 0.496738 0.229500
0.636604 0.501437 0.231103
0.781271 0.505050 0.228829
0.927142 0.507909 0.228420
1.000000 0.510342 0.229087
0.000000 0.613315 0.245326
0.084311 0.636948 0.222470
0.192671 0.654182 0.192671
0.344532 0.655748 0.188923
0.499114 0.656278 0.184786
0.651386 0.651386 0.236977
0.792415 0.654247 0.239741
0.935747 0.656243 0.236987
1.000000 0.657152 0.234765
0.000000 0.768194 0.256065
0.086022 0.791475 0.227112
0.192227 0.808875 0.192227
0.343558 0.809089 0.188381
0.496188 0.808153 0.184222
0.649510 0.806090 0.179770
0.797916 0.797916 0.239359
0.936061 0.797262 0.242066
1.000000 0.795784 0.239180
0.000000 0.919827 0.262807
0.086759 0.941123 0.229153
0.190486 0.956868 0.190486
0.340013 0.954339 0.186431
0.489482 0.950530 0.182117
0.638300 0.945459 0.177561
0.785867 0.939139 0.172780
0.926254 0.926254 0.236369
1.000000 0.919555 0.238061
0.000000 1.000000 0.265554
0.086432 1.000000 0.228362
0.187026 1.000000 0.187026
0.333202 1.000000 0.182693
0.478008 1.000000 0.178140
0.619295 1.000000 0.172948
0.756773 1.000000 0.167469
0.891530 1.000000 0.162087
1.000000 1.000000 0.226155
0.000000 0.000000 0.301413
0.095934 0.000000 0.287802
0.184901 0.000000 0.277352
0.269850 0.000000 0.269850
0.353464 0.000000 0.265098
0.446475 0.000000 0.267885
0.558763 0.000000 0.279381
0.677472 0.000000 0.290345
0.802075 0.000000 0.300778
0.000000 0.089271 0.267812
0.085676 0.085676 0.293956
0.192114 0.084773 0.299455
0.308204 0.084610 0.308204
0.422178 0.087520 0.310625
0.540961 0.090378 0.315669
0.664728 0.093130 0.321769
0.793253 0.095756 0.328255
0.926161 0.098244 0.334792
0.000000 0.191611 0.287417
0.083678 0.201220 0.318763
0.202643 0.202643 0.342974
0.345324 0.200655 0.345324
0.480388 0.202815 0.341601
0.614623 0.205901 0.342142
0.750392 0.209296 0.344570
0.888408 0.212733 0.347868
1.000000 0.216081 0.351528
0.000000 0.320900 0.320900
0.078169 0.338263 0.338263
0.192785 0.346747 0.346747
0.345705 0.345705 0.345705
0.503440 0.344034 0.344034
0.652939 0.345116 0.345116
0.799653 0.347337 0.347337
0.945617 0.350004 0.350004
1.000000 0.352772 0.352772
0.000000 0.464520 0.348390
0.081166 0.485440 0.350682
0.191415 0.499025 0.345220
0.331676 0.504872 0.331676
0.498768 0.498768 0.359590
0.647289 0.501457 0.355626
0.801029 0.502354 0.353016
0.952768 0.503277 0.353446
1.000000 0.504316 0.354796
0.000000 0.616479 0.369887
0.083705 0.638886 0.361296
0.191443 0.654832 0.345906
0.323581 0.664063 0.323581
0.489445 0.661302 0.317588
0.653056 0.653056 0.367838
0.798431 0.654723 0.367308
0.948002 0.654863 0.361724
1.000000 0.653970 0.358600
0.000000 0.770781 0.385390
0.085411 0.792889 0.368402
0.190957 0.809077 0.345487
0.316637 0.819191 0.316637
0.478725 0.815345 0.310415
0.641470 0.810347 0.303717
0.798595 0.798595 0.368963
0.939284 0.796912 0.369796
1.000000 0.794110 0.363508
0.000000 0.921431 0.394899
0.086120 0.941579 0.371273
0.189140 0.956156 0.342543
0.308789 0.965074 0.308789
0.466302 0.958616 0.302197
0.623050 0.950891 0.295210
0.778408 0.941926 0.287854
0.925350 0.925350 0.362329
1.000000 0.916390 0.362054
0.000000 1.000000 0.398414
0.085752 1.000000 0.369544
0.185580 1.000000 0.336361
0.299014 1.000000 0.299014
0.450673 1.000000 0.291943
0.598011 1.000000 0.283509
0.742188 1.000000 0.275065
0.883615 1.000000 0.266802
1.000000 1.000000 0.345173
0.000000 0.000000 0.395224
0.094642 0.000000 0.378567
0.182989 0.000000 0.365979
0.267938 0.000000 0.357250
0.352106 0.000000 0.352106
0.453075 0.000000 0.362460
0.566322 0.000000 0.377548
0.685880 0.000000 0.391931
0.811211 0.000000 0.405605
0.000000 0.088743 0.354974
0.085537 0.085537 0.386392
0.191242 0.086580 0.400565
0.305027 0.087270 0.413905
0.426267 0.087587 0.426267
0.546109 0.090559 0.432221
0.670753 0.093372 0.439800
0.799995 0.096027 0.448011
0.933472 0.098525 0.456359
0.000000 0.194045 0.388090
0.087614 0.201921 0.430535
0.203437 0.203437 0.468075
0.339578 0.203290 0.475866
0.482519 0.202455 0.482519
0.617884 0.205805 0.480525
0.754499 0.209342 0.481921
0.893144 0.212853 0.484969
1.000000 0.216230 0.488802
0.000000 0.323947 0.431930
0.085750 0.337946 0.464043
0.200259 0.345037 0.489814
0.344754 0.344754 0.508704
0.508589 0.341330 0.508589
0.662692 0.341949 0.502320
0.812610 0.343779 0.500056
0.960912 0.346101 0.499804
1.000000 0.348556 0.500568
0.000000 0.467777 0.467777
0.080499 0.487347 0.487347
0.190108 0.499487 0.499487
0.329720 0.503812 0.503812
0.500000 0.500000 0.500000
0.670609 0.496099 0.496099
0.831416 0.494702 0.494702
0.986872 0.494463 0.494463
1.000000 0.494709 0.494709
0.000000 0.619541 0.495632
0.083078 0.640711 0.501303
0.190169 0.655360 0.500296
0.321614 0.663246 0.492430
0.477573 0.664180 0.477573
0.654028 0.654028 0.506948
0.807896 0.653631 0.499366
0.966483 0.650859 0.493047
1.000000 0.647943 0.490261
0.000000 0.773245 0.515497
0.084782 0.794175 0.510417
0.189650 0.809146 0.499398
0.314579 0.818015 0.482391
0.459390 0.820678 0.459390
0.631563 0.812733 0.450393
0.798649 0.798649 0.505121
0.943202 0.795824 0.501067
1.000000 0.791080 0.491082
0.000000 0.922894 0.527368
0.085466 0.941889 0.513677
0.187761 0.955291 0.494773
0.306597 0.963026 0.470704
0.441552 0.965049 0.441552
0.606221 0.954669 0.431998
0.769342 0.943058 0.421909
0.923836 0.923836 0.493344
1.000000 0.912810 0.488774
0.000000 1.000000 0.531247
0.085059 1.000000 0.510576
0.184108 1.000000 0.485412
0.296659 1.000000 0.455874
0.421594 1.000000 0.421594
0.575558 1.000000 0.409900
0.726428 1.000000 0.398359
0.874530 1.000000 0.387114
1.000000 1.000000 0.468147
0.000000 0.000000 0.486342
0.093458 0.000000 0.467292
0.181299 0.000000 0.453248
0.266335 0.000000 0.443892
0.352378 0.000000 0.440472
0.459586 0.000000 0.459586
0.573767 0.000000 0.478139
0.694137 0.000000 0.495812
0.820175 0.000000 0.512609
0.000000 0.088318 0.441590
0.086621 0.086621 0.483838
0.191692 0.088142 0.502340
0.304520 0.089323 0.519718
0.424527 0.090173 0.535979
0.551136 0.090705 0.551136
0.676629 0.093581 0.560020
0.806571 0.096268 0.569804
0.940603 0.098778 0.579821
0.000000 0.196438 0.491095
0.090402 0.203207 0.541620
0.204716 0.204716 0.588491
0.337281 0.205631 0.600581
0.476250 0.205931 0.611410
0.621003 0.205642 0.621003
0.758448 0.209328 0.621168
0.897707 0.212918 0.623791
1.000000 0.216329 0.627635
0.000000 0.326932 0.544886
0.090649 0.338824 0.586999
0.205396 0.344997 0.624198
0.345089 0.345089 0.656006
0.501963 0.343468 0.660458
0.663625 0.341031 0.663625
0.814378 0.343115 0.657290
0.963233 0.345576 0.654405
1.000000 0.348098 0.653367
0.000000 0.470951 0.588689
0.087834 0.487290 0.620442
0.199793 0.497470 0.646309
0.336457 0.501197 0.665937
0.498227 0.498227 0.679024
0.675319 0.492343 0.675319
0.841159 0.490192 0.665676
1.000000 0.489338 0.659620
1.000000 0.489060 0.655505
0.000000 0.622501 0.622501
0.082428 0.642423 0.642423
0.188849 0.655768 0.655768
0.319577 0.662305 0.662305
0.474743 0.661857 0.661857
0.654295 0.654295 0.654295
0.830489 0.646969 0.646969
0.995552 0.641832 0.641832
1.000000 0.637764 0.637764
0.000000 0.775586 0.646322
0.084135 0.795331 0.653092
0.188306 0.809082 0.653888
0.312464 0.816705 0.648625
0.456408 0.818108 0.637258
0.619785 0.813239 0.619785
0.798076 0.798076 0.647780
0.950728 0.793161 0.635593
1.000000 0.785400 0.624471
0.000000 0.924215 0.660154
0.084798 0.942054 0.656302
0.186353 0.954280 0.647109
0.304356 0.960827 0.632591
0.438369 0.961664 0.612801
0.587823 0.956793 0.587823
0.758682 0.942545 0.574818
0.920781 0.920781 0.628676
1.000000 0.908654 0.617534
0.000000 1.000000 0.663995
0.084354 1.000000 0.651398
0.182609 1.000000 0.634111
0.294262 1.000000 0.612226
0.417616 1.000000 0.584352
0.551958 1.000000 0.551958
0.709514 1.000000 0.537205
0.864299 1.000000 0.522901
1.000000 1.000000 0.595089
0.000000 0.000000 0.575166
0.092395 0.000000 0.554368
0.179823 0.000000 0.539471
0.265035 0.000000 0.530070
0.357470 0.000000 0.536206
0.465986 0.000000 0.559183
0.581094 0.000000 0.581094
0.702265 0.000000 0.601942
0.828971 0.000000 0.621728
0.000000 0.087990 0.527941
0.087779 0.087779 0.583306
0.192788 0.089575 0.605640
0.305318 0.091061 0.626705
0.424808 0.092248 0.646515
0.550682 0.093144 0.665066
0.682372 0.093761 0.682372
0.812985 0.096481 0.693567
0.947551 0.099003 0.705109
0.000000 0.198793 0.596380
0.092607 0.204768 0.653411
0.206217 0.206217 0.707536
0.336675 0.207802 0.723294
0.473236 0.208823 0.737649
0.615293 0.209300 0.750624
0.762241 0.209256 0.762241
0.902096 0.212928 0.764262
1.000000 0.216376 0.767957
0.000000 0.329857 0.659715
0.094197 0.340270 0.709379
0.209344 0.345760 0.755010
0.346034 0.346034 0.796166
0.498439 0.345561 0.804196
0.655304 0.344329 0.810792
0.815986 0.342370 0.815986
0.965377 0.344976 0.810277
1.000000 0.347569 0.807265
0.000000 0.474044 0.711066
0.092943 0.488138 0.751601
0.206646 0.496924 0.787201
0.341483 0.500167 0.817535
0.497674 0.497674 0.842312
0.667770 0.493465 0.842075
0.840458 0.488361 0.840458
0.999964 0.487725 0.829218
1.000000 0.487562 0.821201
0.000000 0.625359 0.750430
0.089237 0.642217 0.780462
0.198912 0.653401 0.804897
0.329176 0.658731 0.823508
0.480029 0.658068 0.836107
0.651315 0.651315 0.842548
0.834087 0.641859 0.834087
1.000000 0.635738 0.820039
1.000000 0.630867 0.809113
0.000000 0.777806 0.777806
0.083471 0.796358 0.796358
0.186926 0.808885 0.808885
0.310294 0.815263 0.815263
0.453351 0.815405 0.815405
0.615720 0.809275 0.809275
0.796873 0.796873 0.796873
0.971476 0.784895 0.784895
1.000000 0.774757 0.774757
0.000000 0.925391 0.793193
0.084115 0.942072 0.799079
0.184914 0.953123 0.799481
0.302069 0.958483 0.794379
0.435122 0.958133 0.783796
0.583485 0.952087 0.767786
0.746437 0.940391 0.746437
0.916912 0.916912 0.768383
1.000000 0.903106 0.748185
0.000000 1.000000 0.796592
0.083637 1.000000 0.791945
0.181085 1.000000 0.782391
0.291801 1.000000 0.767935
0.413642 1.000000 0.746008
0.546909 1.000000 0.720334
0.691468 1.000000 0.691468
0.852945 1.000000 0.674054
1.000000 1.000000 0.726022
0.000000 0.000000 0.662000
0.091445 0.000000 0.640119
0.178560 0.000000 0.624962
0.264032 0.000000 0.616074
0.362754 0.000000 0.634820
0.472276 0.000000 0.661186
0.588290 0.000000 0.686339
0.710248 0.000000 0.710248
0.837620 0.000000 0.732917
0.000000 0.088215 0.617504
0.088947 0.088947 0.684844
0.194236 0.090925 0.710793
0.306845 0.092614 0.735306
0.426209 0.094023 0.758394
0.551776 0.095163 0.780083
0.682976 0.096041 0.800363
0.819246 0.096665 0.819246
0.954321 0.099203 0.832161
0.000000 0.201105 0.703869
0.094470 0.206468 0.766461
0.207832 0.207832 0.826611
0.337010 0.209861 0.845610
0.472045 0.211364 0.863067
0.612338 0.212357 0.878992
0.757293 0.212858 0.893402
0.906315 0.212885 0.906315
1.000000 0.216374 0.909698
0.000000 0.332722 0.776352
0.096966 0.342018 0.832121
0.212595 0.346958 0.884410
0.347304 0.347304 0.932816
0.496653 0.347602 0.943807
0.650195 0.347183 0.953207
0.807302 0.346074 0.961045
0.967347 0.344301 0.967347
1.000000 0.346970 0.962189
0.000000 0.477056 0.834849
0.096772 0.489468 0.882164
0.211865 0.497183 0.925159
0.345504 0.500007 0.963516
0.497784 0.497784 0.996951
0.662928 0.494708 0.999367
0.830412 0.490775 1.000000
0.999574 0.486021 0.999574
1.000000 0.485976 0.987480
0.000000 0.628115 0.879361
0.094225 0.642692 0.916925
0.206314 0.652242 0.949527
0.336302 0.656620 0.976938
0.484093 0.655717 0.998966
0.649460 0.649460 1.000000
0.825374 0.641510 1.000000
1.000000 0.632613 1.000000
1.000000 0.627912 0.984595
0.000000 0.779904 0.909888
0.089662 0.795559 0.936739
0.196617 0.805873 0.958187
0.320710 0.810748 0.974094
0.461655 0.810122 0.984356
0.619031 0.803965 0.988900
0.792291 0.792291 0.987699
0.973302 0.778111 0.973302
1.000000 0.766823 0.953738
0.000000 0.926427 0.926427
0.083418 0.941942 0.941942
0.183446 0.951815 0.951815
0.299738 0.955995 0.955995
0.431813 0.954462 0.954462
0.579065 0.947244 0.947244
0.740713 0.934344 0.934344
0.912597 0.912597 0.912597
1.000000 0.892270 0.892270
0.000000 1.000000 0.928979
0.082907 1.000000 0.932145
0.179537 1.000000 0.930183
0.288974 1.000000 0.921919
0.409681 1.000000 0.906564
0.541897 1.000000 0.887593
0.685470 1.000000 0.865432
0.840486 1.000000 0.840486
1.000000 1.000000 0.860978
0.000000 0.000000 0.747167
0.090606 0.000000 0.724845
0.177503 0.000000 0.710011
0.264441 0.000000 0.705176
0.367955 0.000000 0.735910
0.478483 0.000000 0.765572
0.595364 0.000000 0.793818
0.718081 0.000000 0.820664
0.846098 0.000000 0.846098
0.000000 0.089538 0.716304
0.090113 0.090113 0.788540
0.195886 0.092214 0.817914
0.308798 0.094042 0.845687
0.428290 0.095606 0.871869
0.553804 0.096913 0.896472
0.684787 0.097972 0.919512
0.820678 0.098791 0.940992
0.960915 0.099376 0.960915
0.000000 0.203375 0.813500
0.096111 0.208239 0.881008
0.209500 0.209500 0.946367
0.337916 0.211836 0.968314
0.471966 0.213671 0.988556
0.611066 0.215023 1.000000
0.754630 0.215905 1.000000
0.902067 0.216333 1.000000
1.000000 0.216322 1.000000
0.000000 0.335524 0.894732
0.099239 0.343929 0.955652
0.215398 0.348406 1.000000
0.348755 0.348755 1.000000
0.495924 0.349589 1.000000
0.647055 0.349738 1.000000
0.801533 0.349223 1.000000
0.958743 0.348070 1.000000
1.000000 0.346302 1.000000
0.000000 0.479987 0.959974
0.099794 0.491071 1.000000
0.216048 0.497916 1.000000
0.348876 0.500362 1.000000
0.498279 0.498279 1.000000
0.659739 0.495996 1.000000
0.823320 0.492886 1.000000
0.988379 0.488979 1.000000
1.000000 0.484306 1.000000
0.000000 0.630769 1.000000
0.098069 0.643555 1.000000
0.212040 0.651801 1.000000
0.341861 0.655388 1.000000
0.487364 0.654229 1.000000
0.648268 0.648268 1.000000
0.818991 0.641379 1.000000
0.989822 0.633563 1.000000
1.000000 0.624858 1.000000
0.000000 0.781879 1.000000
0.094360 0.795270 1.000000
0.203964 0.803831 1.000000
0.328594 0.807487 1.000000
0.467914 0.806193 1.000000
0.621479 0.799933 1.000000
0.788721 0.788721 1.000000
0.963102 0.775857 1.000000
1.000000 0.762013 1.000000
0.000000 0.927321 1.000000
0.088961 0.940101 1.000000
0.192409 0.947777 1.000000
0.309958 0.950313 1.000000
0.441109 0.947706 1.000000
0.585244 0.939979 1.000000
0.740740 0.926075 1.000000
0.905034 0.905034 1.000000
1.000000 0.882996 1.000000
0.000000 1.000000 1.000000
0.082167 1.000000 1.000000
0.177964 1.000000 1.000000
0.286079 1.000000 1.000000
0.405738 1.000000 1.000000
0.536931 1.000000 1.000000
0.679556 1.000000 1.000000
0.833763 1.000000 1.000000
1.000000 1.000000 1.000000
