_backup/뉴턴_LUT/뉴턴_팝_A.cube
TITLE "newton_pop_A"
LUT_3D_SIZE 9
0.000000 0.000000 0.000000
0.107891 0.000000 0.000000
0.209412 0.000000 0.000000
0.306765 0.000000 0.000000
0.401967 0.000000 0.000000
0.496858 0.000000 0.000000
0.599732 0.000000 0.000000
0.718478 0.000000 0.000000
0.841599 0.000000 0.000000
0.000000 0.101536 0.000000
0.100012 0.100012 0.000000
0.198230 0.099115 0.000000
0.302838 0.100946 0.000000
0.414341 0.103585 0.000000
0.530509 0.106102 0.000000
0.650965 0.108494 0.000000
0.775338 0.110762 0.000000
0.903258 0.112907 0.000000
0.000000 0.203844 0.000000
0.104516 0.209033 0.000000
0.213973 0.213973 0.000000
0.328001 0.218667 0.000000
0.446232 0.223116 0.000000
0.568291 0.227316 0.000000
0.693807 0.231269 0.000000
0.822411 0.234975 0.000000
0.953736 0.238434 0.000000
0.000000 0.330475 0.000000
0.112336 0.337010 0.000000
0.228783 0.343175 0.000000
0.348971 0.348971 0.000000
0.472526 0.354395 0.000000
0.599080 0.359448 0.000000
0.728260 0.364130 0.000000
0.859699 0.368442 0.000000
0.993022 0.372383 0.000000
0.000000 0.467984 0.000000
0.118759 0.475036 0.000000
0.240797 0.481594 0.000000
0.365743 0.487658 0.000000
0.493227 0.493227 0.000000
0.622877 0.498301 0.000000
0.754323 0.502882 0.000000
0.887194 0.506968 0.000000
1.000000 0.510560 0.000000
0.000000 0.612177 0.000000
0.123783 0.618914 0.000000
0.250013 0.625033 0.000000
0.378320 0.630533 0.000000
0.508333 0.635416 0.000000
0.639681 0.639681 0.000000
0.771993 0.643328 0.000000
0.904899 0.646356 0.000000
1.000000 0.648768 0.000000
0.000000 0.758859 0.000000
0.127408 0.764448 0.000000
0.256432 0.769296 0.000000
0.386701 0.773403 0.000000
0.517845 0.776768 0.000000
0.649492 0.779390 0.000000
0.781271 0.781271 0.000000
0.912814 0.782412 0.000000
1.000000 0.782812 0.000000
0.000000 0.903832 0.000000
0.129634 0.907442 0.000000
0.260054 0.910188 0.000000
0.390887 0.912069 0.000000
0.521762 0.913083 0.000000
0.652309 0.913233 0.000000
0.782158 0.912518 0.000000
0.910940 0.910940 0.000000
1.000000 0.908493 0.000000
0.000000 1.000000 0.000000
0.130462 1.000000 0.000000
0.260878 1.000000 0.000000
0.390875 1.000000 0.000000
0.520084 1.000000 0.000000
0.648114 1.000000 0.000000
0.772629 1.000000 0.000000
0.895129 1.000000 0.000000
1.000000 1.000000 0.000000
0.000000 0.000000 0.110384
0.106731 0.000000 0.106731
0.207591 0.000000 0.103796
0.304743 0.000000 0.101581
0.400166 0.000000 0.100042
0.495648 0.000000 0.099130
0.605275 0.000000 0.100879
0.724660 0.000000 0.103523
0.848335 0.000000 0.106042
0.000000 0.100945 0.100945
0.099639 0.099639 0.099639
0.210301 0.095951 0.095951
0.321931 0.097440 0.097440
0.436689 0.099358 0.099358
0.555244 0.101363 0.101363
0.677608 0.103355 0.103355
0.803562 0.105288 0.105288
0.932814 0.107142 0.107142
0.000000 0.205632 0.102816
0.092181 0.215990 0.092181
0.216081 0.216081 0.101565
0.336116 0.219258 0.102399
0.459797 0.222284 0.103527
0.585794 0.225415 0.105289
0.714237 0.228553 0.107132
0.845103 0.231610 0.108912
0.978217 0.234532 0.110585
0.000000 0.332736 0.110912
0.094183 0.346659 0.094183
0.221492 0.349977 0.093006
0.351555 0.351555 0.107934
0.478857 0.355860 0.109867
0.609417 0.359836 0.110254
0.742063 0.363512 0.111146
0.876294 0.366955 0.112286
1.000000 0.370155 0.113481
0.000000 0.470435 0.117609
0.096927 0.486240 0.096927
0.227483 0.490499 0.095974
0.361090 0.494201 0.094867
0.495841 0.495841 0.113018
0.628161 0.499925 0.115219
0.762458 0.503630 0.115388
0.898042 0.506836 0.115630
1.000000 0.509601 0.116071
0.000000 0.614535 0.122907
0.099338 0.630967 0.099338
0.232589 0.635104 0.098417
0.367973 0.638581 0.097365
0.505101 0.641405 0.096189
0.641912 0.641912 0.116337
0.776193 0.644630 0.118379
0.911112 0.646881 0.118420
1.000000 0.648508 0.118204
0.000000 0.760841 0.126807
0.101059 0.776785 0.101059
0.236028 0.779851 0.100072
0.372243 0.782150 0.098971
0.509316 0.783686 0.097761
0.646860 0.784464 0.096447
0.782719 0.782719 0.117734
0.915681 0.782967 0.119402
1.000000 0.782635 0.119261
0.000000 0.905156 0.129308
0.101936 0.919560 0.101936
0.237466 0.920658 0.100827
0.373370 0.920877 0.099617
0.509264 0.920219 0.098309
0.644760 0.918686 0.096907
0.779474 0.916285 0.095415
0.911207 0.911207 0.117140
1.000000 0.907889 0.118318
0.000000 1.000000 0.130410
0.101892 1.000000 0.101892
0.236736 1.000000 0.100628
0.371093 1.000000 0.099271
0.504577 1.000000 0.097824
0.636287 1.000000 0.096213
0.764790 1.000000 0.094354
0.891449 1.000000 0.092512
1.000000 1.000000 0.113893
0.000000 0.000000 0.218126
0.105646 0.000000 0.211291
0.205931 0.000000 0.205931
0.302956 0.000000 0.201971
0.398655 0.000000 0.199328
0.495645 0.000000 0.198258
0.610750 0.000000 0.203583
0.730738 0.000000 0.208782
0.854949 0.000000 0.213737
0.000000 0.100430 0.200861
0.098082 0.098082 0.214803
0.212670 0.095085 0.212670
0.326271 0.096790 0.211530
0.442335 0.098766 0.213289
0.561909 0.100782 0.216064
0.685097 0.102760 0.219228
0.811737 0.104669 0.222514
0.941555 0.106492 0.225786
0.000000 0.207394 0.207394
0.091572 0.216365 0.216365
0.217189 0.217189 0.217189
0.350379 0.216909 0.216909
0.479214 0.218645 0.218645
0.608319 0.221050 0.221050
0.738992 0.223674 0.223674
0.871574 0.226323 0.226323
1.000000 0.228902 0.228902
0.000000 0.334952 0.223301
0.093806 0.347839 0.220822
0.212124 0.354842 0.212124
0.353400 0.353400 0.226066
0.486593 0.356325 0.226057
0.622810 0.358733 0.226694
0.759310 0.361265 0.228584
0.896263 0.363859 0.230758
1.000000 0.366392 0.232906
0.000000 0.472828 0.236414
0.096621 0.487750 0.226997
0.212484 0.497872 0.212484
0.354794 0.499170 0.210418
0.497845 0.497845 0.234002
0.633570 0.500973 0.235779
0.771903 0.503533 0.235163
0.910887 0.505657 0.235503
1.000000 0.507502 0.236366
0.000000 0.616821 0.246728
0.099040 0.632446 0.232391
0.213756 0.643880 0.213756
0.356243 0.645309 0.211710
0.500501 0.646052 0.209400
0.643612 0.643612 0.239065
0.780173 0.645475 0.241380
0.917808 0.646837 0.240381
1.000000 0.647533 0.239553
0.000000 0.762736 0.254245
0.100737 0.777913 0.236172
0.214436 0.789271 0.214436
0.356608 0.789746 0.212229
0.499616 0.789439 0.209793
0.643055 0.788361 0.207136
0.783692 0.783692 0.240609
0.918224 0.783118 0.242691
1.000000 0.782016 0.241436
0.000000 0.906379 0.258965
0.101571 0.920033 0.237981
0.213878 0.930103 0.213878
0.354857 0.928649 0.211408
0.495764 0.926310 0.208734
0.636202 0.923096 0.205862
0.775767 0.919009 0.202799
0.911041 0.911041 0.238358
1.000000 0.906251 0.239604
0.000000 1.000000 0.260888
0.101473 1.000000 0.237641
0.211760 1.000000 0.211760
0.350471 1.000000 0.208964
0.488224 1.000000 0.205981
0.623507 1.000000 0.202455
0.756170 1.000000 0.198665
0.886999 1.000000 0.194926
1.000000 1.000000 0.230942
0.000000 0.000000 0.323489
0.104654 0.000000 0.313962
0.204431 0.000000 0.306646
0.301395 0.000000 0.301395
0.397425 0.000000 0.298068
0.500032 0.000000 0.300019
0.616134 0.000000 0.308067
0.736730 0.000000 0.315742
0.861452 0.000000 0.323045
0.000000 0.099989 0.299968
0.097434 0.097434 0.318767
0.209571 0.096791 0.322352
0.328194 0.096746 0.328194
0.445189 0.098883 0.329754
0.565522 0.100980 0.333251
0.689339 0.103000 0.337536
0.816492 0.104927 0.342116
0.946724 0.106754 0.346746
0.000000 0.209128 0.313692
0.096298 0.215818 0.335337
0.216910 0.216910 0.351808
0.353419 0.215781 0.353419
0.484683 0.217496 0.351089
0.615437 0.219844 0.351708
0.747321 0.222393 0.353625
0.880825 0.224959 0.356132
1.000000 0.227451 0.358878
0.000000 0.337130 0.337130
0.093405 0.348964 0.348964
0.211339 0.354848 0.354848
0.354493 0.354493 0.354493
0.501041 0.353693 0.353693
0.642123 0.354738 0.354738
0.781430 0.356534 0.356534
0.920334 0.358610 0.358610
1.000000 0.360730 0.360730
0.000000 0.475164 0.356373
0.096297 0.489194 0.358228
0.211818 0.498381 0.355100
0.346841 0.502547 0.346841
0.499233 0.499233 0.362987
0.640642 0.501014 0.361385
0.784629 0.501882 0.360508
0.927271 0.502797 0.361306
1.000000 0.503764 0.362556
0.000000 0.619035 0.371421
0.098727 0.633849 0.366288
0.213091 0.644443 0.356875
0.343122 0.650705 0.343122
0.494527 0.649348 0.339706
0.644780 0.644780 0.368177
0.784374 0.645772 0.368568
0.925928 0.645932 0.365936
1.000000 0.645487 0.364571
0.000000 0.764546 0.382273
0.100401 0.778952 0.371821
0.213712 0.789520 0.357664
0.339798 0.796183 0.339798
0.488745 0.794023 0.336106
0.638076 0.791080 0.332067
0.784186 0.784186 0.368592
0.920596 0.782841 0.369574
1.000000 0.780837 0.366342
0.000000 0.907502 0.388929
0.101194 0.920402 0.374264
0.213063 0.929710 0.356392
0.335351 0.935384 0.335351
0.481269 0.931360 0.331239
0.626637 0.926457 0.326817
0.771040 0.920688 0.322096
0.910442 0.910442 0.363603
1.000000 0.904019 0.363565
0.000000 1.000000 0.391390
0.101044 1.000000 0.373332
0.210832 1.000000 0.352520
0.329022 1.000000 0.329022
0.471011 1.000000 0.324387
0.609955 1.000000 0.318647
0.746784 1.000000 0.312863
0.881793 1.000000 0.307183
1.000000 1.000000 0.351147
0.000000 0.000000 0.426657
0.103749 0.000000 0.414997
0.203093 0.000000 0.406185
0.300056 0.000000 0.400075
0.396474 0.000000 0.396474
0.504652 0.000000 0.403722
0.621425 0.000000 0.414283
0.742616 0.000000 0.424352
0.867848 0.000000 0.433924
0.000000 0.099620 0.398481
0.097334 0.097334 0.421019
0.208904 0.098080 0.430552
0.325925 0.098633 0.439571
0.447974 0.098975 0.447974
0.569049 0.101156 0.452076
0.693483 0.103220 0.457377
0.821141 0.105167 0.463154
0.951776 0.107000 0.469047
0.000000 0.210831 0.421663
0.099050 0.216329 0.450886
0.217508 0.217508 0.476349
0.349613 0.217632 0.481594
0.486153 0.217359 0.486153
0.617679 0.219889 0.485082
0.750145 0.222534 0.486339
0.884085 0.225148 0.488723
1.000000 0.227656 0.491632
0.000000 0.339263 0.452351
0.098511 0.348851 0.474020
0.216373 0.353831 0.491289
0.353997 0.353997 0.503918
0.504160 0.352169 0.504160
0.647998 0.352985 0.500492
0.789207 0.354577 0.499454
0.929482 0.356467 0.499720
1.000000 0.358412 0.500627
0.000000 0.477444 0.477444
0.095955 0.490574 0.490574
0.211115 0.498820 0.498820
0.345743 0.502010 0.502010
0.500000 0.500000 0.500000
0.654808 0.497841 0.497841
0.803289 0.497291 0.497291
0.948358 0.497461 0.497461
1.000000 0.497909 0.497909
0.000000 0.621178 0.496943
0.098398 0.635175 0.500981
0.212395 0.644926 0.500749
0.342008 0.650323 0.496166
0.487172 0.651283 0.487172
0.645413 0.645413 0.503663
0.790406 0.645062 0.499717
0.937460 0.643440 0.496429
1.000000 0.641740 0.495065
0.000000 0.766272 0.510848
0.100052 0.779902 0.507962
0.212962 0.789678 0.501320
0.338584 0.795537 0.490902
0.476703 0.797432 0.476703
0.631923 0.792620 0.471227
0.784205 0.784205 0.501646
0.923250 0.782039 0.499617
1.000000 0.778795 0.494078
0.000000 0.908526 0.519158
0.100805 0.920670 0.510738
0.212223 0.929212 0.499019
0.333990 0.934118 0.484022
0.465784 0.935367 0.465784
0.616072 0.928775 0.459721
0.765294 0.921322 0.453239
0.909382 0.909382 0.492806
1.000000 0.901470 0.489966
0.000000 1.000000 0.521873
0.100603 1.000000 0.508919
0.209882 1.000000 0.493087
0.327486 1.000000 0.474428
0.452616 1.000000 0.452616
0.595642 1.000000 0.444713
0.736642 1.000000 0.436880
0.875846 1.000000 0.429228
1.000000 1.000000 0.474514
0.000000 0.000000 0.527939
0.102921 0.000000 0.514605
0.201909 0.000000 0.504774
0.298934 0.000000 0.498224
0.396664 0.000000 0.495831
0.509210 0.000000 0.509210
0.626637 0.000000 0.522197
0.748396 0.000000 0.534568
0.874123 0.000000 0.546327
0.000000 0.099323 0.496613
0.098100 0.098100 0.526632
0.209191 0.099193 0.539183
0.325550 0.100089 0.551010
0.446783 0.100794 0.562112
0.572498 0.101311 0.572498
0.697528 0.103419 0.578706
0.825680 0.105389 0.585583
0.956706 0.107228 0.592644
0.000000 0.212506 0.531266
0.101003 0.217246 0.565974
0.218436 0.218436 0.597712
0.348144 0.219282 0.605868
0.482079 0.219764 0.613237
0.619831 0.219893 0.619831
0.752867 0.222638 0.620310
0.887233 0.225302 0.622460
1.000000 0.227829 0.625432
0.000000 0.341352 0.568921
0.101823 0.349535 0.597247
0.219856 0.353919 0.622044
0.354343 0.354343 0.643098
0.500001 0.353690 0.646312
0.648730 0.352539 0.648730
0.790492 0.354294 0.645092
0.931135 0.356266 0.643701
1.000000 0.358247 0.643492
0.000000 0.479666 0.599583
0.100770 0.490688 0.620661
0.217460 0.497671 0.637776
0.350195 0.500483 0.650771
0.499016 0.499016 0.659512
0.657554 0.495703 0.657554
0.808952 0.494743 0.651847
0.956067 0.494571 0.648403
1.000000 0.494718 0.646154
0.000000 0.623250 0.623250
0.098055 0.636425 0.636425
0.211668 0.645329 0.645329
0.340846 0.649860 0.649860
0.485512 0.649938 0.649938
0.645507 0.645507 0.645507
0.803749 0.641079 0.641079
0.954866 0.638003 0.638003
1.000000 0.635555 0.635555
0.000000 0.767910 0.639925
0.099690 0.780764 0.644549
0.212185 0.789747 0.645357
0.337329 0.794801 0.642310
0.474896 0.795884 0.635390
0.624596 0.792974 0.624596
0.783748 0.783748 0.639735
0.927833 0.780241 0.632649
1.000000 0.775160 0.626085
0.000000 0.909451 0.649608
0.100405 0.920838 0.647361
0.211360 0.928613 0.641712
0.332593 0.932747 0.632670
0.463773 0.933226 0.620257
0.604512 0.930051 0.604512
0.758537 0.920916 0.596158
0.907212 0.907212 0.625449
1.000000 0.898513 0.618414
0.000000 1.000000 0.652296
0.100152 1.000000 0.644360
0.208910 1.000000 0.633413
0.325915 1.000000 0.619495
0.449932 1.000000 0.601556
0.580581 1.000000 0.580581
0.725758 1.000000 0.570658
0.869172 1.000000 0.561017
1.000000 1.000000 0.601059
0.000000 0.000000 0.627616
0.102176 0.000000 0.613057
0.200876 0.000000 0.602629
0.298024 0.000000 0.596049
0.400229 0.000000 0.600344
0.513690 0.000000 0.616428
0.631766 0.000000 0.631766
0.754086 0.000000 0.646359
0.880280 0.000000 0.660210
0.000000 0.099093 0.594558
0.098920 0.098920 0.633635
0.209944 0.100213 0.648866
0.326099 0.101323 0.663262
0.447002 0.102255 0.676833
0.572260 0.103013 0.689571
0.701485 0.103601 0.701485
0.830109 0.105592 0.709356
0.961512 0.107439 0.717491
0.000000 0.214155 0.642466
0.102551 0.218353 0.681564
0.219516 0.219516 0.718169
0.347820 0.220816 0.728831
0.480186 0.221775 0.738598
0.616211 0.222402 0.747480
0.755488 0.222706 0.755488
0.890266 0.225421 0.757297
1.000000 0.227968 0.760228
0.000000 0.343400 0.686801
0.104230 0.350597 0.720146
0.222549 0.354536 0.750497
0.355087 0.355087 0.777653
0.497863 0.355179 0.783230
0.643532 0.354797 0.787899
0.791674 0.353958 0.791674
0.932674 0.356017 0.788510
1.000000 0.358034 0.787079
0.000000 0.481831 0.722746
0.104135 0.491386 0.749554
0.221971 0.497468 0.772964
0.353541 0.499970 0.792829
0.498807 0.498807 0.809018
0.652911 0.496552 0.809271
0.808639 0.493717 0.808639
0.956058 0.493671 0.801929
1.000000 0.493876 0.797231
0.000000 0.625251 0.750301
0.102438 0.636455 0.769959
0.218132 0.643976 0.785924
0.347015 0.647735 0.798095
0.488951 0.647669 0.806388
0.643736 0.643736 0.810737
0.805685 0.638066 0.805685
0.959743 0.634435 0.797089
1.000000 0.631523 0.790392
0.000000 0.769464 0.769464
0.099315 0.781537 0.781537
0.211382 0.789726 0.789726
0.336034 0.793975 0.793975
0.473035 0.794248 0.794248
0.622084 0.790526 0.790526
0.782811 0.782811 0.782811
0.939777 0.775171 0.775171
1.000000 0.768622 0.768622
0.000000 0.910274 0.780235
0.099993 0.920904 0.784085
0.210473 0.927914 0.784426
0.331159 0.931276 0.781247
0.461712 0.930984 0.774560
0.601735 0.927042 0.764388
0.750773 0.919473 0.750773
0.904438 0.904438 0.761586
1.000000 0.894686 0.748824
0.000000 1.000000 0.782615
0.099690 1.000000 0.779611
0.207916 1.000000 0.773453
0.324292 1.000000 0.764128
0.447246 1.000000 0.749780
0.577189 1.000000 0.732996
0.714144 1.000000 0.714144
0.861782 1.000000 0.702513
1.000000 1.000000 0.730802
0.000000 0.000000 0.725900
0.101512 0.000000 0.710583
0.199992 0.000000 0.699973
0.297322 0.000000 0.693752
0.403928 0.000000 0.706874
0.518093 0.000000 0.725330
0.636803 0.000000 0.742937
0.759674 0.000000 0.759674
0.886334 0.000000 0.775542
0.000000 0.099250 0.694753
0.099748 0.099748 0.742077
0.210951 0.101174 0.759837
0.327164 0.102425 0.776642
0.448002 0.103507 0.792498
0.573087 0.104425 0.807418
0.702026 0.105180 0.821396
0.834435 0.105778 0.834435
0.966198 0.107633 0.843546
0.000000 0.215774 0.755209
0.103861 0.219558 0.798043
0.220673 0.220673 0.838678
0.348132 0.222273 0.851570
0.479515 0.223549 0.863463
0.614418 0.224508 0.874358
0.752442 0.225158 0.884263
0.893187 0.225506 0.893187
1.000000 0.228074 0.895974
0.000000 0.345406 0.805947
0.106116 0.351858 0.843343
0.224779 0.355439 0.878076
0.356041 0.356041 0.909970
0.496854 0.356630 0.917524
0.640410 0.356765 0.924056
0.786297 0.356457 0.929577
0.934099 0.355719 0.934099
1.000000 0.357775 0.931339
0.000000 0.483940 0.846894
0.106665 0.492395 0.878125
0.225422 0.497782 0.906321
0.356237 0.500012 0.931338
0.499018 0.499018 0.953051
0.649986 0.497471 0.955014
0.802435 0.495363 0.955971
0.955937 0.492709 0.955937
1.000000 0.492974 0.948681
0.000000 0.627180 0.878053
0.105657 0.636913 0.902541
0.222900 0.643384 0.923707
0.351610 0.646530 0.941449
0.491611 0.646301 0.955682
0.642666 0.642666 0.966335
0.800302 0.637923 0.962681
0.958071 0.632533 0.958071
1.000000 0.629705 0.947564
0.000000 0.770933 0.899421
0.103242 0.781155 0.916738
0.217513 0.787932 0.930537
0.342611 0.791219 0.940755
0.478273 0.790989 0.947347
0.624176 0.787228 0.950280
0.779942 0.779942 0.949542
0.940472 0.771007 0.940472
1.000000 0.763791 0.928081
0.000000 0.910999 0.910999
0.099570 0.920867 0.920867
0.209563 0.927110 0.927110
0.329690 0.929706 0.929706
0.459603 0.928644 0.928644
0.598896 0.923937 0.923937
0.747075 0.915575 0.915575
0.901318 0.901318 0.901318
1.000000 0.887769 0.887769
0.000000 1.000000 0.912786
0.099218 1.000000 0.914622
0.206901 1.000000 0.913163
0.322377 1.000000 0.907577
0.444565 1.000000 0.897291
0.573817 1.000000 0.884700
0.710139 1.000000 0.870079
0.853690 1.000000 0.853690
1.000000 1.000000 0.863771
0.000000 0.000000 0.823017
0.100924 0.000000 0.807391
0.199252 0.000000 0.797008
0.297609 0.000000 0.793623
0.407569 0.000000 0.815137
0.522438 0.000000 0.835900
0.641754 0.000000 0.855673
0.765157 0.000000 0.874465
0.892269 0.000000 0.892269
0.000000 0.100177 0.801412
0.100576 0.100576 0.852022
0.212104 0.102091 0.872182
0.328533 0.103439 0.891267
0.449478 0.104624 0.909282
0.574555 0.105651 0.926234
0.703386 0.106521 0.942132
0.835584 0.107240 0.956975
0.970765 0.107810 0.970765
0.000000 0.217362 0.869450
0.105016 0.220811 0.915576
0.221866 0.221866 0.959687
0.348829 0.223672 0.974618
0.479586 0.225164 0.988428
0.613741 0.226352 1.000000
0.750897 0.227241 1.000000
0.890658 0.227837 1.000000
1.000000 0.228149 1.000000
0.000000 0.347367 0.926312
0.107670 0.353227 0.967120
0.226710 0.356505 1.000000
0.357111 0.357111 1.000000
0.496530 0.358042 1.000000
0.638559 0.358533 1.000000
0.782791 0.358595 1.000000
0.928816 0.358236 1.000000
1.000000 0.357469 1.000000
0.000000 0.485991 0.971982
0.108668 0.493577 1.000000
0.228200 0.498397 1.000000
0.358512 0.500381 1.000000
0.499470 0.499470 1.000000
0.648107 0.498414 1.000000
0.798099 0.496811 1.000000
0.949023 0.494673 1.000000
1.000000 0.492014 1.000000
0.000000 0.629039 1.000000
0.108142 0.637613 1.000000
0.226598 0.643243 1.000000
0.355208 0.645875 1.000000
0.493764 0.645471 1.000000
0.642005 0.642005 1.000000
0.796374 0.637909 1.000000
0.950763 0.633173 1.000000
1.000000 0.627818 1.000000
0.000000 0.772315 1.000000
0.106224 0.781087 1.000000
0.222166 0.786740 1.000000
0.347593 0.789241 1.000000
0.482222 0.788570 1.000000
0.625719 0.784720 1.000000
0.777696 0.777696 1.000000
0.934051 0.769555 1.000000
1.000000 0.760707 1.000000
0.000000 0.911625 1.000000
0.103045 0.919750 1.000000
0.215168 0.924589 1.000000
0.336062 0.926127 1.000000
0.465370 0.924363 1.000000
0.602682 0.919304 1.000000
0.746899 0.910200 1.000000
0.896344 0.896344 1.000000
1.000000 0.881815 1.000000
0.000000 1.000000 1.000000
0.098735 1.000000 1.000000
0.205865 1.000000 1.000000
0.320403 1.000000 1.000000
0.441892 1.000000 1.000000
0.570474 1.000000 1.000000
0.706189 1.000000 1.000000
0.849238 1.000000 1.000000
1.000000 1.000000 1.000000
