_backup/뉴턴_LUT/뉴턴_룩_유니버설.cube
TITLE "newton_look_universal"
LUT_3D_SIZE 9
0.000000 0.000000 0.000000
0.126189 0.000000 0.000000
0.247956 0.000000 0.000000
0.366829 0.000000 0.000000
0.484208 0.000000 0.000000
0.601372 0.000000 0.000000
0.724078 0.000000 0.000000
0.857803 0.000000 0.000000
0.994567 0.000000 0.000000
0.000000 0.114961 0.000000
0.109781 0.109781 0.000000
0.225410 0.107431 0.000000
0.348329 0.105875 0.000000
0.476569 0.104473 0.000000
0.608207 0.102831 0.000000
0.742880 0.101000 0.000000
0.880302 0.099004 0.000000
1.000000 0.096855 0.000000
0.000000 0.230428 0.000000
0.101310 0.230253 0.000000
0.228369 0.228369 0.000000
0.352911 0.229760 0.000000
0.483249 0.230317 0.000000
0.617708 0.230160 0.000000
0.755196 0.229542 0.000000
0.895125 0.228586 0.000000
1.000000 0.227354 0.000000
0.000000 0.361837 0.000000
0.093196 0.362388 0.000000
0.226532 0.362614 0.000000
0.360239 0.360239 0.000000
0.490490 0.362079 0.000000
0.625086 0.363317 0.000000
0.763258 0.363770 0.000000
0.904008 0.363605 0.000000
1.000000 0.362957 0.000000
0.000000 0.500376 0.000000
0.083421 0.501136 0.000000
0.220661 0.501508 0.000000
0.359978 0.501497 0.000000
0.497955 0.497955 0.000000
0.631964 0.499520 0.000000
0.768958 0.500623 0.000000
0.908670 0.500956 0.000000
1.000000 0.500586 0.000000
0.000000 0.643296 0.000000
0.072269 0.643749 0.000000
0.212485 0.643749 0.000000
0.354201 0.643301 0.000000
0.497159 0.642415 0.000000
0.637059 0.637059 0.000000
0.772715 0.637669 0.000000
0.910136 0.637882 0.000000
1.000000 0.637358 0.000000
0.000000 0.787846 0.000000
0.060022 0.787475 0.000000
0.202287 0.786586 0.000000
0.345477 0.785185 0.000000
0.489332 0.783281 0.000000
0.633590 0.780881 0.000000
0.773091 0.773091 0.000000
0.908225 0.772082 0.000000
1.000000 0.770690 0.000000
0.000000 0.931277 0.000000
0.046963 0.929564 0.000000
0.190351 0.927269 0.000000
0.334087 0.924399 0.000000
0.477911 0.920959 0.000000
0.621564 0.916960 0.000000
0.764784 0.912408 0.000000
0.901597 0.901597 0.000000
1.000000 0.898306 0.000000
0.000000 1.000000 0.000000
0.033376 1.000000 0.000000
0.176959 1.000000 0.000000
0.320314 1.000000 0.000000
0.463182 1.000000 0.000000
0.605302 1.000000 0.000000
0.746413 1.000000 0.000000
0.886254 1.000000 0.000000
1.000000 1.000000 0.000000
0.000000 0.000000 0.131930
0.125694 0.000000 0.125694
0.248513 0.000000 0.120090
0.368720 0.000000 0.115077
0.487707 0.000000 0.110581
0.606731 0.000000 0.106533
0.735679 0.000000 0.104108
0.871477 0.000000 0.102127
1.000000 0.000000 0.099971
0.000000 0.113384 0.113384
0.109059 0.109059 0.109059
0.228908 0.105698 0.105698
0.354453 0.104218 0.104218
0.483494 0.102594 0.102594
0.615720 0.100809 0.100809
0.750879 0.098871 0.098871
0.888708 0.096784 0.096784
1.000000 0.094556 0.094556
0.000000 0.230397 0.102683
0.100574 0.230134 0.100574
0.228884 0.228884 0.107638
0.355365 0.229891 0.104418
0.487930 0.229749 0.100659
0.623762 0.229109 0.097557
0.762115 0.228163 0.094675
0.902623 0.226970 0.091840
1.000000 0.225554 0.088980
0.000000 0.362061 0.094928
0.092280 0.362501 0.092280
0.226052 0.362618 0.089486
0.360893 0.360893 0.106182
0.492039 0.362579 0.103660
0.628272 0.363334 0.098395
0.767825 0.363288 0.093597
0.909556 0.362711 0.089289
1.000000 0.361733 0.085282
0.000000 0.500679 0.085457
0.082353 0.501306 0.082353
0.219935 0.501547 0.079129
0.359536 0.501408 0.075794
0.498524 0.498524 0.102842
0.632967 0.499977 0.101006
0.770986 0.500750 0.095395
0.911775 0.500656 0.089537
1.000000 0.499872 0.084055
0.000000 0.643501 0.074553
0.071077 0.643800 0.071077
0.211542 0.643647 0.067507
0.353450 0.643049 0.063850
0.496540 0.642015 0.060114
0.637318 0.637318 0.097871
0.773131 0.637811 0.096530
0.911119 0.637771 0.091076
1.000000 0.636888 0.084741
0.000000 0.787779 0.062499
0.058736 0.787231 0.058736
0.201156 0.786167 0.054903
0.344443 0.784594 0.051009
0.488337 0.782521 0.047061
0.632577 0.779955 0.043065
0.772816 0.772816 0.091525
0.907897 0.771669 0.090530
1.000000 0.770057 0.085430
0.000000 0.930762 0.049577
0.045611 0.928850 0.045611
0.189060 0.926358 0.041600
0.332800 0.923294 0.037553
0.476570 0.919665 0.033476
0.620110 0.915476 0.029377
0.763159 0.910737 0.025264
0.900560 0.900560 0.084057
1.000000 0.897110 0.083310
0.000000 1.000000 0.036072
0.031986 1.000000 0.031986
0.175537 1.000000 0.027881
0.318803 1.000000 0.023765
0.461522 1.000000 0.019644
0.603435 1.000000 0.015526
0.744282 1.000000 0.011419
0.883802 1.000000 0.007329
1.000000 1.000000 0.075723
0.000000 0.000000 0.261969
0.123717 0.000000 0.253477
0.246147 0.000000 0.246147
0.366277 0.000000 0.239887
0.485466 0.000000 0.234595
0.605551 0.000000 0.230404
0.738324 0.000000 0.230430
0.874530 0.000000 0.230266
1.000000 0.000000 0.229844
0.000000 0.111863 0.237853
0.107690 0.107690 0.232889
0.230392 0.104661 0.230392
0.358070 0.102733 0.230401
0.489175 0.100628 0.230144
0.623447 0.098353 0.229627
0.760625 0.095917 0.228859
0.900453 0.093326 0.227847
1.000000 0.090588 0.226600
0.000000 0.230338 0.230338
0.099819 0.229984 0.229984
0.229376 0.229376 0.229376
0.360471 0.228944 0.228944
0.494381 0.228281 0.228281
0.630849 0.227392 0.227392
0.769619 0.226286 0.226286
0.910434 0.224969 0.224969
1.000000 0.223446 0.223446
0.000000 0.362246 0.228146
0.091347 0.362577 0.226962
0.225546 0.362586 0.225546
0.361517 0.361517 0.233752
0.494519 0.362780 0.231042
0.632902 0.362786 0.227729
0.773698 0.362220 0.225061
0.916139 0.361289 0.222576
1.000000 0.360051 0.220090
0.000000 0.500936 0.223256
0.081271 0.501431 0.221325
0.219186 0.501542 0.219186
0.359063 0.501275 0.216850
0.499054 0.499054 0.234692
0.634258 0.500328 0.232469
0.773798 0.500582 0.227367
0.915834 0.499958 0.222708
1.000000 0.498735 0.218509
0.000000 0.643654 0.215951
0.069875 0.643798 0.213356
0.210579 0.643493 0.210579
0.352668 0.642747 0.207629
0.495882 0.641566 0.204513
0.637530 0.637530 0.232450
0.773629 0.637888 0.230666
0.912502 0.637493 0.224979
1.000000 0.636156 0.219001
0.000000 0.787651 0.206514
0.057442 0.786927 0.203339
0.200008 0.785690 0.200008
0.343383 0.783946 0.196528
0.487306 0.781704 0.192908
0.631517 0.778971 0.189153
0.772486 0.772486 0.227282
0.907571 0.771199 0.225712
1.000000 0.769311 0.219943
0.000000 0.930178 0.195226
0.044254 0.928069 0.191556
0.187755 0.925381 0.187755
0.331489 0.922124 0.183830
0.475195 0.918304 0.179789
0.618613 0.913929 0.175640
0.761482 0.909005 0.171389
0.899463 0.899463 0.219441
1.000000 0.895852 0.217918
0.000000 1.000000 0.182372
0.030594 1.000000 0.178291
0.174103 1.000000 0.174103
0.317269 1.000000 0.169817
0.459832 1.000000 0.165440
0.601530 1.000000 0.160980
0.742102 1.000000 0.156442
0.881289 1.000000 0.151836
1.000000 1.000000 0.209182
0.000000 0.000000 0.390304
0.121818 0.000000 0.379904
0.243905 0.000000 0.371185
0.364000 0.000000 0.364000
0.483426 0.000000 0.358213
0.607439 0.000000 0.356073
0.740894 0.000000 0.358027
0.877511 0.000000 0.359625
1.000000 0.000000 0.360873
0.000000 0.110397 0.361739
0.106368 0.106368 0.356429
0.230426 0.104027 0.356826
0.358647 0.102037 0.358647
0.490241 0.099874 0.360119
0.624945 0.097544 0.361244
0.762496 0.095054 0.362031
0.902635 0.092412 0.362487
1.000000 0.089626 0.362620
0.000000 0.230248 0.359225
0.099045 0.229807 0.360568
0.229112 0.229112 0.361568
0.362235 0.228172 0.362235
0.498152 0.226994 0.362573
0.636602 0.225584 0.362590
0.777325 0.223950 0.362294
0.920061 0.222100 0.361692
1.000000 0.220041 0.360793
0.000000 0.362395 0.362395
0.090398 0.362615 0.362615
0.225014 0.362518 0.362518
0.362110 0.362110 0.362110
0.499772 0.361845 0.361845
0.639364 0.361292 0.361292
0.780631 0.360457 0.360457
0.923314 0.359347 0.359347
1.000000 0.357968 0.357968
0.000000 0.501147 0.361885
0.080176 0.501511 0.361066
0.218415 0.501493 0.359954
0.358557 0.501101 0.358557
0.499546 0.499546 0.367087
0.636503 0.500364 0.364225
0.778086 0.499828 0.360700
0.921222 0.498653 0.357796
1.000000 0.497052 0.355034
0.000000 0.643754 0.357978
0.068662 0.643744 0.356203
0.209597 0.643289 0.354161
0.351858 0.642394 0.351858
0.495185 0.641068 0.349302
0.637696 0.637696 0.367332
0.774412 0.637851 0.364729
0.914670 0.636907 0.359144
1.000000 0.635013 0.353971
0.000000 0.787463 0.350956
0.056140 0.786564 0.348309
0.198842 0.785154 0.345420
0.342296 0.783241 0.342296
0.486239 0.780831 0.338943
0.630412 0.777933 0.335370
0.772101 0.772101 0.363098
0.907320 0.770657 0.360670
1.000000 0.768389 0.354259
0.000000 0.929526 0.341101
0.042891 0.927220 0.337668
0.186436 0.924339 0.334016
0.330154 0.920890 0.330154
0.473787 0.916879 0.326089
0.617073 0.912317 0.321829
0.759753 0.907210 0.317381
0.898304 0.898304 0.354642
1.000000 0.894529 0.352136
0.000000 1.000000 0.328697
0.029200 1.000000 0.324561
0.172658 1.000000 0.320231
0.315716 1.000000 0.315716
0.458111 1.000000 0.311023
0.599584 1.000000 0.306159
0.739874 1.000000 0.301133
0.878718 1.000000 0.295950
1.000000 1.000000 0.342215
0.000000 0.000000 0.517067
0.119992 0.000000 0.505158
0.241784 0.000000 0.495377
0.361885 0.000000 0.487577
0.481585 0.000000 0.481585
0.609477 0.000000 0.483126
0.743387 0.000000 0.486867
0.880405 0.000000 0.490167
1.000000 0.000000 0.493030
0.000000 0.108982 0.485194
0.105257 0.105257 0.480588
0.230429 0.103371 0.484543
0.359188 0.101322 0.488121
0.491258 0.099101 0.491258
0.626381 0.096716 0.493964
0.764296 0.094174 0.496247
0.904741 0.091482 0.498112
1.000000 0.088648 0.499565
0.000000 0.230126 0.489313
0.098251 0.229599 0.492294
0.228820 0.228820 0.494845
0.362386 0.227798 0.496973
0.498687 0.226540 0.498687
0.637465 0.225054 0.499995
0.778458 0.223346 0.500902
0.921404 0.221424 0.501416
1.000000 0.219296 0.501545
0.000000 0.362506 0.497646
0.089433 0.362618 0.499210
0.224457 0.362414 0.500370
0.361902 0.361902 0.501133
0.501507 0.361090 0.501507
0.643012 0.359985 0.501498
0.786156 0.358594 0.501115
0.930678 0.356925 0.500363
1.000000 0.354986 0.499252
0.000000 0.501315 0.501315
0.079067 0.501548 0.501548
0.217621 0.501401 0.501401
0.358018 0.500883 0.500883
0.500000 0.500000 0.500000
0.641600 0.499220 0.499220
0.784246 0.498095 0.498095
0.927681 0.496630 0.496630
1.000000 0.494833 0.494833
0.000000 0.643801 0.500603
0.067439 0.643639 0.499589
0.208594 0.643034 0.498221
0.351017 0.641992 0.496504
0.494449 0.640520 0.494449
0.637816 0.637816 0.502488
0.776160 0.637486 0.498811
0.918326 0.635719 0.494416
1.000000 0.633250 0.490608
0.000000 0.787216 0.495795
0.054831 0.786142 0.493617
0.197660 0.784560 0.491110
0.341182 0.782477 0.488281
0.485137 0.779902 0.485137
0.629262 0.776839 0.481685
0.771663 0.771663 0.498947
0.907346 0.769991 0.495282
1.000000 0.767151 0.488571
0.000000 0.928808 0.487172
0.041524 0.926305 0.483915
0.185102 0.923230 0.480353
0.328796 0.919591 0.476495
0.472346 0.915393 0.472346
0.615491 0.910643 0.467915
0.757971 0.905352 0.463209
0.897082 0.897082 0.489631
1.000000 0.893128 0.485861
0.000000 1.000000 0.475017
0.027804 1.000000 0.470765
0.171203 1.000000 0.466234
0.314142 1.000000 0.461430
0.456360 1.000000 0.456360
0.597598 1.000000 0.451034
0.737595 1.000000 0.445458
0.876091 1.000000 0.439640
1.000000 1.000000 0.474795
0.000000 0.000000 0.642481
0.118229 0.000000 0.629389
0.239778 0.000000 0.618884
0.359926 0.000000 0.610769
0.480540 0.000000 0.605616
0.611460 0.000000 0.611460
0.745812 0.000000 0.616925
0.883214 0.000000 0.621862
1.000000 0.000000 0.626280
0.000000 0.107616 0.608371
0.104626 0.104626 0.607700
0.230398 0.102695 0.613509
0.359686 0.100587 0.618785
0.492227 0.098309 0.623532
0.627759 0.095870 0.627759
0.766025 0.093276 0.631475
0.906766 0.090535 0.634689
1.000000 0.087655 0.637405
0.000000 0.229975 0.620571
0.097439 0.229362 0.625130
0.228500 0.228500 0.629172
0.362500 0.227397 0.632705
0.499177 0.226061 0.635735
0.638271 0.224498 0.638271
0.779523 0.222717 0.640321
0.922671 0.220724 0.641892
1.000000 0.218527 0.642991
0.000000 0.362579 0.633864
0.088452 0.362583 0.636715
0.223874 0.362274 0.639074
0.361660 0.361660 0.640948
0.501546 0.360747 0.642346
0.643275 0.359544 0.643275
0.786585 0.358058 0.643742
0.931214 0.356296 0.643755
1.000000 0.354267 0.643321
0.000000 0.501437 0.641512
0.077946 0.501541 0.642739
0.216804 0.501267 0.643498
0.357448 0.500624 0.643799
0.499618 0.499618 0.643649
0.643054 0.498258 0.643054
0.787494 0.496551 0.642022
0.932679 0.494503 0.640562
1.000000 0.492123 0.638679
0.000000 0.643796 0.643796
0.066206 0.643483 0.643483
0.207572 0.642729 0.642729
0.350149 0.641540 0.641540
0.493675 0.639924 0.639924
0.637890 0.637890 0.637890
0.780799 0.635913 0.635913
0.923869 0.633533 0.633533
1.000000 0.630757 0.630757
0.000000 0.786908 0.641001
0.053514 0.785662 0.639232
0.196462 0.783909 0.637047
0.340043 0.781657 0.634453
0.483998 0.778915 0.631457
0.628067 0.775690 0.628067
0.771171 0.771171 0.634799
0.908334 0.768988 0.629643
1.000000 0.765303 0.623721
0.000000 0.928024 0.633408
0.040153 0.925326 0.630268
0.183755 0.922057 0.626736
0.327415 0.918226 0.622821
0.470873 0.913841 0.618529
0.613868 0.908908 0.613868
0.756138 0.903433 0.608844
0.895798 0.895798 0.624380
1.000000 0.891593 0.618972
0.000000 1.000000 0.621302
0.026407 1.000000 0.616874
0.169736 1.000000 0.612080
0.312547 1.000000 0.606927
0.454581 1.000000 0.601424
0.595574 1.000000 0.595574
0.735268 1.000000 0.589388
0.873402 1.000000 0.582874
1.000000 1.000000 0.606891
0.000000 0.000000 0.766744
0.116533 0.000000 0.752791
0.237884 0.000000 0.741865
0.358117 0.000000 0.733725
0.481831 0.000000 0.733271
0.613375 0.000000 0.741033
0.748168 0.000000 0.748168
0.885949 0.000000 0.754685
1.000000 0.000000 0.760593
0.000000 0.106296 0.731410
0.103991 0.103991 0.736173
0.230339 0.101998 0.743700
0.360142 0.099831 0.750608
0.493144 0.097498 0.756907
0.629080 0.095006 0.762598
0.767689 0.092361 0.767689
0.908712 0.089572 0.772189
1.000000 0.086647 0.776107
0.000000 0.229796 0.752975
0.096609 0.229097 0.759048
0.228152 0.228152 0.764518
0.362576 0.226969 0.769396
0.499620 0.225555 0.773684
0.639022 0.223917 0.777390
0.780523 0.222063 0.780523
0.923863 0.220000 0.783090
1.000000 0.217736 0.785099
0.000000 0.362616 0.771024
0.087455 0.362513 0.775099
0.223267 0.362099 0.778597
0.361383 0.361383 0.781523
0.501542 0.360371 0.783886
0.643485 0.359071 0.785692
0.786951 0.357490 0.786951
0.931678 0.355637 0.787668
1.000000 0.353518 0.787852
0.000000 0.501514 0.782447
0.076812 0.501489 0.784607
0.215965 0.501090 0.786214
0.356847 0.500323 0.787274
0.499196 0.499196 0.787796
0.642752 0.497717 0.787788
0.787255 0.495893 0.787255
0.932444 0.493732 0.786206
1.000000 0.491240 0.784649
0.000000 0.643740 0.787526
0.064963 0.643276 0.787854
0.206531 0.642373 0.787654
0.349251 0.641039 0.786933
0.492863 0.639280 0.785698
0.637105 0.637105 0.783957
0.781718 0.634521 0.781718
0.926442 0.631535 0.778988
1.000000 0.628155 0.775775
0.000000 0.786542 0.786542
0.052191 0.785122 0.785122
0.195247 0.783200 0.783200
0.338878 0.780781 0.780781
0.482825 0.777874 0.777874
0.626827 0.774485 0.774485
0.770624 0.770624 0.770624
0.912213 0.766768 0.766768
1.000000 0.762450 0.762450
0.000000 0.927171 0.779778
0.038779 0.924279 0.776696
0.182395 0.920820 0.773135
0.326011 0.916799 0.769102
0.469367 0.912226 0.764606
0.612202 0.907108 0.759655
0.754256 0.901453 0.754256
0.894453 0.894453 0.758861
1.000000 0.889716 0.751566
0.000000 1.000000 0.767519
0.025009 1.000000 0.762857
0.168259 1.000000 0.757740
0.310933 1.000000 0.752178
0.452770 1.000000 0.746179
0.593511 1.000000 0.739749
0.732894 1.000000 0.732894
0.870658 1.000000 0.725623
1.000000 1.000000 0.738475
0.000000 0.000000 0.890011
0.114899 0.000000 0.875527
0.236097 0.000000 0.864475
0.356456 0.000000 0.856589
0.483202 0.000000 0.862368
0.615226 0.000000 0.871814
0.750449 0.000000 0.880562
0.888602 0.000000 0.888602
1.000000 0.000000 0.895945
0.000000 0.105214 0.856034
0.103334 0.103334 0.865893
0.230249 0.101282 0.875086
0.360562 0.099058 0.883569
0.494010 0.096669 0.891351
0.630339 0.094124 0.898447
0.769284 0.091430 0.904855
0.910584 0.088594 0.910584
1.000000 0.085623 0.915642
0.000000 0.229587 0.886485
0.095761 0.228804 0.894018
0.227777 0.227777 0.900859
0.362615 0.226514 0.907017
0.500015 0.225023 0.912503
0.639717 0.223311 0.917320
0.781458 0.221386 0.921476
0.924980 0.219254 0.924980
1.000000 0.216923 0.927838
0.000000 0.362617 0.909094
0.086444 0.362407 0.914334
0.222634 0.361889 0.918908
0.361072 0.361072 0.922827
0.501495 0.359961 0.926095
0.643642 0.358565 0.928720
0.787255 0.356891 0.930709
0.932071 0.354947 0.932071
1.000000 0.352739 0.932812
0.000000 0.501549 0.924092
0.075666 0.501395 0.927124
0.215105 0.500870 0.929517
0.356214 0.499980 0.931277
0.498733 0.498733 0.932412
0.642400 0.497136 0.932930
0.786957 0.495197 0.932837
0.932140 0.492922 0.932140
1.000000 0.490320 0.930849
0.000000 0.643632 0.931763
0.063711 0.643018 0.932672
0.205471 0.641968 0.932966
0.348325 0.640489 0.932652
0.492013 0.638588 0.931739
0.636274 0.636274 0.930233
0.780846 0.633552 0.928140
0.925470 0.630431 0.925470
1.000000 0.626918 0.922230
0.000000 0.786117 0.932389
0.050861 0.784525 0.931258
0.194015 0.782433 0.929538
0.337688 0.779848 0.927235
0.481618 0.776778 0.924358
0.625544 0.773227 0.920911
0.769206 0.769206 0.916904
0.912344 0.764722 0.912344
1.000000 0.759782 0.907240
0.000000 0.926253 0.926253
0.037400 0.923167 0.923167
0.181021 0.919516 0.919516
0.324585 0.915309 0.915309
0.467829 0.910549 0.910549
0.610494 0.905247 0.905247
0.752320 0.899410 0.899410
0.893046 0.893046 0.893046
1.000000 0.886627 0.886627
0.000000 1.000000 0.913638
0.023610 1.000000 0.908681
0.166771 1.000000 0.903185
0.309299 1.000000 0.897154
0.450931 1.000000 0.890598
0.591409 1.000000 0.883525
0.730471 1.000000 0.875943
0.867857 1.000000 0.867857
1.000000 1.000000 0.869521
0.000000 0.000000 1.000000
0.113324 0.000000 0.997749
0.234413 0.000000 0.986862
0.355475 0.000000 0.980986
0.484521 0.000000 0.992707
0.617024 0.000000 1.000000
0.752659 0.000000 1.000000
0.891171 0.000000 1.000000
1.000000 0.000000 1.000000
0.000000 0.104592 0.985235
0.102656 0.102656 0.996826
0.230129 0.100545 1.000000
0.360941 0.098265 1.000000
0.494832 0.095822 1.000000
0.631541 0.093226 1.000000
0.770810 0.090482 1.000000
0.912377 0.087600 1.000000
1.000000 0.084585 1.000000
0.000000 0.229347 1.000000
0.094894 0.228482 1.000000
0.227374 0.227374 1.000000
0.362618 0.226033 1.000000
0.500365 0.224466 1.000000
0.640355 0.222681 1.000000
0.782328 0.220684 1.000000
0.926023 0.218484 1.000000
1.000000 0.216088 1.000000
0.000000 0.362580 1.000000
0.085417 0.362266 1.000000
0.221978 0.361645 1.000000
0.360727 0.360727 1.000000
0.501403 0.359519 1.000000
0.643747 0.358027 1.000000
0.787497 0.356261 1.000000
0.932392 0.354226 1.000000
1.000000 0.351931 1.000000
0.000000 0.501539 1.000000
0.074508 0.501258 1.000000
0.214223 0.500608 1.000000
0.355551 0.499596 1.000000
0.498229 0.498229 1.000000
0.641999 0.496515 1.000000
0.786599 0.494461 1.000000
0.931769 0.492075 1.000000
1.000000 0.489364 1.000000
0.000000 0.643473 1.000000
0.062450 0.642710 1.000000
0.204393 0.641514 1.000000
0.347371 0.639890 1.000000
0.491125 0.637848 1.000000
0.635394 0.635394 1.000000
0.779918 0.632537 1.000000
0.924434 0.629282 1.000000
1.000000 0.625637 1.000000
0.000000 0.785633 1.000000
0.049526 0.783871 1.000000
0.192769 0.781610 1.000000
0.336472 0.778859 1.000000
0.480374 0.775624 1.000000
0.624216 0.771915 1.000000
0.767735 0.767735 1.000000
0.910671 0.763095 1.000000
1.000000 0.758001 1.000000
0.000000 0.925270 1.000000
0.036018 0.921990 1.000000
0.179635 0.918149 1.000000
0.323136 0.913753 1.000000
0.466260 0.908810 1.000000
0.608747 0.903325 1.000000
0.750335 0.897307 1.000000
0.890765 0.890765 1.000000
1.000000 0.883705 1.000000
0.000000 1.000000 1.000000
0.022210 1.000000 1.000000
0.165274 1.000000 1.000000
0.307646 1.000000 1.000000
0.449064 1.000000 1.000000
0.589269 1.000000 1.000000
0.728000 1.000000 1.000000
0.864997 1.000000 1.000000
1.000000 1.000000 1.000000
