_backup/뉴턴_LUT/뉴턴_팝_D.cube
TITLE "newton_pop_D"
LUT_3D_SIZE 33
0.000000 0.000000 0.000000
0.026970 0.000000 0.000000
0.053350 0.000000 0.000000
0.079182 0.000000 0.000000
0.104469 0.000000 0.000000
0.129281 0.000000 0.000000
0.153673 0.000000 0.000000
0.177664 0.000000 0.000000
0.201294 0.000000 0.000000
0.224624 0.000000 0.000000
0.247683 0.000000 0.000000
0.270495 0.000000 0.000000
0.293118 0.000000 0.000000
0.315585 0.000000 0.000000
0.337919 0.000000 0.000000
0.360167 0.000000 0.000000
0.382361 0.000000 0.000000
0.404531 0.000000 0.000000
0.426713 0.000000 0.000000
0.448935 0.000000 0.000000
0.471230 0.000000 0.000000
0.493630 0.000000 0.000000
0.516157 0.000000 0.000000
0.541194 0.000000 0.000000
0.569678 0.000000 0.000000
0.598535 0.000000 0.000000
0.627730 0.000000 0.000000
0.657286 0.000000 0.000000
0.687173 0.000000 0.000000
0.717378 0.000000 0.000000
0.747913 0.000000 0.000000
0.778767 0.000000 0.000000
0.809919 0.000000 0.000000
0.000000 0.026289 0.000000
0.026020 0.026020 0.000000
0.051535 0.025768 0.000000
0.076577 0.025526 0.000000
0.101194 0.025298 0.000000
0.125433 0.025087 0.000000
0.149326 0.024888 0.000000
0.172910 0.024701 0.000000
0.196235 0.024529 0.000000
0.219333 0.024370 0.000000
0.242236 0.024223 0.000000
0.264987 0.024090 0.000000
0.287622 0.023968 0.000000
0.310169 0.023859 0.000000
0.332668 0.023762 0.000000
0.355147 0.023676 0.000000
0.377642 0.023602 0.000000
0.400183 0.023540 0.000000
0.422796 0.023489 0.000000
0.445514 0.023448 0.000000
0.472104 0.023605 0.000000
0.500039 0.023811 0.000000
0.528328 0.024015 0.000000
0.556991 0.024217 0.000000
0.585992 0.024416 0.000000
0.615324 0.024613 0.000000
0.645006 0.024808 0.000000
0.675011 0.025000 0.000000
0.705326 0.025190 0.000000
0.735962 0.025378 0.000000
0.766908 0.025564 0.000000
0.798144 0.025746 0.000000
0.829672 0.025927 0.000000
0.000000 0.050882 0.000000
0.025221 0.050442 0.000000
0.050025 0.050025 0.000000
0.074454 0.049636 0.000000
0.098550 0.049275 0.000000
0.122350 0.048940 0.000000
0.145891 0.048630 0.000000
0.169214 0.048347 0.000000
0.192354 0.048088 0.000000
0.215345 0.047854 0.000000
0.238224 0.047645 0.000000
0.261024 0.047459 0.000000
0.283779 0.047296 0.000000
0.306522 0.047157 0.000000
0.329280 0.047040 0.000000
0.352090 0.046945 0.000000
0.375846 0.046981 0.000000
0.402566 0.047361 0.000000
0.429941 0.047771 0.000000
0.457693 0.048178 0.000000
0.485796 0.048579 0.000000
0.514245 0.048976 0.000000
0.543058 0.049369 0.000000
0.572201 0.049757 0.000000
0.601668 0.050139 0.000000
0.631474 0.050518 0.000000
0.661595 0.050892 0.000000
0.692019 0.051261 0.000000
0.722754 0.051625 0.000000
0.753789 0.051985 0.000000
0.785108 0.052340 0.000000
0.816709 0.052691 0.000000
0.848597 0.053037 0.000000
0.000000 0.074254 0.000000
0.024575 0.073725 0.000000
0.048824 0.073236 0.000000
0.072787 0.072787 0.000000
0.096500 0.072375 0.000000
0.120001 0.072000 0.000000
0.143326 0.071663 0.000000
0.166510 0.071361 0.000000
0.189589 0.071096 0.000000
0.212594 0.070865 0.000000
0.235558 0.070667 0.000000
0.258517 0.070505 0.000000
0.281499 0.070375 0.000000
0.306129 0.070645 0.000000
0.332575 0.071266 0.000000
0.359403 0.071881 0.000000
0.386596 0.072487 0.000000
0.414155 0.073086 0.000000
0.442080 0.073680 0.000000
0.470350 0.074266 0.000000
0.498958 0.074844 0.000000
0.527918 0.075417 0.000000
0.557202 0.075982 0.000000
0.586802 0.076539 0.000000
0.616729 0.077091 0.000000
0.646964 0.077636 0.000000
0.677495 0.078172 0.000000
0.708326 0.078703 0.000000
0.739450 0.079227 0.000000
0.770849 0.079743 0.000000
0.802521 0.080252 0.000000
0.834471 0.080755 0.000000
0.866675 0.081251 0.000000
0.000000 0.096843 0.000000
0.024078 0.096312 0.000000
0.047916 0.095831 0.000000
0.071549 0.095399 0.000000
0.095014 0.095014 0.000000
0.118346 0.094677 0.000000
0.141578 0.094385 0.000000
0.164744 0.094140 0.000000
0.187876 0.093938 0.000000
0.211047 0.093798 0.000000
0.236242 0.094497 0.000000
0.262134 0.095321 0.000000
0.288405 0.096135 0.000000
0.315059 0.096941 0.000000
0.342085 0.097738 0.000000
0.369468 0.098525 0.000000
0.397209 0.099302 0.000000
0.425306 0.100072 0.000000
0.453740 0.100831 0.000000
0.482505 0.101580 0.000000
0.511611 0.102322 0.000000
0.541032 0.103054 0.000000
0.570763 0.103775 0.000000
0.600811 0.104489 0.000000
0.631158 0.105193 0.000000
0.661793 0.105887 0.000000
0.692719 0.106572 0.000000
0.723928 0.107249 0.000000
0.755405 0.107915 0.000000
0.787148 0.108572 0.000000
0.819157 0.109221 0.000000
0.851413 0.109860 0.000000
0.883910 0.110489 0.000000
0.000000 0.119067 0.000000
0.023721 0.118608 0.000000
0.047282 0.118207 0.000000
0.070718 0.117864 0.000000
0.094061 0.117576 0.000000
0.117343 0.117343 0.000000
0.141024 0.117520 0.000000
0.165897 0.118498 0.000000
0.191235 0.119522 0.000000
0.216968 0.120538 0.000000
0.243083 0.121541 0.000000
0.269569 0.122531 0.000000
0.296427 0.123511 0.000000
0.323649 0.124480 0.000000
0.351222 0.125436 0.000000
0.379142 0.126380 0.000000
0.407409 0.127315 0.000000
0.436005 0.128237 0.000000
0.464925 0.129146 0.000000
0.494174 0.130046 0.000000
0.523732 0.130933 0.000000
0.553591 0.131807 0.000000
0.583757 0.132672 0.000000
0.614214 0.133525 0.000000
0.644952 0.134365 0.000000
0.675971 0.135194 0.000000
0.707264 0.136012 0.000000
0.738817 0.136818 0.000000
0.770627 0.137612 0.000000
0.802693 0.138395 0.000000
0.835000 0.139166 0.000000
0.867538 0.139925 0.000000
0.900315 0.140674 0.000000
0.000000 0.141303 0.000000
0.023497 0.140982 0.000000
0.046909 0.140728 0.000000
0.070703 0.141407 0.000000
0.095096 0.142644 0.000000
0.119894 0.143873 0.000000
0.145086 0.145086 0.000000
0.170662 0.146282 0.000000
0.196624 0.147468 0.000000
0.222959 0.148639 0.000000
0.249658 0.149795 0.000000
0.276719 0.150938 0.000000
0.304135 0.152068 0.000000
0.331894 0.153182 0.000000
0.359992 0.154282 0.000000
0.388427 0.155371 0.000000
0.417184 0.156444 0.000000
0.446256 0.157502 0.000000
0.475647 0.158549 0.000000
0.505339 0.159581 0.000000
0.535325 0.160597 0.000000
0.565607 0.161602 0.000000
0.596172 0.162592 0.000000
0.627010 0.163568 0.000000
0.658120 0.164530 0.000000
0.689495 0.165479 0.000000
0.721122 0.166413 0.000000
0.752997 0.167333 0.000000
0.785120 0.168240 0.000000
0.817474 0.169132 0.000000
0.850053 0.170010 0.000000
0.882860 0.170876 0.000000
0.915878 0.171727 0.000000
0.000000 0.165502 0.000000
0.023849 0.166945 0.000000
0.048105 0.168369 0.000000
0.072760 0.169774 0.000000
0.097811 0.171170 0.000000
0.123247 0.172546 0.000000
0.149060 0.173903 0.000000
0.175248 0.175248 0.000000
0.201802 0.176577 0.000000
0.228711 0.177886 0.000000
0.255974 0.179182 0.000000
0.283582 0.180461 0.000000
0.311526 0.181723 0.000000
0.339799 0.182969 0.000000
0.368401 0.184200 0.000000
0.397316 0.185414 0.000000
0.426537 0.186610 0.000000
0.456069 0.187793 0.000000
0.485893 0.188958 0.000000
0.516003 0.190106 0.000000
0.546400 0.191240 0.000000
0.577071 0.192357 0.000000
0.608007 0.193457 0.000000
0.639205 0.194541 0.000000
0.670661 0.195609 0.000000
0.702360 0.196661 0.000000
0.734298 0.197696 0.000000
0.766475 0.198716 0.000000
0.798875 0.199719 0.000000
0.831492 0.200705 0.000000
0.864326 0.201676 0.000000
0.897364 0.202631 0.000000
0.930598 0.203568 0.000000
0.000000 0.194614 0.000000
0.024524 0.196197 0.000000
0.049440 0.197760 0.000000
0.074741 0.199310 0.000000
0.100419 0.200839 0.000000
0.126467 0.202347 0.000000
0.152880 0.203840 0.000000
0.179650 0.205314 0.000000
0.206768 0.206768 0.000000
0.234229 0.208204 0.000000
0.262029 0.209623 0.000000
0.290154 0.211021 0.000000
0.318601 0.212401 0.000000
0.347367 0.213764 0.000000
0.376438 0.215108 0.000000
0.405808 0.216431 0.000000
0.435478 0.217739 0.000000
0.465433 0.219027 0.000000
0.495665 0.220295 0.000000
0.526174 0.221547 0.000000
0.556949 0.222779 0.000000
0.587981 0.223993 0.000000
0.619266 0.225188 0.000000
0.650800 0.226365 0.000000
0.682569 0.227523 0.000000
0.714569 0.228662 0.000000
0.746798 0.229784 0.000000
0.779241 0.230886 0.000000
0.811894 0.231970 0.000000
0.844755 0.233036 0.000000
0.877810 0.234083 0.000000
0.911054 0.235111 0.000000
0.944483 0.236121 0.000000
0.000000 0.224853 0.000000
0.025173 0.226562 0.000000
0.050723 0.228256 0.000000
0.076642 0.229927 0.000000
0.102922 0.231575 0.000000
0.129558 0.233205 0.000000
0.156543 0.234814 0.000000
0.183866 0.236400 0.000000
0.211525 0.237966 0.000000
0.239513 0.239513 0.000000
0.267819 0.241037 0.000000
0.296438 0.242540 0.000000
0.325366 0.244024 0.000000
0.354591 0.245486 0.000000
0.384107 0.246926 0.000000
0.413913 0.248348 0.000000
0.443996 0.249748 0.000000
0.474348 0.251125 0.000000
0.504968 0.252484 0.000000
0.535845 0.253821 0.000000
0.566971 0.255137 0.000000
0.598342 0.256432 0.000000
0.629951 0.257707 0.000000
0.661788 0.258961 0.000000
0.693847 0.260193 0.000000
0.726126 0.261405 0.000000
0.758612 0.262596 0.000000
0.791298 0.263766 0.000000
0.824183 0.264916 0.000000
0.857255 0.266044 0.000000
0.890506 0.267152 0.000000
0.923933 0.268239 0.000000
0.957529 0.269305 0.000000
0.000000 0.256142 0.000000
0.025796 0.257969 0.000000
0.051954 0.259771 0.000000
0.078464 0.261547 0.000000
0.105321 0.263303 0.000000
0.132518 0.265036 0.000000
0.160046 0.266744 0.000000
0.187900 0.268429 0.000000
0.216074 0.270093 0.000000
0.244559 0.271732 0.000000
0.273347 0.273347 0.000000
0.302435 0.274941 0.000000
0.331813 0.276511 0.000000
0.361473 0.278056 0.000000
0.391414 0.279581 0.000000
0.421622 0.281082 0.000000
0.452093 0.282558 0.000000
0.482821 0.284012 0.000000
0.513798 0.285444 0.000000
0.545016 0.286851 0.000000
0.576470 0.288235 0.000000
0.608154 0.289597 0.000000
0.640057 0.290935 0.000000
0.672173 0.292249 0.000000
0.704500 0.293542 0.000000
0.737026 0.294810 0.000000
0.769743 0.296055 0.000000
0.802650 0.297278 0.000000
0.835736 0.298477 0.000000
0.868993 0.299653 0.000000
0.902417 0.300806 0.000000
0.936000 0.301935 0.000000
0.969733 0.303042 0.000000
0.000000 0.288410 0.000000
0.026393 0.290331 0.000000
0.053131 0.292225 0.000000
0.080208 0.294097 0.000000
0.107615 0.295942 0.000000
0.135346 0.297761 0.000000
0.163393 0.299555 0.000000
0.191752 0.301324 0.000000
0.220412 0.303067 0.000000
0.249368 0.304783 0.000000
0.278615 0.306477 0.000000
0.308143 0.308143 0.000000
0.337945 0.309783 0.000000
0.368018 0.311400 0.000000
0.398351 0.312990 0.000000
0.428937 0.314554 0.000000
0.459772 0.316093 0.000000
0.490848 0.317607 0.000000
0.522155 0.319095 0.000000
0.553690 0.320557 0.000000
0.585446 0.321995 0.000000
0.617413 0.323407 0.000000
0.649585 0.324792 0.000000
0.681958 0.326154 0.000000
0.714521 0.327489 0.000000
0.747269 0.328798 0.000000
0.780196 0.330083 0.000000
0.813293 0.331342 0.000000
0.846554 0.332575 0.000000
0.879972 0.333782 0.000000
0.913541 0.334965 0.000000
0.947252 0.336122 0.000000
0.981099 0.337253 0.000000
0.000000 0.321570 0.000000
0.026964 0.323570 0.000000
0.054257 0.325546 0.000000
0.081873 0.327494 0.000000
0.109804 0.329412 0.000000
0.138043 0.331303 0.000000
0.166584 0.333168 0.000000
0.195418 0.335003 0.000000
0.224540 0.336810 0.000000
0.253943 0.338591 0.000000
0.283620 0.340344 0.000000
0.313561 0.342067 0.000000
0.343765 0.343765 0.000000
0.374220 0.345434 0.000000
0.404920 0.347074 0.000000
0.435860 0.348688 0.000000
0.467032 0.350274 0.000000
0.498427 0.351831 0.000000
0.530041 0.353361 0.000000
0.561867 0.354863 0.000000
0.593896 0.356337 0.000000
0.626121 0.357783 0.000000
0.658538 0.359203 0.000000
0.691138 0.360594 0.000000
0.723912 0.361956 0.000000
0.756858 0.363292 0.000000
0.789965 0.364599 0.000000
0.823227 0.365879 0.000000
0.856638 0.367131 0.000000
0.890191 0.368355 0.000000
0.923877 0.369551 0.000000
0.957692 0.370719 0.000000
0.991627 0.371860 0.000000
0.000000 0.355544 0.000000
0.027508 0.357613 0.000000
0.055331 0.359651 0.000000
0.083459 0.361658 0.000000
0.111888 0.363636 0.000000
0.140609 0.365585 0.000000
0.169616 0.367502 0.000000
0.198901 0.369388 0.000000
0.228459 0.371246 0.000000
0.258282 0.373074 0.000000
0.288361 0.374869 0.000000
0.318693 0.376637 0.000000
0.349269 0.378374 0.000000
0.380080 0.380080 0.000000
0.411123 0.381757 0.000000
0.442389 0.383404 0.000000
0.473871 0.385020 0.000000
0.505561 0.386606 0.000000
0.537456 0.388162 0.000000
0.569544 0.389688 0.000000
0.601821 0.391183 0.000000
0.634280 0.392650 0.000000
0.666914 0.394085 0.000000
0.699714 0.395490 0.000000
0.732676 0.396866 0.000000
0.765791 0.398211 0.000000
0.799052 0.399526 0.000000
0.832454 0.400811 0.000000
0.865989 0.402066 0.000000
0.899649 0.403291 0.000000
0.933428 0.404485 0.000000
0.967319 0.405650 0.000000
1.000000 0.406784 0.000000
0.000000 0.390258 0.000000
0.028026 0.392377 0.000000
0.056351 0.394461 0.000000
0.084967 0.396514 0.000000
0.113867 0.398536 0.000000
0.143044 0.400524 0.000000
0.172491 0.402479 0.000000
0.202202 0.404403 0.000000
0.232168 0.406294 0.000000
0.262383 0.408152 0.000000
0.292842 0.409979 0.000000
0.323536 0.411773 0.000000
0.354457 0.413533 0.000000
0.385601 0.415262 0.000000
0.416959 0.416959 0.000000
0.448524 0.418623 0.000000
0.480290 0.420254 0.000000
0.512251 0.421854 0.000000
0.544397 0.423420 0.000000
0.576723 0.424954 0.000000
0.609223 0.426456 0.000000
0.641888 0.427925 0.000000
0.674712 0.429362 0.000000
0.707688 0.430767 0.000000
0.740809 0.432139 0.000000
0.774068 0.433478 0.000000
0.807458 0.434785 0.000000
0.840973 0.436060 0.000000
0.874604 0.437302 0.000000
0.908346 0.438512 0.000000
0.942191 0.439689 0.000000
0.976133 0.440834 0.000000
1.000000 0.441947 0.000000
0.000000 0.425631 0.000000
0.028518 0.427782 0.000000
0.057319 0.429899 0.000000
0.086396 0.431983 0.000000
0.115741 0.434031 0.000000
0.145348 0.436043 0.000000
0.175209 0.438023 0.000000
0.205318 0.439967 0.000000
0.235667 0.441875 0.000000
0.266250 0.443750 0.000000
0.297060 0.445590 0.000000
0.328089 0.447394 0.000000
0.359332 0.449165 0.000000
0.390780 0.450901 0.000000
0.422427 0.452601 0.000000
0.454267 0.454267 0.000000
0.486291 0.455898 0.000000
0.518494 0.457494 0.000000
0.550867 0.459056 0.000000
0.583405 0.460583 0.000000
0.616100 0.462075 0.000000
0.648945 0.463532 0.000000
0.681934 0.464955 0.000000
0.715059 0.466343 0.000000
0.748313 0.467696 0.000000
0.781690 0.469014 0.000000
0.815182 0.470297 0.000000
0.848783 0.471546 0.000000
0.882486 0.472760 0.000000
0.916283 0.473939 0.000000
0.950168 0.475084 0.000000
0.984134 0.476194 0.000000
1.000000 0.477269 0.000000
0.000000 0.461582 0.000000
0.028984 0.463752 0.000000
0.058235 0.465887 0.000000
0.087747 0.467984 0.000000
0.117510 0.470043 0.000000
0.147521 0.472067 0.000000
0.177770 0.474053 0.000000
0.208250 0.476000 0.000000
0.238956 0.477913 0.000000
0.269880 0.479788 0.000000
0.301015 0.481625 0.000000
0.332355 0.483425 0.000000
0.363892 0.485189 0.000000
0.395619 0.486915 0.000000
0.427529 0.488604 0.000000
0.459616 0.490257 0.000000
0.491872 0.491872 0.000000
0.524290 0.493450 0.000000
0.556865 0.494991 0.000000
0.589588 0.496495 0.000000
0.622452 0.497962 0.000000
0.655451 0.499391 0.000000
0.688578 0.500784 0.000000
0.721826 0.502140 0.000000
0.755188 0.503458 0.000000
0.788656 0.504740 0.000000
0.822224 0.505984 0.000000
0.855886 0.507192 0.000000
0.889633 0.508362 0.000000
0.923459 0.509495 0.000000
0.957359 0.510591 0.000000
0.991322 0.511650 0.000000
1.000000 0.512672 0.000000
0.000000 0.498034 0.000000
0.029423 0.500209 0.000000
0.059099 0.502344 0.000000
0.089018 0.504438 0.000000
0.119175 0.506496 0.000000
0.149562 0.508512 0.000000
0.180172 0.510489 0.000000
0.210999 0.512428 0.000000
0.242036 0.514327 0.000000
0.273275 0.516185 0.000000
0.304709 0.518005 0.000000
0.336332 0.519786 0.000000
0.368137 0.521527 0.000000
0.400116 0.523229 0.000000
0.432263 0.524891 0.000000
0.464571 0.526514 0.000000
0.497033 0.528098 0.000000
0.529642 0.529642 0.000000
0.562391 0.531147 0.000000
0.595272 0.532612 0.000000
0.628280 0.534038 0.000000
0.661407 0.535425 0.000000
0.694646 0.536772 0.000000
0.727990 0.538080 0.000000
0.761433 0.539348 0.000000
0.794966 0.540577 0.000000
0.828585 0.541767 0.000000
0.862280 0.542917 0.000000
0.896046 0.544028 0.000000
0.929876 0.545100 0.000000
0.963761 0.546131 0.000000
0.997696 0.547124 0.000000
1.000000 0.548078 0.000000
0.000000 0.534911 0.000000
0.029836 0.537072 0.000000
0.059910 0.539191 0.000000
0.090211 0.541271 0.000000
0.120735 0.543307 0.000000
0.151473 0.545302 0.000000
0.182418 0.547256 0.000000
0.213565 0.549168 0.000000
0.244905 0.551038 0.000000
0.276433 0.552866 0.000000
0.308140 0.554653 0.000000
0.340021 0.556398 0.000000
0.372067 0.558101 0.000000
0.404273 0.559762 0.000000
0.436631 0.561382 0.000000
0.469134 0.562960 0.000000
0.501775 0.564497 0.000000
0.534547 0.565991 0.000000
0.567444 0.567444 0.000000
0.600459 0.568856 0.000000
0.633583 0.570225 0.000000
0.666812 0.571553 0.000000
0.700137 0.572839 0.000000
0.733551 0.574083 0.000000
0.767048 0.575286 0.000000
0.800622 0.576448 0.000000
0.834263 0.577566 0.000000
0.867966 0.578644 0.000000
0.901725 0.579681 0.000000
0.935531 0.580674 0.000000
0.969377 0.581626 0.000000
1.000000 0.582538 0.000000
1.000000 0.583406 0.000000
0.000000 0.572130 0.000000
0.030223 0.574263 0.000000
0.060668 0.576353 0.000000
0.091326 0.578399 0.000000
0.122189 0.580401 0.000000
0.153252 0.582359 0.000000
0.184507 0.584273 0.000000
0.215947 0.586142 0.000000
0.247565 0.587968 0.000000
0.279355 0.589750 0.000000
0.311309 0.591488 0.000000
0.343421 0.593182 0.000000
0.375683 0.594831 0.000000
0.408089 0.596437 0.000000
0.440631 0.597999 0.000000
0.473302 0.599517 0.000000
0.506097 0.600990 0.000000
0.539007 0.602420 0.000000
0.572026 0.603805 0.000000
0.605147 0.605147 0.000000
0.638363 0.606445 0.000000
0.671666 0.607698 0.000000
0.705050 0.608907 0.000000
0.738509 0.610073 0.000000
0.772035 0.611195 0.000000
0.805620 0.612271 0.000000
0.839259 0.613305 0.000000
0.872945 0.614295 0.000000
0.906669 0.615240 0.000000
0.940425 0.616141 0.000000
0.974208 0.616999 0.000000
1.000000 0.617811 0.000000
1.000000 0.618580 0.000000
0.000000 0.609614 0.000000
0.030584 0.611704 0.000000
0.061374 0.613748 0.000000
0.092361 0.615746 0.000000
0.123539 0.617697 0.000000
0.154900 0.619602 0.000000
0.186438 0.621461 0.000000
0.218145 0.623273 0.000000
0.250016 0.625039 0.000000
0.282041 0.626759 0.000000
0.314216 0.628433 0.000000
0.346533 0.630059 0.000000
0.378984 0.631640 0.000000
0.411563 0.633175 0.000000
0.444264 0.634662 0.000000
0.477078 0.636104 0.000000
0.510000 0.637500 0.000000
0.543021 0.638848 0.000000
0.576136 0.640151 0.000000
0.609337 0.641407 0.000000
0.642617 0.642617 0.000000
0.675969 0.643780 0.000000
0.709388 0.644898 0.000000
0.742865 0.645969 0.000000
0.776392 0.646993 0.000000
0.809964 0.647971 0.000000
0.843575 0.648904 0.000000
0.877215 0.649789 0.000000
0.910879 0.650628 0.000000
0.944561 0.651421 0.000000
0.978251 0.652167 0.000000
1.000000 0.652867 0.000000
1.000000 0.653521 0.000000
0.000000 0.647286 0.000000
0.030919 0.649316 0.000000
0.062028 0.651299 0.000000
0.093318 0.653233 0.000000
0.124784 0.655118 0.000000
0.156417 0.656954 0.000000
0.188212 0.658742 0.000000
0.220160 0.660482 0.000000
0.252256 0.662172 0.000000
0.284492 0.663815 0.000000
0.316861 0.665408 0.000000
0.349356 0.666952 0.000000
0.381971 0.668449 0.000000
0.414697 0.669896 0.000000
0.447529 0.671294 0.000000
0.480460 0.672645 0.000000
0.513482 0.673946 0.000000
0.546589 0.675198 0.000000
0.579774 0.676402 0.000000
0.613029 0.677558 0.000000
0.646347 0.678664 0.000000
0.679722 0.679722 0.000000
0.713148 0.680732 0.000000
0.746615 0.681692 0.000000
0.780119 0.682604 0.000000
0.813653 0.683469 0.000000
0.847207 0.684283 0.000000
0.880777 0.685048 0.000000
0.914356 0.685767 0.000000
0.947934 0.686435 0.000000
0.981507 0.687055 0.000000
1.000000 0.687626 0.000000
1.000000 0.688150 0.000000
0.000000 0.685065 0.000000
0.031227 0.687021 0.000000
0.062629 0.688926 0.000000
0.094197 0.690780 0.000000
0.125924 0.692584 0.000000
0.157803 0.694337 0.000000
0.189828 0.696038 0.000000
0.221992 0.697689 0.000000
0.254287 0.699289 0.000000
0.286706 0.700837 0.000000
0.319243 0.702335 0.000000
0.351891 0.703782 0.000000
0.384642 0.705177 0.000000
0.417490 0.706522 0.000000
0.450428 0.707816 0.000000
0.483449 0.709059 0.000000
0.516545 0.710250 0.000000
0.549711 0.711391 0.000000
0.582939 0.712481 0.000000
0.616221 0.713520 0.000000
0.649553 0.714508 0.000000
0.682925 0.715446 0.000000
0.716330 0.716330 0.000000
0.749764 0.717165 0.000000
0.783219 0.717951 0.000000
0.816685 0.718683 0.000000
0.850158 0.719364 0.000000
0.883632 0.719996 0.000000
0.917097 0.720576 0.000000
0.950547 0.721104 0.000000
0.983977 0.721583 0.000000
1.000000 0.722011 0.000000
1.000000 0.722386 0.000000
0.000000 0.722873 0.000000
0.031509 0.724739 0.000000
0.063178 0.726551 0.000000
0.094997 0.728311 0.000000
0.126959 0.730017 0.000000
0.159058 0.731670 0.000000
0.191287 0.733270 0.000000
0.223640 0.734816 0.000000
0.256107 0.736309 0.000000
0.288684 0.737749 0.000000
0.321363 0.739136 0.000000
0.354137 0.740468 0.000000
0.386999 0.741748 0.000000
0.419942 0.742975 0.000000
0.452960 0.744148 0.000000
0.486044 0.745268 0.000000
0.519190 0.746335 0.000000
0.552388 0.747349 0.000000
0.585632 0.748308 0.000000
0.618917 0.749215 0.000000
0.652234 0.750070 0.000000
0.685576 0.750869 0.000000
0.718937 0.751615 0.000000
0.752310 0.752310 0.000000
0.785687 0.752950 0.000000
0.819061 0.753536 0.000000
0.852428 0.754071 0.000000
0.885778 0.754551 0.000000
0.919103 0.754977 0.000000
0.952400 0.755352 0.000000
0.985661 0.755673 0.000000
1.000000 0.755939 0.000000
1.000000 0.756153 0.000000
0.000000 0.760632 0.000000
0.031765 0.762392 0.000000
0.063674 0.764096 0.000000
0.095718 0.765745 0.000000
0.127889 0.767338 0.000000
0.160182 0.768876 0.000000
0.192589 0.770359 0.000000
0.225104 0.771784 0.000000
0.257718 0.773155 0.000000
0.290427 0.774471 0.000000
0.323221 0.775730 0.000000
0.356095 0.776934 0.000000
0.389042 0.778083 0.000000
0.422053 0.779176 0.000000
0.455124 0.780212 0.000000
0.488247 0.781195 0.000000
0.521414 0.782121 0.000000
0.554618 0.782990 0.000000
0.587854 0.783805 0.000000
0.621115 0.784566 0.000000
0.654390 0.785268 0.000000
0.687676 0.785916 0.000000
0.720967 0.786509 0.000000
0.754252 0.787045 0.000000
0.787526 0.787526 0.000000
0.820784 0.787952 0.000000
0.854015 0.788322 0.000000
0.887214 0.788635 0.000000
0.920377 0.788894 0.000000
0.953494 0.789098 0.000000
0.986555 0.789244 0.000000
1.000000 0.789336 0.000000
1.000000 0.789374 0.000000
0.000000 0.798263 0.000000
0.031995 0.799901 0.000000
0.064118 0.801482 0.000000
0.096360 0.803004 0.000000
0.128715 0.804469 0.000000
0.161175 0.805876 0.000000
0.193734 0.807225 0.000000
0.226384 0.808516 0.000000
0.259120 0.809750 0.000000
0.291932 0.810924 0.000000
0.324816 0.812041 0.000000
0.357764 0.813101 0.000000
0.390769 0.814102 0.000000
0.423823 0.815045 0.000000
0.456921 0.815931 0.000000
0.490056 0.816759 0.000000
0.523218 0.817528 0.000000
0.556403 0.818240 0.000000
0.589605 0.818895 0.000000
0.622812 0.819490 0.000000
0.656022 0.820027 0.000000
0.689227 0.820509 0.000000
0.722418 0.820930 0.000000
0.755590 0.821293 0.000000
0.788737 0.821601 0.000000
0.821849 0.821849 0.000000
0.854920 0.822038 0.000000
0.887945 0.822171 0.000000
0.920917 0.822247 0.000000
0.953618 0.822084 0.000000
0.985713 0.821428 0.000000
1.000000 0.820681 0.000000
1.000000 0.819878 0.000000
0.000000 0.835687 0.000000
0.032198 0.837188 0.000000
0.064509 0.838629 0.000000
0.096924 0.840010 0.000000
0.129435 0.841331 0.000000
0.162036 0.842591 0.000000
0.194721 0.843791 0.000000
0.227481 0.844932 0.000000
0.260311 0.846011 0.000000
0.293202 0.847030 0.000000
0.326150 0.847990 0.000000
0.359145 0.848889 0.000000
0.392182 0.849727 0.000000
0.425253 0.850506 0.000000
0.458352 0.851225 0.000000
0.491470 0.851882 0.000000
0.524603 0.852480 0.000000
0.557743 0.853019 0.000000
0.590881 0.853495 0.000000
0.624012 0.853911 0.000000
0.657131 0.854270 0.000000
0.690226 0.854565 0.000000
0.723293 0.854801 0.000000
0.756327 0.854978 0.000000
0.789317 0.855094 0.000000
0.822258 0.855148 0.000000
0.854751 0.854751 0.000000
0.886856 0.854009 0.000000
0.918840 0.853208 0.000000
