_backup/뉴턴_LUT/뉴턴_팝_B.cube
TITLE "newton_pop_B"
LUT_3D_SIZE 5
0.000000 0.000000 0.000000
0.192017 0.000000 0.000000
0.359953 0.000000 0.000000
0.535331 0.000000 0.000000
0.773713 0.000000 0.000000
0.000000 0.184063 0.000000
0.198533 0.198533 0.000000
0.423188 0.211594 0.000000
0.669725 0.223242 0.000000
0.933908 0.233477 0.000000
0.000000 0.454263 0.000000
0.236853 0.473706 0.000000
0.490324 0.490324 0.000000
0.756176 0.504117 0.000000
1.000000 0.515085 0.000000
0.000000 0.762656 0.000000
0.259188 0.777566 0.000000
0.525493 0.788239 0.000000
0.794673 0.794673 0.000000
1.000000 0.796874 0.000000
0.000000 1.000000 0.000000
0.265540 1.000000 0.000000
0.528691 1.000000 0.000000
0.782327 1.000000 0.000000
1.000000 1.000000 0.000000
0.000000 0.000000 0.204465
0.187044 0.000000 0.187044
0.355222 0.000000 0.177611
0.551072 0.000000 0.183690
0.792785 0.000000 0.198196
0.000000 0.189134 0.189134
0.203127 0.203127 0.203127
0.471620 0.204853 0.204853
0.737008 0.211653 0.211653
1.000000 0.218770 0.218770
0.000000 0.461183 0.230591
0.192663 0.498450 0.192663
0.496738 0.496738 0.229500
0.781271 0.505050 0.228829
1.000000 0.510342 0.229087
0.000000 0.768194 0.256065
0.192227 0.808875 0.192227
0.496188 0.808153 0.184222
0.797916 0.797916 0.239359
1.000000 0.795784 0.239180
0.000000 1.000000 0.265554
0.187026 1.000000 0.187026
0.478008 1.000000 0.178140
0.756773 1.000000 0.167469
1.000000 1.000000 0.226155
0.000000 0.000000 0.395224
0.182989 0.000000 0.365979
0.352106 0.000000 0.352106
0.566322 0.000000 0.377548
0.811211 0.000000 0.405605
0.000000 0.194045 0.388090
0.203437 0.203437 0.468075
0.482519 0.202455 0.482519
0.754499 0.209342 0.481921
1.000000 0.216230 0.488802
0.000000 0.467777 0.467777
0.190108 0.499487 0.499487
0.500000 0.500000 0.500000
0.831416 0.494702 0.494702
1.000000 0.494709 0.494709
0.000000 0.773245 0.515497
0.189650 0.809146 0.499398
0.459390 0.820678 0.459390
0.798649 0.798649 0.505121
1.000000 0.791080 0.491082
0.000000 1.000000 0.531247
0.184108 1.000000 0.485412
0.421594 1.000000 0.421594
0.726428 1.000000 0.398359
1.000000 1.000000 0.468147
0.000000 0.000000 0.575166
0.179823 0.000000 0.539471
0.357470 0.000000 0.536206
0.581094 0.000000 0.581094
0.828971 0.000000 0.621728
0.000000 0.198793 0.596380
0.206217 0.206217 0.707536
0.473236 0.208823 0.737649
0.762241 0.209256 0.762241
1.000000 0.216376 0.767957
0.000000 0.474044 0.711066
0.206646 0.496924 0.787201
0.497674 0.497674 0.842312
0.840458 0.488361 0.840458
1.000000 0.487562 0.821201
0.000000 0.777806 0.777806
0.186926 0.808885 0.808885
0.453351 0.815405 0.815405
0.796873 0.796873 0.796873
1.000000 0.774757 0.774757
0.000000 1.000000 0.796592
0.181085 1.000000 0.782391
0.413642 1.000000 0.746008
0.691468 1.000000 0.691468
1.000000 1.000000 0.726022
0.000000 0.000000 0.747167
0.177503 0.000000 0.710011
0.367955 0.000000 0.735910
0.595364 0.000000 0.793818
0.846098 0.000000 0.846098
0.000000 0.203375 0.813500
0.209500 0.209500 0.946367
0.471966 0.213671 0.988556
0.754630 0.215905 1.000000
1.000000 0.216322 1.000000
0.000000 0.479987 0.959974
0.216048 0.497916 1.000000
0.498279 0.498279 1.000000
0.823320 0.492886 1.000000
1.000000 0.484306 1.000000
0.000000 0.781879 1.000000
0.203964 0.803831 1.000000
0.467914 0.806193 1.000000
0.788721 0.788721 1.000000
1.000000 0.762013 1.000000
0.000000 1.000000 1.000000
0.177964 1.000000 1.000000
0.405738 1.000000 1.000000
0.679556 1.000000 1.000000
1.000000 1.000000 1.000000
