_backup/뉴턴_LUT/뉴턴_팝_D.cube
TITLE "newton_pop_D"
LUT_3D_SIZE 9
0.000000 0.000000 0.000000
0.104469 0.000000 0.000000
0.201294 0.000000 0.000000
0.293118 0.000000 0.000000
0.382361 0.000000 0.000000
0.471230 0.000000 0.000000
0.569678 0.000000 0.000000
0.687173 0.000000 0.000000
0.809919 0.000000 0.000000
0.000000 0.096843 0.000000
0.095014 0.095014 0.000000
0.187876 0.093938 0.000000
0.288405 0.096135 0.000000
0.397209 0.099302 0.000000
0.511611 0.102322 0.000000
0.631158 0.105193 0.000000
0.755405 0.107915 0.000000
0.883910 0.110489 0.000000
0.000000 0.194614 0.000000
0.100419 0.200839 0.000000
0.206768 0.206768 0.000000
0.318601 0.212401 0.000000
0.435478 0.217739 0.000000
0.556949 0.222779 0.000000
0.682569 0.227523 0.000000
0.811894 0.231970 0.000000
0.944483 0.236121 0.000000
0.000000 0.321570 0.000000
0.109804 0.329412 0.000000
0.224540 0.336810 0.000000
0.343765 0.343765 0.000000
0.467032 0.350274 0.000000
0.593896 0.356337 0.000000
0.723912 0.361956 0.000000
0.856638 0.367131 0.000000
0.991627 0.371860 0.000000
0.000000 0.461582 0.000000
0.117510 0.470043 0.000000
0.238956 0.477913 0.000000
0.363892 0.485189 0.000000
0.491872 0.491872 0.000000
0.622452 0.497962 0.000000
0.755188 0.503458 0.000000
0.889633 0.508362 0.000000
1.000000 0.512672 0.000000
0.000000 0.609614 0.000000
0.123539 0.617697 0.000000
0.250016 0.625039 0.000000
0.378984 0.631640 0.000000
0.510000 0.637500 0.000000
0.642617 0.642617 0.000000
0.776392 0.646993 0.000000
0.910879 0.650628 0.000000
1.000000 0.653521 0.000000
0.000000 0.760632 0.000000
0.127889 0.767338 0.000000
0.257718 0.773155 0.000000
0.389042 0.778083 0.000000
0.521414 0.782121 0.000000
0.654390 0.785268 0.000000
0.787526 0.787526 0.000000
0.920377 0.788894 0.000000
1.000000 0.789374 0.000000
0.000000 0.909599 0.000000
0.130561 0.913931 0.000000
0.262064 0.917226 0.000000
0.394064 0.919483 0.000000
0.526114 0.920700 0.000000
0.657088 0.919924 0.000000
0.785325 0.916213 0.000000
0.911729 0.911729 0.000000
1.000000 0.906665 0.000000
0.000000 1.000000 0.000000
0.131555 1.000000 0.000000
0.262479 1.000000 0.000000
0.391996 1.000000 0.000000
0.519965 1.000000 0.000000
0.646227 1.000000 0.000000
0.770735 1.000000 0.000000
0.893556 1.000000 0.000000
1.000000 1.000000 0.000000
0.000000 0.000000 0.184875
0.104226 0.000000 0.104226
0.199138 0.000000 0.099566
0.290699 0.000000 0.096899
0.380203 0.000000 0.095050
0.469781 0.000000 0.093956
0.576332 0.000000 0.096055
0.694593 0.000000 0.099227
0.818003 0.000000 0.102250
0.000000 0.099282 0.099282
0.094567 0.094567 0.094567
0.204051 0.089685 0.089685
0.313785 0.091262 0.091262
0.427037 0.093417 0.093417
0.544741 0.095704 0.095704
0.666957 0.097992 0.097992
0.793439 0.100221 0.100221
0.923850 0.102362 0.102362
0.000000 0.196897 0.098397
0.084379 0.209681 0.084379
0.209307 0.209307 0.096754
0.328968 0.213007 0.097045
0.453346 0.216400 0.097928
0.580302 0.219952 0.099836
0.710032 0.223552 0.101932
0.842561 0.227083 0.103987
0.977712 0.230473 0.105933
0.000000 0.324316 0.108084
0.085840 0.341859 0.085840
0.218099 0.343691 0.092507
0.346896 0.346896 0.104135
0.474955 0.352008 0.106115
0.607323 0.356636 0.105948
0.742211 0.360873 0.106648
0.878912 0.364841 0.107805
1.000000 0.368535 0.109110
0.000000 0.464537 0.116120
0.088373 0.484659 0.088373
0.224134 0.488053 0.092174
0.361097 0.490944 0.101403
0.495057 0.495057 0.110003
0.629027 0.499911 0.112565
0.765656 0.504274 0.112200
0.903934 0.507994 0.112053
1.000000 0.511174 0.112296
0.000000 0.612451 0.122478
0.090666 0.633569 0.090666
0.229098 0.637128 0.093089
0.369401 0.639724 0.099078
0.508557 0.642236 0.107517
0.645355 0.645355 0.113817
0.781627 0.648570 0.116343
0.918853 0.651219 0.115951
1.000000 0.653083 0.115272
0.000000 0.763016 0.127159
0.092284 0.783730 0.092284
0.232318 0.786219 0.093843
0.373689 0.787583 0.097760
0.514537 0.788248 0.103972
0.653170 0.788750 0.110847
0.789332 0.789332 0.115397
0.923987 0.789583 0.117564
1.000000 0.788391 0.116970
0.000000 0.911193 0.130161
0.093037 0.930179 0.093037
0.233374 0.930466 0.093956
0.374169 0.929521 0.096492
0.514176 0.927564 0.100789
0.650664 0.922971 0.106049
0.782780 0.917144 0.110961
0.911326 0.911326 0.113769
1.000000 0.905390 0.115134
0.000000 1.000000 0.131484
0.092818 1.000000 0.092818
0.231286 1.000000 0.092921
0.368423 1.000000 0.094174
0.503518 1.000000 0.096743
0.635859 1.000000 0.100454
0.764955 1.000000 0.104682
0.890802 1.000000 0.108405
1.000000 1.000000 0.110455
0.000000 0.000000 0.369608
0.120902 0.000000 0.247234
0.199530 0.000000 0.199530
0.288778 0.000000 0.192506
0.378445 0.000000 0.189218
0.469799 0.000000 0.187918
0.582914 0.000000 0.194303
0.701894 0.000000 0.200540
0.825946 0.000000 0.206486
0.000000 0.121675 0.270089
0.123728 0.123728 0.359226
0.209374 0.088672 0.209374
0.319568 0.090155 0.204861
0.434506 0.092373 0.206417
0.553537 0.094666 0.209384
0.676826 0.096929 0.212909
0.804205 0.099120 0.216634
0.935357 0.101215 0.220378
0.000000 0.204755 0.204755
0.080761 0.215440 0.215440
0.210627 0.210627 0.210627
0.348643 0.209430 0.209430
0.480096 0.211014 0.211014
0.611320 0.213549 0.213549
0.744134 0.216425 0.216425
0.879061 0.219382 0.219382
1.000000 0.222286 0.222286
0.000000 0.327633 0.218176
0.083567 0.343838 0.213703
0.202185 0.351752 0.202185
0.349112 0.349112 0.220879
0.485155 0.352387 0.219620
0.625511 0.354807 0.219454
0.765863 0.357428 0.221284
0.906438 0.360200 0.223641
1.000000 0.362959 0.226050
0.000000 0.467570 0.233663
0.086223 0.486983 0.219810
0.200844 0.499094 0.200844
0.354270 0.497052 0.211488
0.497479 0.497479 0.229963
0.635934 0.501120 0.231494
0.778252 0.503918 0.229583
0.921408 0.506130 0.229278
1.000000 0.508026 0.229897
0.000000 0.615254 0.246029
0.088620 0.635842 0.225425
0.201007 0.649847 0.201007
0.354169 0.648578 0.206964
0.505192 0.646810 0.221956
0.647427 0.647427 0.235685
0.786656 0.649571 0.238319
0.927690 0.651051 0.236092
1.000000 0.651649 0.234291
0.000000 0.765324 0.255057
0.090332 0.785556 0.229377
0.200808 0.799720 0.200808
0.352691 0.797802 0.204320
0.504292 0.794688 0.213896
0.650792 0.791884 0.227516
0.790541 0.790541 0.237314
0.927223 0.789766 0.239940
1.000000 0.786749 0.237171
0.000000 0.912684 0.260727
0.091168 0.931187 0.231171
0.199447 0.943993 0.199447
0.349105 0.940127 0.201350
0.498272 0.934778 0.207268
0.642180 0.926033 0.216400
0.779459 0.917702 0.226486
0.910441 0.910441 0.232511
1.000000 0.903732 0.234036
0.000000 1.000000 0.263039
0.090926 1.000000 0.230293
0.195686 1.000000 0.195686
0.340366 1.000000 0.195798
0.483269 1.000000 0.198743
0.622945 1.000000 0.204748
0.757911 1.000000 0.212837
0.887550 1.000000 0.220654
1.000000 1.000000 0.225069
0.000000 0.000000 0.554210
0.133997 0.000000 0.426438
0.214288 0.000000 0.323556
0.290406 0.000000 0.290406
0.377581 0.000000 0.283158
0.475243 0.000000 0.285133
0.589446 0.000000 0.294716
0.709121 0.000000 0.303905
0.833770 0.000000 0.312661
0.000000 0.129559 0.477164
0.118460 0.118460 0.558026
0.236985 0.094745 0.379225
0.325108 0.089929 0.325108
0.438164 0.092352 0.322893
0.557920 0.094770 0.326345
0.681938 0.097099 0.331035
0.809927 0.099323 0.336191
0.941575 0.101432 0.341473
0.000000 0.229239 0.358159
0.071230 0.249183 0.427135
0.254607 0.254607 0.506555
0.354978 0.207977 0.354978
0.487643 0.209016 0.348330
0.621155 0.211449 0.348018
0.755666 0.214210 0.349574
0.891891 0.217043 0.352013
1.000000 0.219823 0.354849
0.000000 0.336422 0.336422
0.077401 0.350908 0.350908
0.197549 0.356800 0.356800
0.350392 0.350392 0.350392
0.505645 0.348244 0.348244
0.652805 0.348726 0.348726
0.797047 0.350321 0.350321
0.940333 0.352380 0.352380
1.000000 0.354575 0.354575
0.000000 0.471569 0.353162
0.084497 0.489278 0.354351
0.197125 0.500474 0.348799
0.337960 0.504350 0.337960
0.499130 0.499130 0.359943
0.645515 0.500931 0.356348
0.795986 0.501308 0.353969
0.944414 0.501802 0.354265
1.000000 0.502465 0.355377
0.000000 0.618261 0.370640
0.087323 0.637715 0.362519
0.197209 0.651342 0.348587
0.331081 0.658103 0.331081
0.497695 0.651851 0.343539
0.648830 0.648830 0.365610
0.792153 0.649860 0.365274
0.938832 0.649675 0.360517
1.000000 0.648673 0.357880
0.000000 0.767657 0.383629
0.089069 0.786975 0.368231
0.197043 0.800854 0.347996
0.325309 0.808386 0.325309
0.488478 0.801890 0.331772
0.646507 0.794923 0.349673
0.791148 0.791148 0.365714
0.930276 0.789377 0.366679
1.000000 0.784368 0.360333
0.000000 0.914124 0.391631
0.089879 0.931811 0.370523
0.195764 0.944329 0.345477
0.318735 0.950920 0.318735
0.476605 0.941774 0.321549
0.630425 0.929435 0.331415
0.775074 0.918001 0.346293
0.909084 0.909084 0.356174
1.000000 0.901698 0.356442
0.000000 1.000000 0.394598
0.089513 1.000000 0.368174
0.191920 1.000000 0.338476
0.307945 1.000000 0.307945
0.458409 1.000000 0.308195
0.606420 1.000000 0.313777
0.748975 1.000000 0.324445
0.883679 1.000000 0.336586
1.000000 1.000000 0.343832
0.000000 0.000000 0.738693
0.139695 0.000000 0.613641
0.234356 0.000000 0.479238
0.303817 0.000000 0.406345
0.380825 0.000000 0.380825
0.481857 0.000000 0.385441
0.596157 0.000000 0.397412
0.716339 0.000000 0.409321
0.841523 0.000000 0.420752
0.000000 0.129562 0.681542
0.113772 0.113772 0.749593
0.258776 0.096407 0.583514
0.343172 0.091689 0.468913
0.445537 0.091981 0.445537
0.562779 0.094776 0.445779
0.687082 0.097220 0.451137
0.815577 0.099492 0.457534
0.947676 0.101621 0.464216
0.000000 0.248449 0.551494
0.062594 0.260524 0.656385
0.248252 0.248252 0.720762
0.381692 0.215852 0.547533
0.492444 0.208555 0.492444
0.623963 0.211210 0.486378
0.759011 0.214129 0.486570
0.895749 0.217047 0.488528
1.000000 0.219868 0.491317
0.000000 0.355603 0.484627
0.060593 0.372163 0.527948
0.188227 0.386649 0.585071
0.386757 0.386757 0.647300
0.511900 0.345948 0.511900
0.661147 0.345763 0.503455
0.808155 0.347051 0.500752
0.953468 0.348836 0.499994
1.000000 0.350783 0.500239
0.000000 0.479989 0.479989
0.075328 0.496315 0.496315
0.189536 0.505614 0.505614
0.331630 0.507607 0.507607
0.500000 0.500000 0.500000
0.666059 0.495981 0.495981
0.822918 0.494327 0.494327
0.974740 0.493791 0.493791
1.000000 0.493754 0.493754
0.000000 0.622347 0.497086
0.084552 0.640268 0.501339
0.194590 0.652375 0.499780
0.326078 0.658546 0.492312
0.480738 0.658081 0.480738
0.649558 0.649558 0.503587
0.800589 0.648731 0.496873
0.955328 0.645975 0.491299
1.000000 0.643189 0.488821
0.000000 0.770358 0.512994
0.087549 0.788452 0.508091
0.194743 0.801270 0.498006
0.320009 0.808643 0.482887
0.465346 0.809585 0.465346
0.638065 0.798502 0.477629
0.791156 0.791156 0.500555
0.933014 0.787565 0.496667
1.000000 0.780797 0.486620
0.000000 0.915678 0.522854
0.088661 0.932307 0.510484
0.193367 0.943976 0.493610
0.313362 0.950469 0.472639
0.449280 0.948838 0.449280
0.613334 0.933590 0.453206
0.768888 0.918302 0.470059
0.907261 0.907261 0.484709
1.000000 0.899265 0.481954
0.000000 1.000000 0.526003
0.088271 1.000000 0.506003
0.189229 1.000000 0.482406
0.302409 1.000000 0.455929
0.429090 1.000000 0.429090
0.585047 1.000000 0.429971
0.736986 1.000000 0.439957
0.878912 1.000000 0.455978
1.000000 1.000000 0.466741
0.000000 0.000000 0.923072
0.141386 0.000000 0.801820
0.250892 0.000000 0.653252
0.324437 0.000000 0.546782
0.394915 0.000000 0.494549
0.492168 0.000000 0.492168
0.603905 0.000000 0.503193
0.723852 0.000000 0.516994
0.849319 0.000000 0.530797
0.000000 0.126899 0.880490
0.109336 0.109336 0.938483
0.268244 0.095005 0.787962
0.368366 0.091041 0.645691
0.459945 0.092517 0.582421
0.571432 0.094208 0.571432
0.692991 0.097171 0.573827
0.821372 0.099586 0.580776
0.953742 0.101766 0.588609
0.000000 0.258260 0.757706
0.057215 0.260818 0.871626
0.242802 0.242802 0.923369
0.401429 0.219031 0.766225
0.507024 0.211070 0.655001
0.630296 0.210548 0.630296
0.762783 0.213919 0.625567
0.899612 0.216980 0.626559
1.000000 0.219859 0.629107
0.000000 0.373866 0.662833
0.040784 0.388317 0.735849
0.180859 0.395168 0.823788
0.379593 0.379593 0.872340
0.533563 0.350484 0.716642
0.664584 0.344595 0.664584
0.809668 0.346297 0.655211
0.955291 0.348248 0.651770
1.000000 0.350276 0.650227
0.000000 0.494795 0.627217
0.056692 0.510230 0.661410
0.171656 0.520979 0.695641
0.315577 0.527789 0.740001
0.521212 0.521212 0.787917
0.671709 0.492623 0.671709
0.831224 0.490232 0.660728
0.986126 0.489194 0.654838
1.000000 0.488726 0.650799
0.000000 0.629735 0.629735
0.073085 0.646714 0.646714
0.183847 0.657693 0.657693
0.317266 0.662349 0.662349
0.473405 0.660546 0.660546
0.649608 0.649608 0.649608
0.820360 0.642712 0.642712
0.980956 0.637872 0.637872
1.000000 0.634064 0.634064
0.000000 0.774355 0.644251
0.083397 0.791080 0.649544
0.191096 0.802377 0.649557
0.316466 0.808234 0.644311
0.459040 0.808732 0.633886
0.620300 0.803248 0.620300
0.790566 0.790566 0.641793
0.938730 0.784271 0.629812
1.000000 0.774930 0.618251
0.000000 0.917766 0.654681
0.086513 0.933147 0.650936
0.190958 0.943585 0.642534
0.309933 0.948927 0.629430
0.442031 0.946439 0.610167
0.589558 0.938119 0.589558
0.758702 0.919231 0.598172
0.904985 0.904985 0.618072
1.000000 0.896290 0.609983
0.000000 1.000000 0.656821
0.086693 1.000000 0.643557
0.186878 1.000000 0.626474
0.298610 1.000000 0.605864
0.422000 1.000000 0.582336
0.558796 1.000000 0.558796
0.720006 1.000000 0.561571
0.872525 1.000000 0.578585
1.000000 1.000000 0.593800
0.000000 0.000000 1.000000
0.140965 0.000000 0.989589
0.262669 0.000000 0.835930
0.345525 0.000000 0.706569
0.419313 0.000000 0.633125
0.509906 0.000000 0.612645
0.615147 0.000000 0.615147
0.732546 0.000000 0.627818
0.857512 0.000000 0.643072
0.000000 0.123255 1.000000
0.105011 0.105011 1.000000
0.271520 0.092312 0.988351
0.388392 0.088630 0.838035
0.482559 0.090802 0.743729
0.584228 0.094171 0.706742
0.702525 0.096403 0.702525
0.828134 0.099435 0.706684
0.960062 0.101801 0.714844
0.000000 0.261992 0.964913
0.053018 0.257729 1.000000
0.237804 0.237804 1.000000
0.408844 0.218479 0.979940
0.528252 0.211192 0.845312
0.640246 0.211742 0.783081
0.770101 0.213020 0.770101
0.904164 0.216701 0.766672
1.000000 0.219750 0.768317
0.000000 0.386556 0.858057
0.025857 0.395620 0.950265
0.176485 0.393788 1.000000
0.373451 0.373451 1.000000
0.548267 0.351035 0.942730
0.675024 0.345357 0.839857
0.814339 0.344881 0.814339
0.957485 0.347491 0.804986
1.000000 0.349681 0.801208
0.000000 0.509748 0.796421
0.032365 0.523424 0.850796
0.151969 0.531628 0.911286
0.305573 0.531199 0.982452
0.515105 0.515105 1.000000
0.690002 0.493828 0.886176
0.833269 0.488200 0.833269
0.985978 0.487624 0.819860
1.000000 0.487302 0.812098
0.000000 0.641159 0.777095
0.053783 0.657189 0.808040
0.165377 0.668687 0.836458
0.297426 0.676351 0.865813
0.456363 0.682148 0.907933
0.676778 0.676778 0.956185
0.825251 0.638338 0.825251
0.988452 0.632441 0.810446
1.000000 0.627962 0.800460
0.000000 0.781554 0.781554
0.070327 0.797515 0.797515
0.178206 0.807914 0.807914
0.304634 0.812654 0.812654
0.449397 0.811673 0.811673
0.612159 0.804942 0.804942
0.789303 0.789303 0.789303
0.955825 0.776105 0.776105
1.000000 0.764783 0.764783
0.000000 0.921300 0.788426
0.080982 0.935415 0.793009
0.185882 0.944440 0.792728
0.305035 0.947281 0.786719
0.436969 0.943277 0.774508
0.581353 0.934734 0.758044
0.739631 0.921337 0.739631
0.902267 0.902267 0.756221
1.000000 0.892061 0.740403
0.000000 1.000000 0.787773
0.083686 1.000000 0.781065
0.183710 1.000000 0.770417
0.295021 1.000000 0.756090
0.417284 1.000000 0.738356
0.550549 1.000000 0.717655
0.696979 1.000000 0.696979
0.862381 1.000000 0.704893
1.000000 1.000000 0.725018
0.000000 0.000000 1.000000
0.139354 0.000000 1.000000
0.270564 0.000000 1.000000
0.363981 0.000000 0.879045
0.445425 0.000000 0.790253
0.533005 0.000000 0.749456
0.632452 0.000000 0.738531
0.744467 0.000000 0.744467
0.866952 0.000000 0.758489
0.000000 0.119217 1.000000
0.100749 0.100749 1.000000
0.271739 0.089024 1.000000
0.402090 0.085267 1.000000
0.504957 0.087545 0.922370
0.604274 0.092034 0.860395
0.714497 0.096010 0.838194
0.838250 0.098481 0.838250
0.967469 0.101523 0.843762
0.000000 0.262295 1.000000
0.049200 0.253546 1.000000
0.233063 0.233063 1.000000
0.410393 0.216283 1.000000
0.544451 0.209469 1.000000
0.658180 0.210494 0.956637
0.777981 0.213642 0.919066
0.912078 0.215570 0.912078
1.000000 0.219343 0.909659
0.000000 0.394012 1.000000
0.015091 0.397449 1.000000
0.173041 0.389598 1.000000
0.367893 0.367893 1.000000
0.552270 0.348962 1.000000
0.691009 0.343447 1.000000
0.820125 0.345041 0.978486
0.962995 0.345857 0.962995
1.000000 0.348833 0.953736
0.000000 0.521610 0.981529
0.010659 0.531850 1.000000
0.137996 0.535050 1.000000
0.300349 0.527573 1.000000
0.509936 0.509936 1.000000
0.702535 0.492493 1.000000
0.842551 0.487780 1.000000
0.989187 0.485389 0.989187
1.000000 0.485702 0.974304
0.000000 0.653548 0.941911
0.027858 0.668669 0.989075
0.141391 0.679741 1.000000
0.276985 0.686522 1.000000
0.446402 0.686905 1.000000
0.669249 0.669249 1.000000
0.845480 0.640017 1.000000
0.988996 0.629411 0.988996
1.000000 0.625254 0.970597
0.000000 0.792490 0.931618
0.050773 0.807197 0.958482
0.160021 0.817460 0.981820
0.285618 0.823626 1.000000
0.428620 0.826689 1.000000
0.595956 0.829381 1.000000
0.821488 0.821488 1.000000
0.958382 0.769672 0.958382
1.000000 0.757135 0.936231
0.000000 0.927867 0.927867
0.066773 0.941269 0.941269
0.171491 0.949514 0.949514
0.290752 0.950451 0.950451
0.423848 0.945437 0.945437
0.570473 0.935626 0.935626
0.730209 0.921294 0.921294
0.899117 0.899117 0.899117
1.000000 0.883202 0.883202
0.000000 1.000000 0.920300
0.076902 1.000000 0.919927
0.177160 1.000000 0.915418
0.288880 1.000000 0.907061
0.411582 1.000000 0.895179
0.544803 1.000000 0.880113
0.688251 1.000000 0.862242
0.843856 1.000000 0.843856
1.000000 1.000000 0.860410
0.000000 0.000000 1.000000
0.137025 0.000000 1.000000
0.275602 0.000000 1.000000
0.379623 0.000000 1.000000
0.469968 0.000000 0.961046
0.558380 0.000000 0.901672
0.654314 0.000000 0.875123
0.761431 0.000000 0.870823
0.879342 0.000000 0.879342
0.000000 0.115011 1.000000
0.096524 0.096524 1.000000
0.270340 0.085429 1.000000
0.410886 0.081429 1.000000
0.523815 0.083404 1.000000
0.626190 0.088378 1.000000
0.732579 0.093690 0.988134
0.849721 0.097826 0.975037
0.977931 0.100399 0.977931
0.000000 0.260681 1.000000
0.045482 0.249005 1.000000
0.228482 0.228482 1.000000
0.409203 0.213312 1.000000
0.554792 0.206688 1.000000
0.675960 0.207638 1.000000
0.793052 0.211889 1.000000
0.918889 0.215831 1.000000
1.000000 0.217999 1.000000
0.000000 0.397643 1.000000
0.006954 0.396322 1.000000
0.169803 0.384627 1.000000
0.362698 0.362698 1.000000
0.551428 0.345821 1.000000
0.702436 0.340133 1.000000
0.833098 0.342387 1.000000
0.967108 0.346038 1.000000
1.000000 0.347020 1.000000
0.000000 0.529787 1.000000
0.000000 0.535954 1.000000
0.128359 0.534246 1.000000
0.297594 0.523860 1.000000
0.505319 0.505319 1.000000
0.705823 0.489867 1.000000
0.857797 0.485095 1.000000
0.994049 0.485008 1.000000
1.000000 0.483243 1.000000
0.000000 0.664676 1.000000
0.002305 0.678092 1.000000
0.120514 0.686994 1.000000
0.263163 0.690103 1.000000
0.441456 0.684063 1.000000
0.662672 0.662672 1.000000
0.858923 0.638779 1.000000
0.998410 0.628380 1.000000
1.000000 0.621952 1.000000
0.000000 0.804450 1.000000
0.024400 0.818287 1.000000
0.134857 0.828287 1.000000
0.261342 0.834618 1.000000
0.407608 0.837293 1.000000
0.585611 0.834491 1.000000
0.811536 0.811536 1.000000
0.978828 0.770991 1.000000
1.000000 0.752184 1.000000
0.000000 0.937735 1.000000
0.047149 0.949795 1.000000
0.153498 0.957336 1.000000
0.272379 0.957989 1.000000
0.403840 0.955174 1.000000
0.549010 0.950448 1.000000
0.715535 0.947578 1.000000
0.937600 0.937600 1.000000
1.000000 0.876225 1.000000
0.000000 1.000000 1.000000
0.062012 1.000000 1.000000
0.161840 1.000000 1.000000
0.273550 1.000000 1.000000
0.396856 1.000000 1.000000
0.531564 1.000000 1.000000
0.677600 1.000000 1.000000
0.835037 1.000000 1.000000
1.000000 1.000000 1.000000
