_backup/뉴턴_LUT/뉴턴_팝_D.cube
TITLE "newton_pop_D"
LUT_3D_SIZE 5
0.000000 0.000000 0.000000
0.201294 0.000000 0.000000
0.382361 0.000000 0.000000
0.569678 0.000000 0.000000
0.809919 0.000000 0.000000
0.000000 0.194614 0.000000
0.206768 0.206768 0.000000
0.435478 0.217739 0.000000
0.682569 0.227523 0.000000
0.944483 0.236121 0.000000
0.000000 0.461582 0.000000
0.238956 0.477913 0.000000
0.491872 0.491872 0.000000
0.755188 0.503458 0.000000
1.000000 0.512672 0.000000
0.000000 0.760632 0.000000
0.257718 0.773155 0.000000
0.521414 0.782121 0.000000
0.787526 0.787526 0.000000
1.000000 0.789374 0.000000
0.000000 1.000000 0.000000
0.262479 1.000000 0.000000
0.519965 1.000000 0.000000
0.770735 1.000000 0.000000
1.000000 1.000000 0.000000
0.000000 0.000000 0.369608
0.199530 0.000000 0.199530
0.378445 0.000000 0.189218
0.582914 0.000000 0.194303
0.825946 0.000000 0.206486
0.000000 0.204755 0.204755
0.210627 0.210627 0.210627
0.480096 0.211014 0.211014
0.744134 0.216425 0.216425
1.000000 0.222286 0.222286
0.000000 0.467570 0.233663
0.200844 0.499094 0.200844
0.497479 0.497479 0.229963
0.778252 0.503918 0.229583
1.000000 0.508026 0.229897
0.000000 0.765324 0.255057
0.200808 0.799720 0.200808
0.504292 0.794688 0.213896
0.790541 0.790541 0.237314
1.000000 0.786749 0.237171
0.000000 1.000000 0.263039
0.195686 1.000000 0.195686
0.483269 1.000000 0.198743
0.757911 1.000000 0.212837
1.000000 1.000000 0.225069
0.000000 0.000000 0.738693
0.234356 0.000000 0.479238
0.380825 0.000000 0.380825
0.596157 0.000000 0.397412
0.841523 0.000000 0.420752
0.000000 0.248449 0.551494
0.248252 0.248252 0.720762
0.492444 0.208555 0.492444
0.759011 0.214129 0.486570
1.000000 0.219868 0.491317
0.000000 0.479989 0.479989
0.189536 0.505614 0.505614
0.500000 0.500000 0.500000
0.822918 0.494327 0.494327
1.000000 0.493754 0.493754
0.000000 0.770358 0.512994
0.194743 0.801270 0.498006
0.465346 0.809585 0.465346
0.791156 0.791156 0.500555
1.000000 0.780797 0.486620
0.000000 1.000000 0.526003
0.189229 1.000000 0.482406
0.429090 1.000000 0.429090
0.736986 1.000000 0.439957
1.000000 1.000000 0.466741
0.000000 0.000000 1.000000
0.262669 0.000000 0.835930
0.419313 0.000000 0.633125
0.615147 0.000000 0.615147
0.857512 0.000000 0.643072
0.000000 0.261992 0.964913
0.237804 0.237804 1.000000
0.528252 0.211192 0.845312
0.770101 0.213020 0.770101
1.000000 0.219750 0.768317
0.000000 0.509748 0.796421
0.151969 0.531628 0.911286
0.515105 0.515105 1.000000
0.833269 0.488200 0.833269
1.000000 0.487302 0.812098
0.000000 0.781554 0.781554
0.178206 0.807914 0.807914
0.449397 0.811673 0.811673
0.789303 0.789303 0.789303
1.000000 0.764783 0.764783
0.000000 1.000000 0.787773
0.183710 1.000000 0.770417
0.417284 1.000000 0.738356
0.696979 1.000000 0.696979
1.000000 1.000000 0.725018
0.000000 0.000000 1.000000
0.275602 0.000000 1.000000
0.469968 0.000000 0.961046
0.654314 0.000000 0.875123
0.879342 0.000000 0.879342
0.000000 0.260681 1.000000
0.228482 0.228482 1.000000
0.554792 0.206688 1.000000
0.793052 0.211889 1.000000
1.000000 0.217999 1.000000
0.000000 0.529787 1.000000
0.128359 0.534246 1.000000
0.505319 0.505319 1.000000
0.857797 0.485095 1.000000
1.000000 0.483243 1.000000
0.000000 0.804450 1.000000
0.134857 0.828287 1.000000
0.407608 0.837293 1.000000
0.811536 0.811536 1.000000
1.000000 0.752184 1.000000
0.000000 1.000000 1.000000
0.161840 1.000000 1.000000
0.396856 1.000000 1.000000
0.677600 1.000000 1.000000
1.000000 1.000000 1.000000
