_backup/뉴턴_LUT/뉴턴_추구미_60.cube
TITLE "newton_match_v2"
LUT_3D_SIZE 9
0.000000 0.000000 0.000000
0.109297 0.000000 0.000000
0.212789 0.000000 0.000000
0.310379 0.000000 0.000000
0.402066 0.000000 0.000000
0.487851 0.000000 0.000000
0.570416 0.000000 0.000000
0.666976 0.000000 0.000000
0.795044 0.000000 0.000000
0.000000 0.094870 0.000000
0.090665 0.088824 0.000000
0.181960 0.085161 0.000000
0.272796 0.081623 0.000000
0.371761 0.080114 0.000000
0.488906 0.080447 0.000000
0.617273 0.080509 0.000000
0.756610 0.080144 0.000000
0.926893 0.080450 0.000000
0.000000 0.176552 0.000000
0.080195 0.177257 0.000000
0.184871 0.181030 0.000000
0.293779 0.186981 0.000000
0.416553 0.192902 0.000000
0.562744 0.201695 0.000000
0.732639 0.211415 0.000000
0.950000 0.227584 0.000000
1.000000 0.236949 0.000000
0.000000 0.297726 0.000000
0.078672 0.309540 0.000000
0.206761 0.325834 0.000000
0.352088 0.342943 0.000000
0.523276 0.373977 0.000000
0.706063 0.393742 0.000000
0.900000 0.407731 0.000000
0.950000 0.399320 0.000000
1.000000 0.386847 0.000000
0.000000 0.494291 0.000000
0.075363 0.533500 0.000000
0.239842 0.557802 0.000000
0.414949 0.569346 0.000000
0.566444 0.549860 0.000000
0.702826 0.537491 0.000000
0.840337 0.526885 0.000000
0.950000 0.520121 0.000000
1.000000 0.515428 0.000000
0.000000 0.736530 0.000000
0.056745 0.716875 0.000000
0.218143 0.698272 0.000000
0.375043 0.682777 0.000000
0.531634 0.672942 0.000000
0.679527 0.660088 0.000000
0.820529 0.656106 0.000000
0.950000 0.652677 0.000000
1.000000 0.645458 0.000000
0.000000 0.841328 0.000000
0.050000 0.831427 0.000000
0.194214 0.824235 0.000000
0.351385 0.815267 0.000000
0.507903 0.807115 0.000000
0.661095 0.795952 0.000000
0.799856 0.777235 0.000000
0.932289 0.768778 0.000000
1.000000 0.760204 0.000000
0.000000 0.950000 0.000000
0.050000 0.950000 0.000000
0.172254 0.950000 0.000000
0.325944 0.937009 0.000000
0.476917 0.923445 0.000000
0.624768 0.909389 0.000000
0.768887 0.894565 0.000000
0.898568 0.873743 0.000000
1.000000 0.863234 0.000000
0.000000 1.000000 0.000000
0.050000 1.000000 0.000000
0.150123 1.000000 0.000000
0.299163 1.000000 0.000000
0.445961 1.000000 0.000000
0.588225 1.000000 0.000000
0.728349 0.997130 0.000000
0.868752 0.986026 0.000000
1.000000 0.980038 0.000000
0.000000 0.000000 0.115253
0.108748 0.000000 0.108864
0.212751 0.000000 0.102599
0.310695 0.000000 0.096665
0.402574 0.000000 0.091078
0.488386 0.000000 0.085841
0.576246 0.000000 0.081893
0.684231 0.000000 0.080266
0.820646 0.000000 0.080243
0.000000 0.092965 0.095370
0.089764 0.087593 0.089861
0.184546 0.082573 0.084703
0.279631 0.079346 0.081443
0.386210 0.078173 0.080391
0.509688 0.077929 0.080377
0.641387 0.076938 0.079601
0.790279 0.075845 0.078773
0.969571 0.074880 0.078181
0.000000 0.176041 0.080901
0.080275 0.179013 0.080372
0.187448 0.183478 0.088940
0.299719 0.188827 0.087234
0.430854 0.195812 0.086359
0.584767 0.204771 0.086371
0.768587 0.215888 0.086695
0.950000 0.229857 0.087118
1.000000 0.236672 0.084671
0.000000 0.300188 0.079036
0.078510 0.314852 0.078643
0.210203 0.332504 0.077957
0.366259 0.356451 0.106325
0.539586 0.383845 0.107163
0.725367 0.400370 0.101546
0.900000 0.405013 0.093918
0.950000 0.393599 0.084587
1.000000 0.381608 0.076276
0.000000 0.510632 0.077167
0.074188 0.543714 0.074395
0.241397 0.565345 0.069686
0.411769 0.565833 0.063226
0.561526 0.545138 0.110798
0.699432 0.534114 0.103121
0.841042 0.524920 0.091724
0.950000 0.518485 0.081375
1.000000 0.513452 0.072229
0.000000 0.730866 0.061606
0.054419 0.709211 0.054639
0.214830 0.691832 0.050000
0.372012 0.678943 0.050000
0.528937 0.670093 0.050000
0.678146 0.658745 0.098319
0.819713 0.654953 0.093398
0.950000 0.650184 0.083464
1.000000 0.642956 0.072905
0.000000 0.836349 0.050000
0.050000 0.827626 0.050000
0.191718 0.820113 0.050000
0.349116 0.812788 0.050000
0.504548 0.802961 0.050000
0.657079 0.791539 0.050000
0.796373 0.773885 0.087726
0.928985 0.765776 0.083594
1.000000 0.756816 0.074601
0.000000 0.950000 0.050000
0.050000 0.950000 0.050000
0.169865 0.945922 0.050000
0.323003 0.932022 0.050000
0.473518 0.918589 0.050000
0.620874 0.904567 0.050000
0.764765 0.890097 0.050000
0.895889 0.871161 0.077126
1.000000 0.859946 0.073851
0.000000 1.000000 0.050000
0.050000 1.000000 0.050000
0.147863 1.000000 0.050000
0.296439 1.000000 0.050000
0.442359 1.000000 0.050000
0.584625 1.000000 0.050000
0.724117 0.991972 0.050000
0.870163 0.987865 0.050000
1.000000 0.982120 0.068270
0.000000 0.000000 0.228721
0.106585 0.000000 0.219175
0.209611 0.000000 0.209828
0.306579 0.000000 0.200806
0.397483 0.000000 0.192127
0.482725 0.000000 0.183944
0.577406 0.000000 0.180557
0.695902 0.000000 0.183118
0.836710 0.000000 0.188556
0.000000 0.091097 0.198809
0.087971 0.085845 0.190209
0.182395 0.081177 0.182575
0.278887 0.078463 0.179860
0.390475 0.077967 0.183788
0.515716 0.077591 0.189143
0.649355 0.076461 0.193367
0.808812 0.075667 0.200561
0.997648 0.074647 0.209651
0.000000 0.175722 0.179959
0.079976 0.179872 0.184510
0.189479 0.184595 0.189698
0.309137 0.188631 0.194194
0.448852 0.195874 0.202146
0.610784 0.204083 0.211193
0.818983 0.217487 0.225883
0.950000 0.227145 0.236670
1.000000 0.231160 0.241486
0.000000 0.303760 0.195507
0.078104 0.319248 0.203557
0.212152 0.336777 0.212463
0.376574 0.366272 0.242813
0.552149 0.388831 0.250622
0.743080 0.403250 0.254517
0.900000 0.400147 0.248856
0.950000 0.386878 0.237829
1.000000 0.375414 0.228310
0.000000 0.520357 0.230184
0.072539 0.548760 0.237964
0.241747 0.569939 0.242202
0.407119 0.560253 0.234296
0.556927 0.540724 0.258939
0.696034 0.529872 0.246854
0.841843 0.521469 0.234754
0.950000 0.514992 0.225302
1.000000 0.509301 0.217373
0.000000 0.723853 0.231893
0.052156 0.703472 0.221491
0.211741 0.686143 0.212166
0.368923 0.674980 0.204597
0.526303 0.667324 0.197960
0.676175 0.656840 0.242491
0.819285 0.653715 0.235753
0.950000 0.647551 0.224502
1.000000 0.639260 0.213441
0.000000 0.833514 0.203146
0.050000 0.826220 0.196644
0.189535 0.817724 0.189953
0.346842 0.810294 0.183480
0.501365 0.799081 0.176452
0.653555 0.787718 0.169508
0.793433 0.771055 0.228515
0.926030 0.762866 0.221913
1.000000 0.753593 0.210880
0.000000 0.950000 0.181970
0.050000 0.950000 0.174916
0.167559 0.941959 0.167966
0.320323 0.927869 0.160995
0.470328 0.914149 0.154209
0.616792 0.899453 0.147488
0.760282 0.885206 0.140973
0.891539 0.866986 0.212481
1.000000 0.856672 0.206893
0.000000 1.000000 0.159445
0.050000 1.000000 0.152669
0.145581 1.000000 0.145969
0.293695 1.000000 0.139523
0.438820 1.000000 0.133250
0.580939 1.000000 0.127149
0.720176 0.987212 0.121229
0.870575 0.988576 0.115912
1.000000 1.000000 0.206074
0.000000 0.000000 0.340046
0.104459 0.000000 0.327364
0.206513 0.000000 0.314924
0.302508 0.000000 0.302810
0.392441 0.000000 0.291039
0.478726 0.000000 0.281001
0.576625 0.000000 0.279048
0.702705 0.000000 0.287868
0.845463 0.000000 0.298924
0.000000 0.089270 0.300105
0.086219 0.084138 0.288413
0.180894 0.080039 0.280022
0.280537 0.078094 0.280813
0.395374 0.077805 0.290571
0.521024 0.077128 0.300640
0.657993 0.075973 0.310757
0.824053 0.075205 0.327252
1.000000 0.073893 0.345992
0.000000 0.177399 0.283261
0.080233 0.182330 0.294006
0.191309 0.186261 0.303435
0.313826 0.190680 0.314197
0.456732 0.198031 0.330914
0.622516 0.206315 0.350227
0.838239 0.220361 0.381665
0.950000 0.227765 0.401728
1.000000 0.231569 0.415826
0.000000 0.309903 0.318852
0.078039 0.326295 0.336405
0.217230 0.346359 0.357905
0.387016 0.374078 0.387596
0.570625 0.390193 0.405070
0.765763 0.400991 0.416962
0.900000 0.390434 0.406164
0.950000 0.376733 0.391996
1.000000 0.364775 0.379665
0.000000 0.534325 0.393785
0.071076 0.558399 0.409564
0.239995 0.569132 0.415441
0.402339 0.554474 0.403010
0.553408 0.537306 0.405392
0.696344 0.525845 0.389760
0.846470 0.517553 0.379608
0.950000 0.511562 0.372545
1.000000 0.505020 0.365630
0.000000 0.716409 0.399541
0.050000 0.697899 0.386612
0.209226 0.682624 0.375536
0.366767 0.672821 0.367397
0.524689 0.665860 0.360750
0.675366 0.656041 0.386639
0.820038 0.652419 0.377559
0.950000 0.644218 0.365352
1.000000 0.635488 0.354758
0.000000 0.831160 0.365848
0.050000 0.823998 0.359192
0.187321 0.815140 0.351883
0.344206 0.806848 0.344829
0.498496 0.795712 0.336735
0.649922 0.783762 0.328418
0.790844 0.768561 0.368571
0.923609 0.759970 0.359026
1.000000 0.749601 0.346028
0.000000 0.950000 0.342830
0.050000 0.950000 0.334728
0.165120 0.936695 0.326369
0.317487 0.923150 0.318087
0.466846 0.909077 0.309766
0.612672 0.894270 0.301364
0.756457 0.881078 0.293537
0.887368 0.862983 0.346696
1.000000 0.853290 0.338744
0.000000 1.000000 0.316175
0.050000 1.000000 0.307881
0.143380 1.000000 0.299582
0.291418 1.000000 0.291991
0.435595 1.000000 0.283746
0.577252 0.996814 0.276132
0.718806 0.986043 0.269511
0.870131 0.988322 0.265532
1.000000 1.000000 0.343728
0.000000 0.000000 0.449183
0.102362 0.000000 0.433390
0.203442 0.000000 0.417860
0.298463 0.000000 0.402655
0.387421 0.000000 0.387791
0.477385 0.000000 0.378837
0.584081 0.000000 0.382891
0.715768 0.000000 0.398373
0.856843 0.000000 0.413121
0.000000 0.087486 0.399268
0.084511 0.082474 0.384487
0.180480 0.079306 0.379172
0.284513 0.078183 0.386996
0.402752 0.077930 0.403173
0.529520 0.076924 0.417467
0.672770 0.075848 0.435630
0.843699 0.074871 0.461438
1.000000 0.073423 0.492493
0.000000 0.179055 0.390071
0.080146 0.183985 0.406463
0.192880 0.187680 0.420661
0.320467 0.193763 0.441899
0.469007 0.201787 0.469595
0.646380 0.211888 0.504739
0.862196 0.224156 0.548345
0.950000 0.229493 0.575017
1.000000 0.230708 0.591588
0.000000 0.315135 0.447369
0.077771 0.332795 0.476088
0.224024 0.358964 0.518337
0.396208 0.382655 0.557619
0.581250 0.396286 0.582130
0.762955 0.398425 0.589239
0.900000 0.385694 0.573091
0.950000 0.372879 0.556609
1.000000 0.361515 0.542252
0.000000 0.544103 0.563361
0.069352 0.565748 0.586594
0.237202 0.565585 0.586812
0.397278 0.548280 0.568889
0.552243 0.533016 0.553105
0.705201 0.520724 0.540456
0.860291 0.512052 0.531639
0.950000 0.505248 0.524805
1.000000 0.497462 0.516923
0.000000 0.708872 0.564445
0.050000 0.691455 0.549287
0.206614 0.678672 0.537847
0.364203 0.669860 0.529564
0.521958 0.662964 0.522796
0.674287 0.654893 0.530020
0.821608 0.648985 0.518699
0.950000 0.640178 0.508280
1.000000 0.630104 0.498153
0.000000 0.827498 0.527651
0.050000 0.819984 0.520602
0.185119 0.812608 0.513648
0.341336 0.802771 0.505211
0.495006 0.791302 0.495826
0.645678 0.779062 0.486033
0.787736 0.765560 0.507428
0.921624 0.756396 0.494660
1.000000 0.745384 0.480887
0.000000 0.950000 0.503175
0.050000 0.945690 0.493689
0.162738 0.931771 0.483749
0.314633 0.918318 0.474119
0.463506 0.904279 0.464291
0.609038 0.889808 0.454349
0.752703 0.877029 0.445294
0.883972 0.859719 0.480119
1.000000 0.849753 0.469286
0.000000 1.000000 0.472012
0.050000 1.000000 0.461993
0.141188 1.000000 0.452121
0.288523 1.000000 0.442901
0.432503 1.000000 0.433249
0.573578 0.991661 0.424028
0.719689 0.988031 0.419208
0.870796 0.989325 0.416171
1.000000 1.000000 0.480124
0.000000 0.000000 0.556225
0.100312 0.000000 0.537305
0.200421 0.000000 0.518673
0.294470 0.000000 0.500370
0.382840 0.000000 0.482901
0.478185 0.000000 0.478636
0.593848 0.000000 0.491627
0.729396 0.000000 0.513557
0.871361 0.000000 0.532518
0.000000 0.085739 0.496263
0.083103 0.081095 0.480227
0.179645 0.078415 0.477754
0.287134 0.077939 0.494633
0.407006 0.077562 0.516557
0.535668 0.076428 0.536255
0.687941 0.075646 0.566728
0.867359 0.074611 0.604967
1.000000 0.073325 0.656409
0.000000 0.179956 0.498205
0.079658 0.184633 0.519667
0.194034 0.188701 0.540496
0.325652 0.195993 0.573611
0.477925 0.204188 0.612148
0.671981 0.217786 0.672884
0.883691 0.227269 0.722893
0.950000 0.231201 0.755639
1.000000 0.227997 0.762879
0.000000 0.319577 0.580225
0.077082 0.337186 0.618970
0.228138 0.367201 0.683566
0.400629 0.386716 0.728756
0.587550 0.399540 0.761621
0.758200 0.394923 0.759336
0.900000 0.380842 0.737210
0.950000 0.368708 0.718781
1.000000 0.358836 0.704896
0.000000 0.549169 0.734223
0.067379 0.570204 0.766046
0.233623 0.559895 0.754351
0.392470 0.542424 0.732511
0.546679 0.527636 0.714302
0.700716 0.516926 0.701768
0.856326 0.508893 0.693000
0.950000 0.501937 0.685754
1.000000 0.495068 0.678623
0.000000 0.703110 0.728468
0.050000 0.685855 0.710606
0.204030 0.674784 0.699265
0.361812 0.667234 0.691643
0.518979 0.659747 0.684086
0.675866 0.652620 0.676908
0.829311 0.643295 0.667396
0.950000 0.632827 0.656664
1.000000 0.621812 0.645342
0.000000 0.826144 0.690733
0.050000 0.817601 0.682556
0.182928 0.810127 0.675280
0.338518 0.798804 0.664808
0.491892 0.787506 0.654378
0.641893 0.774914 0.642900
0.784965 0.762701 0.644950
0.922552 0.752297 0.630267
1.000000 0.740420 0.617546
0.000000 0.950000 0.662766
0.050000 0.941666 0.652061
0.160454 0.927611 0.640572
0.311899 0.913857 0.629340
0.460009 0.899127 0.617510
0.605120 0.884908 0.606081
0.747732 0.871560 0.595290
0.880587 0.856440 0.612453
1.000000 0.846000 0.598617
0.000000 1.000000 0.626629
0.050000 1.000000 0.614707
0.139013 1.000000 0.603574
0.285676 1.000000 0.592486
0.429362 1.000000 0.581644
0.570171 0.986982 0.571085
0.719525 0.988562 0.569426
0.889989 1.000000 0.579100
1.000000 0.997940 0.615866
0.000000 0.000000 0.661077
0.098297 0.000000 0.639055
0.197434 0.000000 0.617329
0.290511 0.000000 0.595933
0.379601 0.000000 0.578093
0.477600 0.000000 0.577493
0.599428 0.000000 0.600020
0.736525 0.000000 0.627728
0.881794 0.000000 0.653104
0.000000 0.084036 0.591130
0.081978 0.079983 0.576803
0.180457 0.078098 0.582229
0.290595 0.077819 0.606980
0.410994 0.077110 0.632601
0.542635 0.075950 0.659358
0.700440 0.075169 0.701258
0.882706 0.073836 0.749393
1.000000 0.072845 0.829389
0.000000 0.182468 0.615221
0.079515 0.186377 0.639794
0.196441 0.190899 0.668554
0.331005 0.198268 0.711312
0.487185 0.206643 0.761594
0.686819 0.220541 0.840578
0.893978 0.227837 0.895232
0.950000 0.231575 0.900000
1.000000 0.224740 0.900000
0.000000 0.326753 0.724963
0.077051 0.347011 0.780678
0.231745 0.374695 0.856628
0.404789 0.390524 0.900000
0.591121 0.401005 0.900000
0.750767 0.390147 0.900000
0.898574 0.376489 0.899883
0.950000 0.364540 0.878798
1.000000 0.355624 0.865491
0.000000 0.558994 0.900000
0.065089 0.568919 0.900000
0.230027 0.554082 0.900000
0.388373 0.537555 0.895327
0.542279 0.523358 0.875164
0.697326 0.513905 0.863271
0.854583 0.506971 0.855841
0.950000 0.499546 0.847492
1.000000 0.492714 0.840198
0.000000 0.697526 0.890867
0.050000 0.682471 0.873032
0.201895 0.672699 0.862140
0.360007 0.665763 0.854999
0.516829 0.657594 0.846200
0.673473 0.650241 0.838479
0.825256 0.639740 0.826493
0.950000 0.629540 0.814868
1.000000 0.618304 0.801784
0.000000 0.823762 0.853074
0.050000 0.815014 0.844188
0.180570 0.806581 0.835632
0.335948 0.795472 0.824241
0.488634 0.783460 0.811886
0.638326 0.771026 0.799077
0.785055 0.758578 0.786242
0.927739 0.745378 0.772599
1.000000 0.732870 0.759680
0.000000 0.949788 0.821061
0.050000 0.936381 0.808614
0.158123 0.922856 0.796084
0.308998 0.908765 0.783087
0.456524 0.893976 0.769510
0.601813 0.880918 0.757451
0.742939 0.866295 0.744068
0.877428 0.853082 0.743212
1.000000 0.842884 0.729182
0.000000 1.000000 0.780125
0.050000 1.000000 0.766781
0.136962 1.000000 0.755222
0.283027 1.000000 0.741294
0.426224 0.996498 0.728938
0.568815 0.986060 0.719884
0.718796 0.988305 0.719909
0.886575 1.000000 0.732087
1.000000 0.995415 0.750819
0.000000 0.000000 0.763789
0.096323 0.000000 0.738659
0.194487 0.000000 0.713835
0.286591 0.000000 0.689344
0.378488 0.000000 0.675888
0.483719 0.000000 0.686139
0.610589 0.000000 0.717391
0.746624 0.000000 0.747408
0.896441 0.000000 0.780462
0.000000 0.082386 0.683988
0.081271 0.079262 0.677021
0.182532 0.078185 0.694273
0.295524 0.077928 0.726746
0.417357 0.076904 0.756055
0.554782 0.075847 0.793724
0.717331 0.074862 0.846187
0.908729 0.073413 0.909865
1.000000 0.071749 0.950000
0.000000 0.184006 0.733003
0.079189 0.187724 0.762462
0.199726 0.193918 0.806090
0.339169 0.202010 0.862510
0.505327 0.212287 0.934712
0.705989 0.224370 0.950000
0.900000 0.229643 0.950000
0.950000 0.230543 0.950000
1.000000 0.221229 0.950000
0.000000 0.333061 0.875195
0.077209 0.359609 0.950000
0.235755 0.382999 0.950000
0.411244 0.396491 0.950000
0.588123 0.398244 0.950000
0.743317 0.385389 0.950000
0.892034 0.372635 0.950000
0.950000 0.361362 0.950000
1.000000 0.353271 0.950000
0.000000 0.566149 0.950000
0.062707 0.565338 0.950000
0.226340 0.547941 0.950000
0.384306 0.532713 0.950000
0.539420 0.520538 0.950000
0.695411 0.511919 0.950000
0.852937 0.505101 0.950000
0.950000 0.497283 0.950000
1.000000 0.490080 0.950000
0.000000 0.691085 0.950000
0.050000 0.678409 0.950000
0.199525 0.669629 0.950000
0.357389 0.662679 0.950000
0.514335 0.654998 0.950000
0.669593 0.646457 0.950000
0.821574 0.636465 0.950000
0.950000 0.625551 0.950000
1.000000 0.614667 0.950000
0.000000 0.819855 0.950000
0.050000 0.812428 0.950000
0.178151 0.802581 0.950000
0.332984 0.791065 0.950000
0.485011 0.778790 0.950000
0.634375 0.766671 0.950000
0.780395 0.754063 0.939221
0.922718 0.741053 0.924073
1.000000 0.729821 0.911191
0.000000 0.945458 0.950000
0.050000 0.931520 0.950000
0.155804 0.918047 0.950000
0.306202 0.903991 0.935986
0.453375 0.889513 0.921007
0.598355 0.876693 0.907774
0.738807 0.861795 0.892329
0.877030 0.848262 0.878320
1.000000 0.840314 0.870225
0.000000 1.000000 0.932471
0.050000 1.000000 0.917632
0.134771 1.000000 0.903985
0.280447 1.000000 0.889211
0.423105 0.991351 0.875143
0.569117 0.988197 0.871722
0.719044 0.989425 0.872176
0.882879 1.000000 0.884229
1.000000 0.992874 0.884489
0.000000 0.000000 0.864404
0.094392 0.000000 0.836156
0.191588 0.000000 0.808226
0.283051 0.000000 0.781578
0.378923 0.000000 0.776833
0.491575 0.000000 0.800780
0.621829 0.000000 0.839304
0.758872 0.000000 0.873051
0.919335 0.000000 0.920361
0.000000 0.081014 0.777641
0.080377 0.078366 0.775722
0.183666 0.077911 0.805853
0.298131 0.077533 0.844458
0.421780 0.076396 0.879735
0.566729 0.075624 0.933906
0.736692 0.074574 1.000000
0.947199 0.073318 1.000000
1.000000 0.070795 1.000000
0.000000 0.184695 0.850216
0.078722 0.188782 0.887498
0.202137 0.196109 0.945995
0.344740 0.204291 1.000000
0.524284 0.218084 1.000000
0.722671 0.227392 1.000000
0.900000 0.231241 1.000000
0.950000 0.227836 1.000000
1.000000 0.217617 1.000000
0.000000 0.337592 1.000000
0.076573 0.367489 1.000000
0.237076 0.386794 1.000000
0.414725 0.399645 1.000000
0.583774 0.394625 1.000000
0.735562 0.380511 1.000000
0.884494 0.368428 1.000000
0.950000 0.358624 1.000000
1.000000 0.350979 1.000000
0.000000 0.570325 1.000000
0.060277 0.559534 1.000000
0.222803 0.542129 1.000000
0.379874 0.527337 1.000000
0.535489 0.516705 1.000000
0.691740 0.508706 1.000000
0.848519 0.501704 1.000000
0.950000 0.494922 1.000000
1.000000 0.486652 1.000000
0.000000 0.685568 1.000000
0.050000 0.674589 1.000000
0.197299 0.667144 1.000000
0.354770 0.659586 1.000000
0.511916 0.652497 1.000000
0.666155 0.643092 1.000000
0.817100 0.632607 1.000000
0.950000 0.621577 1.000000
1.000000 0.610836 1.000000
0.000000 0.817490 1.000000
0.050000 0.809986 1.000000
0.175748 0.798597 1.000000
0.330268 0.787295 1.000000
0.481734 0.774686 1.000000
0.630576 0.762493 1.000000
0.776040 0.749837 1.000000
0.917987 0.736955 1.000000
1.000000 0.725290 1.000000
0.000000 0.941374 1.000000
0.050000 0.927353 1.000000
0.153534 0.913565 1.000000
0.303305 0.898802 1.000000
0.450029 0.884609 1.000000
0.594086 0.871231 1.000000
0.734625 0.857235 1.000000
0.872282 0.843671 1.000000
1.000000 0.841862 1.000000
0.000000 1.000000 1.000000
0.050000 1.000000 1.000000
0.132613 1.000000 1.000000
0.277851 1.000000 1.000000
0.420265 0.986912 1.000000
0.568441 0.988547 1.000000
0.734116 1.000000 1.000000
0.879229 0.999904 1.000000
1.000000 0.988646 1.000000
