_backup/뉴턴_LUT/뉴턴_추구미_100.cube
TITLE "newton_match_v2"
LUT_3D_SIZE 5
0.000000 0.000000 0.000000
0.187982 0.000000 0.000000
0.336777 0.000000 0.000000
0.450693 0.000000 0.000000
0.658407 0.000000 0.000000
0.000000 0.127586 0.000000
0.141452 0.135050 0.000000
0.360922 0.154837 0.000000
0.721065 0.185691 0.000000
1.000000 0.228249 0.000000
0.000000 0.490485 0.000000
0.233071 0.596337 0.000000
0.610740 0.583100 0.000000
0.900561 0.544809 0.000000
1.000000 0.525713 0.000000
0.000000 0.902214 0.000000
0.157023 0.873725 0.000000
0.513172 0.845191 0.000000
0.833094 0.795392 0.000000
1.000000 0.767006 0.000000
0.000000 1.000000 0.000000
0.083538 1.000000 0.000000
0.409934 1.000000 0.000000
0.713914 0.995216 0.000000
1.000000 0.966730 0.000000
0.000000 0.000000 0.214534
0.182685 0.000000 0.183046
0.329138 0.000000 0.153546
0.462343 0.000000 0.134262
0.727851 0.000000 0.147593
0.000000 0.126203 0.133266
0.149132 0.140992 0.149497
0.414753 0.159790 0.170244
0.864972 0.195812 0.209804
1.000000 0.218600 0.235810
0.000000 0.533928 0.216973
0.236245 0.616564 0.237003
0.594879 0.567873 0.264898
0.903071 0.535781 0.224589
1.000000 0.515501 0.195622
0.000000 0.889191 0.171910
0.149226 0.862873 0.149922
0.502276 0.831802 0.127420
0.822389 0.785092 0.214191
1.000000 0.755989 0.184800
0.000000 1.000000 0.099075
0.075968 1.000000 0.076616
0.398034 1.000000 0.055416
0.700293 0.978687 0.035382
1.000000 1.000000 0.176789
0.000000 0.000000 0.415305
0.172403 0.000000 0.363100
0.312368 0.000000 0.312986
0.473468 0.000000 0.304819
0.761405 0.000000 0.355202
0.000000 0.131759 0.316785
0.154800 0.146133 0.367769
0.448344 0.169645 0.449325
0.936993 0.206926 0.580576
1.000000 0.217847 0.652647
0.000000 0.573505 0.605601
0.228670 0.609309 0.644687
0.587072 0.555026 0.588509
0.933818 0.520086 0.552732
1.000000 0.495770 0.528204
0.000000 0.879164 0.546086
0.141865 0.854346 0.522746
0.491677 0.818837 0.493043
0.812893 0.775934 0.512379
1.000000 0.742306 0.468145
0.000000 1.000000 0.453354
0.068647 1.000000 0.420202
0.387504 1.000000 0.388748
0.699481 0.980052 0.365346
1.000000 1.000000 0.466873
0.000000 0.000000 0.601796
0.162390 0.000000 0.528882
0.299334 0.000000 0.463489
0.499047 0.000000 0.500034
0.802990 0.000000 0.588507
0.000000 0.137446 0.525368
0.160735 0.151498 0.614257
0.478641 0.177738 0.769324
0.989963 0.213062 0.992054
1.000000 0.207900 1.000000
0.000000 0.598323 1.000000
0.216711 0.590137 1.000000
0.570465 0.538930 0.958606
0.924306 0.511619 0.926402
1.000000 0.487857 0.900330
0.000000 0.872936 0.921790
0.134283 0.844301 0.892719
0.481056 0.805766 0.853144
0.808424 0.764296 0.810403
1.000000 0.721451 0.766133
0.000000 1.000000 0.800209
0.061604 1.000000 0.758704
0.377040 0.994163 0.714896
0.697994 0.980509 0.699849
1.000000 0.992358 0.751365
0.000000 0.000000 0.774007
0.152646 0.000000 0.680376
0.298205 0.000000 0.628055
0.536382 0.000000 0.732173
0.865558 0.000000 0.867269
0.000000 0.141159 0.750359
0.170228 0.160181 0.909991
0.540473 0.196806 1.000000
1.000000 0.218736 1.000000
1.000000 0.196028 1.000000
0.000000 0.617208 1.000000
0.204672 0.570215 1.000000
0.559148 0.527842 1.000000
0.914198 0.502840 1.000000
1.000000 0.477754 1.000000
0.000000 0.862484 1.000000
0.126247 0.830995 1.000000
0.469556 0.791143 1.000000
0.793401 0.749728 1.000000
1.000000 0.708816 1.000000
0.000000 1.000000 1.000000
0.054355 1.000000 1.000000
0.367108 0.978187 1.000000
0.723527 1.000000 1.000000
1.000000 0.981077 1.000000
