_backup/뉴턴_LUT/뉴턴_룩_유니버설.cube
TITLE "newton_look_universal"
LUT_3D_SIZE 5
0.000000 0.000000 0.000000
0.247956 0.000000 0.000000
0.484208 0.000000 0.000000
0.724078 0.000000 0.000000
0.994567 0.000000 0.000000
0.000000 0.230428 0.000000
0.228369 0.228369 0.000000
0.483249 0.230317 0.000000
0.755196 0.229542 0.000000
1.000000 0.227354 0.000000
0.000000 0.500376 0.000000
0.220661 0.501508 0.000000
0.497955 0.497955 0.000000
0.768958 0.500623 0.000000
1.000000 0.500586 0.000000
0.000000 0.787846 0.000000
0.202287 0.786586 0.000000
0.489332 0.783281 0.000000
0.773091 0.773091 0.000000
1.000000 0.770690 0.000000
0.000000 1.000000 0.000000
0.176959 1.000000 0.000000
0.463182 1.000000 0.000000
0.746413 1.000000 0.000000
1.000000 1.000000 0.000000
0.000000 0.000000 0.261969
0.246147 0.000000 0.246147
0.485466 0.000000 0.234595
0.738324 0.000000 0.230430
1.000000 0.000000 0.229844
0.000000 0.230338 0.230338
0.229376 0.229376 0.229376
0.494381 0.228281 0.228281
0.769619 0.226286 0.226286
1.000000 0.223446 0.223446
0.000000 0.500936 0.223256
0.219186 0.501542 0.219186
0.499054 0.499054 0.234692
0.773798 0.500582 0.227367
1.000000 0.498735 0.218509
0.000000 0.787651 0.206514
0.200008 0.785690 0.200008
0.487306 0.781704 0.192908
0.772486 0.772486 0.227282
1.000000 0.769311 0.219943
0.000000 1.000000 0.182372
0.174103 1.000000 0.174103
0.459832 1.000000 0.165440
0.742102 1.000000 0.156442
1.000000 1.000000 0.209182
0.000000 0.000000 0.517067
0.241784 0.000000 0.495377
0.481585 0.000000 0.481585
0.743387 0.000000 0.486867
1.000000 0.000000 0.493030
0.000000 0.230126 0.489313
0.228820 0.228820 0.494845
0.498687 0.226540 0.498687
0.778458 0.223346 0.500902
1.000000 0.219296 0.501545
0.000000 0.501315 0.501315
0.217621 0.501401 0.501401
0.500000 0.500000 0.500000
0.784246 0.498095 0.498095
1.000000 0.494833 0.494833
0.000000 0.787216 0.495795
0.197660 0.784560 0.491110
0.485137 0.779902 0.485137
0.771663 0.771663 0.498947
1.000000 0.767151 0.488571
0.000000 1.000000 0.475017
0.171203 1.000000 0.466234
0.456360 1.000000 0.456360
0.737595 1.000000 0.445458
1.000000 1.000000 0.474795
0.000000 0.000000 0.766744
0.237884 0.000000 0.741865
0.481831 0.000000 0.733271
0.748168 0.000000 0.748168
1.000000 0.000000 0.760593
0.000000 0.229796 0.752975
0.228152 0.228152 0.764518
0.499620 0.225555 0.773684
0.780523 0.222063 0.780523
1.000000 0.217736 0.785099
0.000000 0.501514 0.782447
0.215965 0.501090 0.786214
0.499196 0.499196 0.787796
0.787255 0.495893 0.787255
1.000000 0.491240 0.784649
0.000000 0.786542 0.786542
0.195247 0.783200 0.783200
0.482825 0.777874 0.777874
0.770624 0.770624 0.770624
1.000000 0.762450 0.762450
0.000000 1.000000 0.767519
0.168259 1.000000 0.757740
0.452770 1.000000 0.746179
0.732894 1.000000 0.732894
1.000000 1.000000 0.738475
0.000000 0.000000 1.000000
0.234413 0.000000 0.986862
0.484521 0.000000 0.992707
0.752659 0.000000 1.000000
1.000000 0.000000 1.000000
0.000000 0.229347 1.000000
0.227374 0.227374 1.000000
0.500365 0.224466 1.000000
0.782328 0.220684 1.000000
1.000000 0.216088 1.000000
0.000000 0.501539 1.000000
0.214223 0.500608 1.000000
0.498229 0.498229 1.000000
0.786599 0.494461 1.000000
1.000000 0.489364 1.000000
0.000000 0.785633 1.000000
0.192769 0.781610 1.000000
0.480374 0.775624 1.000000
0.767735 0.767735 1.000000
1.000000 0.758001 1.000000
0.000000 1.000000 1.000000
0.165274 1.000000 1.000000
0.449064 1.000000 1.000000
0.728000 1.000000 1.000000
1.000000 1.000000 1.000000
