_backup/뉴턴_LUT/뉴턴_팝_A.cube
TITLE "newton_pop_A"
LUT_3D_SIZE 5
0.000000 0.000000 0.000000
0.209412 0.000000 0.000000
0.401967 0.000000 0.000000
0.599732 0.000000 0.000000
0.841599 0.000000 0.000000
0.000000 0.203844 0.000000
0.213973 0.213973 0.000000
0.446232 0.223116 0.000000
0.693807 0.231269 0.000000
0.953736 0.238434 0.000000
0.000000 0.467984 0.000000
0.240797 0.481594 0.000000
0.493227 0.493227 0.000000
0.754323 0.502882 0.000000
1.000000 0.510560 0.000000
0.000000 0.758859 0.000000
0.256432 0.769296 0.000000
0.517845 0.776768 0.000000
0.781271 0.781271 0.000000
1.000000 0.782812 0.000000
0.000000 1.000000 0.000000
0.260878 1.000000 0.000000
0.520084 1.000000 0.000000
0.772629 1.000000 0.000000
1.000000 1.000000 0.000000
0.000000 0.000000 0.218126
0.205931 0.000000 0.205931
0.398655 0.000000 0.199328
0.610750 0.000000 0.203583
0.854949 0.000000 0.213737
0.000000 0.207394 0.207394
0.217189 0.217189 0.217189
0.479214 0.218645 0.218645
0.738992 0.223674 0.223674
1.000000 0.228902 0.228902
0.000000 0.472828 0.236414
0.212484 0.497872 0.212484
0.497845 0.497845 0.234002
0.771903 0.503533 0.235163
1.000000 0.507502 0.236366
0.000000 0.762736 0.254245
0.214436 0.789271 0.214436
0.499616 0.789439 0.209793
0.783692 0.783692 0.240609
1.000000 0.782016 0.241436
0.000000 1.000000 0.260888
0.211760 1.000000 0.211760
0.488224 1.000000 0.205981
0.756170 1.000000 0.198665
1.000000 1.000000 0.230942
0.000000 0.000000 0.426657
0.203093 0.000000 0.406185
0.396474 0.000000 0.396474
0.621425 0.000000 0.414283
0.867848 0.000000 0.433924
0.000000 0.210831 0.421663
0.217508 0.217508 0.476349
0.486153 0.217359 0.486153
0.750145 0.222534 0.486339
1.000000 0.227656 0.491632
0.000000 0.477444 0.477444
0.211115 0.498820 0.498820
0.500000 0.500000 0.500000
0.803289 0.497291 0.497291
1.000000 0.497909 0.497909
0.000000 0.766272 0.510848
0.212962 0.789678 0.501320
0.476703 0.797432 0.476703
0.784205 0.784205 0.501646
1.000000 0.778795 0.494078
0.000000 1.000000 0.521873
0.209882 1.000000 0.493087
0.452616 1.000000 0.452616
0.736642 1.000000 0.436880
1.000000 1.000000 0.474514
0.000000 0.000000 0.627616
0.200876 0.000000 0.602629
0.400229 0.000000 0.600344
0.631766 0.000000 0.631766
0.880280 0.000000 0.660210
0.000000 0.214155 0.642466
0.219516 0.219516 0.718169
0.480186 0.221775 0.738598
0.755488 0.222706 0.755488
1.000000 0.227968 0.760228
0.000000 0.481831 0.722746
0.221971 0.497468 0.772964
0.498807 0.498807 0.809018
0.808639 0.493717 0.808639
1.000000 0.493876 0.797231
0.000000 0.769464 0.769464
0.211382 0.789726 0.789726
0.473035 0.794248 0.794248
0.782811 0.782811 0.782811
1.000000 0.768622 0.768622
0.000000 1.000000 0.782615
0.207916 1.000000 0.773453
0.447246 1.000000 0.749780
0.714144 1.000000 0.714144
1.000000 1.000000 0.730802
0.000000 0.000000 0.823017
0.199252 0.000000 0.797008
0.407569 0.000000 0.815137
0.641754 0.000000 0.855673
0.892269 0.000000 0.892269
0.000000 0.217362 0.869450
0.221866 0.221866 0.959687
0.479586 0.225164 0.988428
0.750897 0.227241 1.000000
1.000000 0.228149 1.000000
0.000000 0.485991 0.971982
0.228200 0.498397 1.000000
0.499470 0.499470 1.000000
0.798099 0.496811 1.000000
1.000000 0.492014 1.000000
0.000000 0.772315 1.000000
0.222166 0.786740 1.000000
0.482222 0.788570 1.000000
0.777696 0.777696 1.000000
1.000000 0.760707 1.000000
0.000000 1.000000 1.000000
0.205865 1.000000 1.000000
0.441892 1.000000 1.000000
0.706189 1.000000 1.000000
1.000000 1.000000 1.000000
