_backup/뉴턴_LUT/뉴턴_팝_C.cube
TITLE "newton_pop_C"
LUT_3D_SIZE 9
0.000000 0.000000 0.040000
0.062269 0.000000 0.038290
0.155283 0.000000 0.036734
0.242242 0.000000 0.035280
0.326076 0.000000 0.033878
0.409456 0.000000 0.032483
0.504436 0.000000 0.030895
0.622475 0.000000 0.028921
0.746872 0.000000 0.026841
0.000000 0.086265 0.034765
0.055931 0.084297 0.033371
0.144074 0.083226 0.031969
0.241722 0.086109 0.030189
0.349454 0.090181 0.028176
0.463954 0.094094 0.026058
0.584674 0.097843 0.023847
0.711074 0.101428 0.021551
0.842618 0.104848 0.019179
0.000000 0.179643 0.029468
0.068321 0.187363 0.027416
0.173269 0.194743 0.025264
0.284838 0.201786 0.023021
0.402492 0.208490 0.020696
0.525689 0.214850 0.018298
0.653889 0.220866 0.015836
0.786554 0.226537 0.013320
0.923151 0.231863 0.010757
0.000000 0.308065 0.022183
0.087078 0.317754 0.019830
0.202281 0.326924 0.017408
0.322889 0.335576 0.014926
0.448360 0.343705 0.012392
0.578156 0.351310 0.009815
0.711739 0.358391 0.007205
0.848571 0.364946 0.004570
0.988113 0.370974 0.001919
0.000000 0.452161 0.014009
0.104626 0.462618 0.011458
0.227985 0.472376 0.008868
0.355528 0.481431 0.006247
0.486718 0.489783 0.003606
0.621014 0.497431 0.000952
0.757880 0.504373 0.000000
0.896776 0.510608 0.000000
1.000000 0.516134 0.000000
0.000000 0.605889 0.005288
0.120620 0.615910 0.002641
0.250034 0.625049 0.000000
0.382414 0.633306 0.000000
0.517222 0.640678 0.000000
0.653920 0.647165 0.000000
0.791967 0.652764 0.000000
0.930827 0.657476 0.000000
1.000000 0.661299 0.000000
0.003636 0.763201 0.000000
0.134717 0.771582 0.000000
0.268086 0.778900 0.000000
0.403203 0.785156 0.000000
0.539530 0.790345 0.000000
0.676527 0.794467 0.000000
0.813657 0.797521 0.000000
0.950382 0.799507 0.000000
1.000000 0.800424 0.000000
0.012420 0.918051 0.000000
0.146575 0.923589 0.000000
0.281799 0.927885 0.000000
0.417553 0.930934 0.000000
0.553298 0.932736 0.000000
0.688495 0.933291 0.000000
0.822609 0.932598 0.000000
0.955100 0.930656 0.000000
1.000000 0.927458 0.000000
0.020722 1.000000 0.000000
0.155850 1.000000 0.000000
0.290829 1.000000 0.000000
0.425119 1.000000 0.000000
0.558183 1.000000 0.000000
0.689451 1.000000 0.000000
0.815315 1.000000 0.000000
0.938223 1.000000 0.000000
1.000000 1.000000 0.000000
0.000000 0.000000 0.143519
0.061154 0.000000 0.136647
0.153185 0.000000 0.130939
0.239833 0.000000 0.126345
0.323975 0.000000 0.122751
0.408208 0.000000 0.120047
0.513013 0.000000 0.120779
0.632002 0.000000 0.122544
0.757224 0.000000 0.124028
0.000000 0.085493 0.124927
0.055872 0.083835 0.121669
0.161190 0.078958 0.115129
0.269146 0.081342 0.115287
0.381867 0.084308 0.115896
0.500167 0.087398 0.116513
0.624018 0.090478 0.117017
0.753077 0.093488 0.117355
0.886913 0.096397 0.117508
0.000000 0.182300 0.122092
0.051190 0.197501 0.104583
0.176913 0.197748 0.117573
0.296686 0.202832 0.115651
0.422507 0.207459 0.114355
0.551780 0.212199 0.114144
0.684595 0.216951 0.114091
0.820898 0.221598 0.113943
0.960431 0.226064 0.113630
0.000000 0.311413 0.126267
0.060608 0.332198 0.098639
0.191971 0.337174 0.093999
0.327297 0.339258 0.116474
0.457769 0.345966 0.116024
0.593565 0.352036 0.113187
0.732538 0.357605 0.111332
0.873807 0.362822 0.109991
1.000000 0.367692 0.108818
0.000000 0.455792 0.127588
0.071829 0.479744 0.092994
0.208124 0.486046 0.088518
0.348990 0.491504 0.083766
0.491214 0.493514 0.112368
0.629008 0.499884 0.112442
0.770077 0.505614 0.109246
0.913184 0.510552 0.106343
1.000000 0.514822 0.103926
0.000000 0.609391 0.126400
0.083153 0.634635 0.086632
0.223405 0.640750 0.082196
0.366819 0.645889 0.077571
0.512809 0.650062 0.072778
0.657858 0.650349 0.105532
0.798428 0.654727 0.105630
0.940181 0.658383 0.102472
1.000000 0.661075 0.099068
0.004535 0.766167 0.123046
0.093784 0.791007 0.079444
0.236456 0.795574 0.075036
0.380943 0.799018 0.070508
0.526670 0.801349 0.065877
0.673060 0.802575 0.061165
0.816406 0.799577 0.096557
0.954882 0.800369 0.096481
1.000000 0.800300 0.093480
0.013286 0.920073 0.117868
0.103185 0.942887 0.071578
0.246498 0.944615 0.067237
0.390317 0.945064 0.062831
0.534073 0.944242 0.058380
0.677190 0.942151 0.053900
0.819101 0.938803 0.049409
0.956027 0.931001 0.086125
1.000000 0.926625 0.085832
0.021520 1.000000 0.111208
0.110917 1.000000 0.063281
0.252971 1.000000 0.059068
0.394247 1.000000 0.054840
0.534173 1.000000 0.050616
0.671369 1.000000 0.046404
0.803655 1.000000 0.042232
0.933215 1.000000 0.038141
1.000000 1.000000 0.074679
0.000000 0.000000 0.243284
0.060131 0.000000 0.231921
0.151306 0.000000 0.222782
0.237756 0.000000 0.215712
0.322289 0.000000 0.210543
0.408712 0.000000 0.207579
0.521505 0.000000 0.213257
0.641392 0.000000 0.218637
0.767413 0.000000 0.223568
0.000000 0.084828 0.213619
0.054162 0.081721 0.231639
0.165547 0.077766 0.227172
0.276501 0.080392 0.223859
0.391230 0.083400 0.224349
0.511115 0.086474 0.226106
0.636258 0.089510 0.228292
0.766406 0.092463 0.230553
0.901148 0.095308 0.232714
0.000000 0.184922 0.217221
0.050934 0.198149 0.228009
0.179378 0.199565 0.226877
0.318985 0.199345 0.224013
0.452546 0.201991 0.223927
0.586571 0.205599 0.224726
0.722876 0.209533 0.225785
0.861928 0.213519 0.226841
1.000000 0.217420 0.227765
0.000000 0.314700 0.232453
0.060724 0.333973 0.226002
0.178447 0.344527 0.209904
0.330796 0.342025 0.230783
0.469848 0.346783 0.226911
0.614458 0.350419 0.224233
0.759504 0.354190 0.223780
0.905103 0.358065 0.223904
1.000000 0.361878 0.224073
0.000000 0.459340 0.242872
0.072101 0.481981 0.225384
0.185572 0.497386 0.199754
0.339865 0.499154 0.193274
0.494934 0.496467 0.231305
0.637457 0.501565 0.230250
0.784777 0.505576 0.225323
0.933291 0.508831 0.222271
1.000000 0.511658 0.220317
0.000000 0.612792 0.248817
0.083473 0.636822 0.223307
0.194490 0.654455 0.190851
0.349002 0.656419 0.184453
0.506220 0.657344 0.177681
0.661104 0.652844 0.227259
0.804711 0.656091 0.227445
0.950579 0.658468 0.222155
1.000000 0.659749 0.217449
0.005432 0.769009 0.250633
0.094082 0.792684 0.219052
0.202888 0.810474 0.181567
0.356782 0.811072 0.175157
0.511930 0.810515 0.168480
0.667717 0.808821 0.161564
0.818523 0.801007 0.218752
0.958996 0.800703 0.219132
1.000000 0.799562 0.213999
0.014146 0.921949 0.248661
0.103405 0.943620 0.212506
0.209575 0.959732 0.171398
0.361476 0.957559 0.164968
0.513245 0.954095 0.158354
0.664277 0.949356 0.151584
0.813965 0.943354 0.144682
0.956369 0.930771 0.206253
1.000000 0.924347 0.206115
0.022309 1.000000 0.243245
0.111011 1.000000 0.203783
0.213786 1.000000 0.160265
0.362047 1.000000 0.153848
0.508831 1.000000 0.147317
0.651798 1.000000 0.140445
0.790770 1.000000 0.133473
0.926986 1.000000 0.126630
1.000000 1.000000 0.189244
0.000000 0.000000 0.339672
0.059228 0.000000 0.324508
0.149648 0.000000 0.312605
0.235998 0.000000 0.303702
0.321007 0.000000 0.297555
0.415616 0.000000 0.298744
0.529880 0.000000 0.308264
0.650672 0.000000 0.317146
0.777454 0.000000 0.325399
0.000000 0.084269 0.301157
0.053733 0.080884 0.325899
0.161962 0.080251 0.329607
0.280067 0.080390 0.336341
0.396160 0.083618 0.336643
0.517156 0.086807 0.339474
0.643221 0.089904 0.343277
0.774119 0.092886 0.347388
0.909468 0.095740 0.351485
0.000000 0.187505 0.314794
0.058455 0.197437 0.343985
0.179665 0.199197 0.365952
0.324672 0.197558 0.365975
0.462135 0.200077 0.359853
0.598833 0.203533 0.357931
0.737120 0.207305 0.357842
0.877699 0.211127 0.358577
1.000000 0.214865 0.359637
0.000000 0.317932 0.340686
0.060807 0.335659 0.355626
0.177906 0.344515 0.361626
0.333361 0.343853 0.358048
0.493674 0.342569 0.353800
0.645784 0.344042 0.352271
0.795133 0.346659 0.351857
0.943748 0.349724 0.351874
1.000000 0.352891 0.351985
0.000000 0.462808 0.359799
0.072347 0.484118 0.359501
0.185217 0.498095 0.351418
0.328119 0.504338 0.335232
0.497866 0.498633 0.360493
0.649044 0.501720 0.353871
0.805435 0.503015 0.348610
0.959809 0.504333 0.346405
1.000000 0.505764 0.345142
0.000000 0.616090 0.372478
0.083770 0.638896 0.361231
0.194164 0.655240 0.343185
0.328949 0.664868 0.318214
0.497441 0.662502 0.309592
0.663653 0.654646 0.357241
0.811593 0.656697 0.354146
0.963683 0.657215 0.346043
1.000000 0.656692 0.340453
0.006327 0.771730 0.379063
0.094357 0.794231 0.359456
0.202493 0.810808 0.333952
0.330722 0.821304 0.302552
0.495311 0.817833 0.293830
0.660500 0.813202 0.284688
0.820001 0.801806 0.347557
0.962991 0.800468 0.346088
1.000000 0.797998 0.337584
0.015001 0.923681 0.379897
0.103603 0.944201 0.353790
0.209043 0.959142 0.322640
0.331042 0.968412 0.286536
0.490826 0.962295 0.277673
0.649759 0.954897 0.268502
0.807203 0.946245 0.259059
0.956126 0.929967 0.331553
1.000000 0.921260 0.329588
0.023089 1.000000 0.375324
0.111083 1.000000 0.344214
0.213060 1.000000 0.308881
0.328543 1.000000 0.269485
0.482137 1.000000 0.260479
0.631027 1.000000 0.250492
0.776683 1.000000 0.240571
0.919564 1.000000 0.230853
1.000000 1.000000 0.307763
0.000000 0.000000 0.432941
0.058438 0.000000 0.414770
0.148216 0.000000 0.400753
0.234558 0.000000 0.390630
0.320128 0.000000 0.384083
0.422874 0.000000 0.392660
0.538134 0.000000 0.405735
0.659809 0.000000 0.418002
0.787351 0.000000 0.429465
0.000000 0.083812 0.387846
0.054118 0.080824 0.417812
0.161762 0.082158 0.430045
0.277598 0.083156 0.441333
0.400991 0.083796 0.451544
0.523075 0.087104 0.455255
0.650043 0.090266 0.460510
0.781683 0.093280 0.466323
0.917622 0.096147 0.472210
0.000000 0.190046 0.414746
0.063144 0.198251 0.455005
0.181241 0.200108 0.490271
0.319733 0.200314 0.495710
0.465096 0.199841 0.499942
0.602944 0.203564 0.495465
0.742093 0.207481 0.494327
0.883314 0.211379 0.494799
1.000000 0.215147 0.496021
0.000000 0.321102 0.450900
0.069225 0.335467 0.480569
0.186236 0.342933 0.503838
0.333282 0.343034 0.520177
0.499707 0.339998 0.517472
0.656430 0.341009 0.508583
0.808989 0.343236 0.503677
0.959944 0.345956 0.500771
1.000000 0.348809 0.498878
0.000000 0.466197 0.478311
0.072567 0.486157 0.495279
0.184805 0.498691 0.504790
0.327064 0.503414 0.506468
0.500000 0.500000 0.500000
0.673265 0.496497 0.493443
0.836719 0.495497 0.489399
0.994804 0.495652 0.486531
1.000000 0.496289 0.484175
0.000000 0.619287 0.497322
0.084045 0.640856 0.500335
0.193790 0.655903 0.496675
0.327877 0.664186 0.486168
0.486456 0.665513 0.468690
0.665500 0.655748 0.495476
0.821919 0.655735 0.485343
0.983009 0.653338 0.476522
1.000000 0.650789 0.471291
0.007219 0.774328 0.508277
0.094611 0.795649 0.500588
0.202056 0.811007 0.486992
0.329519 0.820256 0.467451
0.476812 0.823291 0.441967
0.651407 0.815709 0.430548
0.820845 0.801978 0.482925
0.967672 0.799494 0.476597
1.000000 0.795078 0.464426
0.015850 0.925272 0.511518
0.103778 0.944635 0.495366
0.208471 0.958397 0.474064
0.329631 0.966481 0.447670
0.466828 0.968840 0.416275
0.633650 0.958783 0.404570
0.798822 0.947480 0.392429
0.955256 0.928549 0.461924
1.000000 0.917757 0.455795
0.023860 1.000000 0.507387
0.111130 1.000000 0.484506
0.212295 1.000000 0.457225
0.326859 1.000000 0.425673
0.453607 1.000000 0.389581
0.609081 1.000000 0.376377
0.761418 1.000000 0.363369
0.910973 1.000000 0.350671
1.000000 1.000000 0.430234
0.000000 0.000000 0.523532
0.057747 0.000000 0.503004
0.147001 0.000000 0.487546
0.233429 0.000000 0.476798
0.320915 0.000000 0.471935
0.430057 0.000000 0.489115
0.546287 0.000000 0.505619
0.668806 0.000000 0.521142
0.797086 0.000000 0.535699
0.000000 0.083458 0.473986
0.055845 0.082005 0.514614
0.162897 0.083823 0.531135
0.277812 0.085316 0.546426
0.400003 0.086494 0.560503
0.528883 0.087368 0.573389
0.656726 0.090596 0.579923
0.789089 0.093646 0.587286
0.925601 0.096527 0.594822
0.000000 0.192549 0.517019
0.066695 0.199651 0.565328
0.183310 0.201505 0.609897
0.318252 0.202776 0.619610
0.459664 0.203443 0.627996
0.606918 0.203529 0.635089
0.746912 0.207598 0.632704
0.888760 0.211576 0.632738
1.000000 0.215380 0.633962
0.000000 0.324210 0.563033
0.074968 0.336472 0.602681
0.192234 0.343022 0.637360
0.334491 0.343499 0.666603
0.493967 0.342268 0.668454
0.658258 0.340226 0.668993
0.811657 0.342707 0.660011
0.963168 0.345567 0.654470
1.000000 0.348487 0.650776
0.000000 0.469503 0.598343
0.080792 0.486234 0.627484
0.195387 0.496809 0.650714
0.334703 0.500934 0.667692
0.499129 0.498362 0.678122
0.678875 0.492876 0.671762
0.847357 0.491122 0.659478
1.000000 0.490661 0.650801
1.000000 0.490771 0.644095
0.000000 0.622382 0.623288
0.084297 0.642704 0.640554
0.193369 0.656446 0.651248
0.326732 0.663378 0.655150
0.484509 0.663322 0.652091
0.666639 0.656147 0.641952
0.845368 0.649201 0.632090
1.000000 0.644436 0.624469
1.000000 0.640732 0.617978
0.008109 0.776803 0.638213
0.094844 0.796938 0.642383
0.201578 0.811073 0.640616
0.328254 0.819073 0.632835
0.474661 0.820845 0.619006
0.640437 0.816336 0.599134
0.821054 0.801523 0.624802
0.975950 0.796944 0.610371
1.000000 0.789507 0.597094
0.016693 0.926719 0.643461
0.103932 0.944924 0.637168
0.207860 0.957506 0.625602
0.328161 0.964397 0.608786
0.464387 0.965566 0.586783
0.615960 0.961014 0.559687
0.788834 0.947068 0.544666
0.952757 0.925578 0.596700
1.000000 0.913677 0.584047
0.024621 1.000000 0.639374
0.111154 1.000000 0.624597
0.211492 1.000000 0.605228
0.325121 1.000000 0.581367
0.450148 1.000000 0.551820
0.585983 1.000000 0.517934
0.744998 1.000000 0.501721
0.901238 1.000000 0.485962
1.000000 1.000000 0.556667
0.000000 0.000000 0.611844
0.057168 0.000000 0.589594
0.145998 0.000000 0.573296
0.232604 0.000000 0.562500
0.326647 0.000000 0.567029
0.437141 0.000000 0.588028
0.554334 0.000000 0.607854
0.677686 0.000000 0.626521
0.806662 0.000000 0.644038
0.000000 0.083203 0.559857
0.057664 0.083262 0.613422
0.164690 0.085360 0.633738
0.279341 0.087164 0.652682
0.401045 0.088683 0.670277
0.529219 0.089925 0.686530
0.663284 0.090897 0.701460
0.796338 0.093984 0.710214
0.933404 0.096881 0.719255
0.000000 0.195016 0.621561
0.069672 0.201327 0.676346
0.185610 0.203126 0.728143
0.318468 0.205071 0.741500
0.457493 0.206461 0.753392
0.602069 0.207317 0.763849
0.751581 0.207657 0.772902
0.894036 0.211719 0.772322
1.000000 0.215562 0.773389
0.000000 0.327260 0.677032
0.079366 0.338045 0.724211
0.197048 0.343916 0.767306
0.336317 0.344577 0.805883
0.491333 0.344495 0.811302
0.650834 0.343659 0.815262
0.814167 0.342097 0.817806
0.966215 0.345102 0.809439
1.000000 0.348093 0.803773
0.000000 0.472728 0.719836
0.086795 0.487215 0.757749
0.203140 0.496398 0.790707
0.340630 0.500039 0.818387
0.499478 0.497944 0.840508
0.672226 0.494134 0.837620
0.847550 0.489425 0.833367
1.000000 0.489180 0.819515
1.000000 0.489404 0.808920
0.000115 0.625376 0.750315
0.092007 0.642633 0.777691
0.204329 0.654213 0.799480
0.337221 0.659937 0.815463
0.490675 0.659665 0.825461
0.664525 0.653297 0.829338
0.849815 0.644219 0.818358
1.000000 0.638467 0.801847
1.000000 0.633956 0.788519
0.008995 0.779155 0.768810
0.095054 0.798096 0.784774
0.201058 0.811005 0.794753
0.326927 0.817757 0.798630
0.472425 0.818267 0.796331
0.637170 0.812493 0.787825
0.820623 0.800435 0.773123
0.997441 0.788790 0.758930
1.000000 0.778969 0.746671
0.017528 0.928021 0.775664
0.104063 0.945064 0.779131
0.207211 0.956467 0.777184
0.326636 0.962168 0.769813
0.461871 0.962146 0.757048
0.612318 0.956412 0.738953
0.777249 0.945013 0.715625
0.949407 0.921786 0.735888
1.000000 0.908204 0.714196
0.025371 1.000000 0.771221
0.111156 1.000000 0.764425
0.210652 1.000000 0.752824
0.323300 1.000000 0.736436
0.446686 1.000000 0.712963
0.581432 1.000000 0.685811
0.727445 1.000000 0.655491
0.890382 1.000000 0.636617
1.000000 1.000000 0.687083
0.000000 0.000000 0.698176
0.056698 0.000000 0.674866
0.145207 0.000000 0.658315
0.232081 0.000000 0.648025
0.332590 0.000000 0.664983
0.444127 0.000000 0.689335
0.562260 0.000000 0.712369
0.686430 0.000000 0.734066
0.816099 0.000000 0.754438
0.000000 0.083507 0.648890
0.059505 0.084531 0.714287
0.166848 0.086817 0.738181
0.281609 0.088829 0.760541
0.403218 0.090574 0.781385
0.531112 0.092063 0.800748
0.664710 0.093301 0.818629
0.803442 0.094295 0.835049
0.941034 0.097210 0.845447
0.000000 0.197441 0.728297
0.072317 0.203145 0.788613
0.188032 0.204862 0.846410
0.319634 0.207254 0.862986
0.457152 0.209130 0.877960
0.599980 0.210503 0.891350
0.747512 0.211391 0.903183
0.899145 0.211809 0.913485
1.000000 0.215694 0.914233
0.000000 0.330250 0.792831
0.082990 0.339921 0.846097
0.201171 0.345244 0.895834
0.338471 0.345979 0.941650
0.490440 0.346670 0.950020
0.646624 0.346648 0.956779
0.806385 0.345936 0.961962
0.969086 0.344562 0.965607
1.000000 0.347628 0.957799
0.000000 0.475874 0.842732
0.091519 0.488680 0.887417
0.209259 0.496792 0.927765
0.345554 0.500014 0.963466
0.500490 0.498190 0.994246
0.668280 0.495511 0.994014
0.838393 0.491973 0.992249
1.000000 0.487608 0.988992
1.000000 0.487949 0.974332
0.001017 0.628268 0.878344
0.097896 0.643243 0.913254
0.212627 0.653189 0.943215
0.345234 0.657960 0.968006
0.495614 0.657446 0.987445
0.663531 0.651571 1.000000
0.841945 0.643996 0.992665
1.000000 0.635465 0.982566
1.000000 0.631120 0.963202
0.009878 0.781386 0.900009
0.102116 0.797427 0.924285
0.211604 0.808121 0.943200
0.338179 0.813368 0.956625
0.481544 0.813106 0.964467
0.641271 0.807301 0.966660
0.816803 0.795968 0.963187
0.999998 0.782116 0.946605
1.000000 0.771141 0.924955
0.018357 0.929180 0.908069
0.104172 0.945055 0.921189
0.206523 0.955276 0.928738
0.325056 0.959793 0.930677
0.459281 0.958583 0.926995
0.608583 0.951672 0.917726
0.772168 0.939062 0.902890
0.945605 0.917548 0.879589
1.000000 0.897443 0.857783
0.026111 1.000000 0.902868
0.111133 1.000000 0.903919
0.209775 1.000000 0.899946
0.321016 1.000000 0.889877
0.443231 1.000000 0.873014
0.576915 1.000000 0.852575
0.721941 1.000000 0.828962
0.878427 1.000000 0.802545
1.000000 1.000000 0.821514
0.000000 0.000000 0.782852
0.056333 0.000000 0.759117
0.144623 0.000000 0.742891
0.233012 0.000000 0.736606
0.338464 0.000000 0.765402
0.451042 0.000000 0.793012
0.570075 0.000000 0.819107
0.695034 0.000000 0.843711
0.825376 0.000000 0.866821
0.000000 0.084927 0.747043
0.061356 0.085800 0.817297
0.169218 0.088214 0.844582
0.284315 0.090370 0.870169
0.406081 0.092274 0.894079
0.533946 0.093934 0.916330
0.667350 0.095357 0.936949
0.805723 0.096548 0.955947
0.948495 0.097513 0.973336
0.000000 0.199825 0.837165
0.074749 0.205035 0.902370
0.190517 0.206653 0.965350
0.321377 0.209355 0.984854
0.457929 0.211566 1.000000
0.599579 0.213300 1.000000
0.745732 0.214570 1.000000
0.895789 0.215391 1.000000
1.000000 0.215777 1.000000
0.000000 0.333179 0.910367
0.086125 0.341962 0.968766
0.204849 0.346824 1.000000
0.340809 0.347563 1.000000
0.490606 0.348791 1.000000
0.644384 0.349337 1.000000
0.801518 0.349221 1.000000
0.961384 0.348467 1.000000
1.000000 0.347095 1.000000
0.000000 0.478938 0.966966
0.095438 0.490417 1.000000
0.214343 0.497660 1.000000
0.349829 0.500505 1.000000
0.501886 0.498820 1.000000
0.665987 0.496933 1.000000
0.832188 0.494216 1.000000
0.999837 0.490698 1.000000
1.000000 0.486408 1.000000
0.001919 0.631057 1.000000
0.102639 0.644240 1.000000
0.219245 0.652882 1.000000
0.351676 0.656860 1.000000
0.499756 0.656088 1.000000
0.663194 0.650507 1.000000
0.836400 0.643991 1.000000
1.000000 0.636537 1.000000
1.000000 0.628186 1.000000
0.010757 0.783492 1.000000
0.107680 0.797268 1.000000
0.219801 0.806206 1.000000
0.346892 0.810232 1.000000
0.488610 0.809297 1.000000
0.644500 0.803386 1.000000
0.813985 0.792510 1.000000
0.990518 0.779969 1.000000
1.000000 0.766433 1.000000
0.019179 0.930198 1.000000
0.110512 0.943334 1.000000
0.216256 0.951354 1.000000
0.336017 0.954222 1.000000
0.469285 0.951933 1.000000
0.615433 0.944508 1.000000
0.772744 0.930876 1.000000
0.938548 0.910061 1.000000
1.000000 0.888244 1.000000
0.026840 1.000000 1.000000
0.111088 1.000000 1.000000
0.208859 1.000000 1.000000
0.318640 1.000000 1.000000
0.439790 1.000000 1.000000
0.572442 1.000000 1.000000
0.716522 1.000000 1.000000
0.872214 1.000000 0.981840
1.000000 1.000000 0.960000
