_backup/뉴턴_LUT/뉴턴_팝_C.cube
TITLE "newton_pop_C"
LUT_3D_SIZE 33
0.000000 0.000000 0.040000
0.000000 0.000000 0.039555
0.012485 0.000000 0.039122
0.037707 0.000000 0.038700
0.062269 0.000000 0.038290
0.086256 0.000000 0.037888
0.109734 0.000000 0.037496
0.132726 0.000000 0.037111
0.155283 0.000000 0.036734
0.177475 0.000000 0.036363
0.199339 0.000000 0.035997
0.220905 0.000000 0.035637
0.242242 0.000000 0.035280
0.263389 0.000000 0.034926
0.284375 0.000000 0.034575
0.305258 0.000000 0.034226
0.326076 0.000000 0.033878
0.346864 0.000000 0.033530
0.367667 0.000000 0.033182
0.388518 0.000000 0.032834
0.409456 0.000000 0.032483
0.430523 0.000000 0.032131
0.451744 0.000000 0.031776
0.476003 0.000000 0.031370
0.504436 0.000000 0.030895
0.533320 0.000000 0.030412
0.562613 0.000000 0.029922
0.592345 0.000000 0.029425
0.622475 0.000000 0.028921
0.652991 0.000000 0.028411
0.683908 0.000000 0.027894
0.715210 0.000000 0.027370
0.746872 0.000000 0.026841
0.000000 0.019561 0.038550
0.000000 0.019302 0.038143
0.011702 0.019062 0.037744
0.035951 0.018832 0.037355
0.059687 0.018619 0.036973
0.082965 0.018423 0.036598
0.105825 0.018241 0.036229
0.128313 0.018074 0.035866
0.150488 0.017923 0.035506
0.172389 0.017787 0.035151
0.194054 0.017665 0.034798
0.215537 0.017559 0.034448
0.236879 0.017467 0.034099
0.258117 0.017389 0.033751
0.279296 0.017325 0.033404
0.300453 0.017275 0.033055
0.321629 0.017240 0.032706
0.342862 0.017218 0.032355
0.364183 0.017210 0.032002
0.385632 0.017215 0.031646
0.411783 0.017469 0.031198
0.439564 0.017786 0.030720
0.467775 0.018101 0.030235
0.496438 0.018416 0.029742
0.525510 0.018728 0.029242
0.554983 0.019038 0.028736
0.584879 0.019347 0.028223
0.615166 0.019654 0.027704
0.645829 0.019959 0.027178
0.676880 0.020262 0.026646
0.708306 0.020564 0.026108
0.740083 0.020864 0.025565
0.772214 0.021161 0.025015
0.000000 0.043087 0.037215
0.000000 0.042619 0.036835
0.011185 0.042179 0.036463
0.034682 0.041771 0.036096
0.057778 0.041396 0.035734
0.080517 0.041051 0.035376
0.102943 0.040735 0.035022
0.125108 0.040450 0.034670
0.147053 0.040195 0.034321
0.168819 0.039969 0.033972
0.190452 0.039771 0.033625
0.211990 0.039602 0.033277
0.233475 0.039461 0.032928
0.254947 0.039348 0.032579
0.276440 0.039261 0.032227
0.297996 0.039201 0.031873
0.320707 0.039301 0.031491
0.347029 0.039823 0.031025
0.374148 0.040384 0.030544
0.401721 0.040942 0.030056
0.429720 0.041494 0.029561
0.458138 0.042041 0.029059
0.486995 0.042585 0.028550
0.516252 0.043124 0.028035
0.545901 0.043657 0.027513
0.575960 0.044188 0.026985
0.606400 0.044713 0.026451
0.637207 0.045233 0.025911
0.668389 0.045749 0.025365
0.699935 0.046261 0.024814
0.731824 0.046767 0.024256
0.764055 0.047268 0.023694
0.796632 0.047766 0.023126
0.000000 0.065146 0.035964
0.000000 0.064570 0.035603
0.010972 0.064041 0.035247
0.033900 0.063560 0.034894
0.056528 0.063122 0.034543
0.078902 0.062728 0.034194
0.101066 0.062379 0.033846
0.123062 0.062072 0.033498
0.144932 0.061808 0.033150
0.166716 0.061585 0.032801
0.188452 0.061403 0.032451
0.210184 0.061262 0.032098
0.231945 0.061161 0.031743
0.255731 0.061545 0.031327
0.281739 0.062356 0.030851
0.308208 0.063160 0.030367
0.335119 0.063955 0.029876
0.362472 0.064743 0.029379
0.390269 0.065526 0.028874
0.418482 0.066300 0.028363
0.447104 0.067066 0.027846
0.476152 0.067826 0.027322
0.505591 0.068579 0.026791
0.535414 0.069323 0.026255
0.565631 0.070061 0.025713
0.596221 0.070791 0.025165
0.627168 0.071514 0.024611
0.658479 0.072229 0.024052
0.690143 0.072937 0.023488
0.722140 0.073637 0.022918
0.754468 0.074330 0.022343
0.787130 0.075015 0.021763
0.820101 0.075693 0.021179
0.000000 0.086265 0.034765
0.000000 0.085685 0.034415
0.011070 0.085165 0.034067
0.033601 0.084703 0.033719
0.055931 0.084297 0.033371
0.078103 0.083947 0.033023
0.100156 0.083652 0.032674
0.122135 0.083413 0.032323
0.144074 0.083226 0.031969
0.166063 0.083114 0.031611
0.190562 0.084013 0.031155
0.215913 0.085067 0.030675
0.241722 0.086109 0.030189
0.267993 0.087142 0.029696
0.294714 0.088166 0.029196
0.321869 0.089179 0.028689
0.349454 0.090181 0.028176
0.377471 0.091175 0.027655
0.405895 0.092158 0.027129
0.434718 0.093129 0.026597
0.463954 0.094094 0.026058
0.493572 0.095046 0.025514
0.523563 0.095988 0.024964
0.553938 0.096921 0.024408
0.584674 0.097843 0.023847
0.615758 0.098754 0.023281
0.647194 0.099656 0.022709
0.678972 0.100547 0.022133
0.711074 0.101428 0.021551
0.743496 0.102298 0.020965
0.776241 0.103159 0.020374
0.809284 0.104009 0.019778
0.842618 0.104848 0.019179
0.000000 0.106945 0.033592
0.000000 0.106451 0.033245
0.011487 0.106026 0.032896
0.033785 0.105670 0.032546
0.055973 0.105381 0.032194
0.078092 0.105156 0.031840
0.100721 0.105425 0.031450
0.124849 0.106660 0.030981
0.149541 0.107951 0.030499
0.174713 0.109234 0.030010
0.200346 0.110503 0.029515
0.226427 0.111757 0.029012
0.252958 0.113000 0.028503
0.279929 0.114231 0.027987
0.307323 0.115447 0.027465
0.335137 0.116651 0.026936
0.363371 0.117844 0.026401
0.392002 0.119022 0.025861
0.421024 0.120186 0.025315
0.450445 0.121340 0.024762
0.480238 0.122480 0.024205
0.510395 0.123605 0.023642
0.540923 0.124720 0.023073
0.571802 0.125821 0.022500
0.603021 0.126908 0.021922
0.634579 0.127983 0.021338
0.666468 0.129045 0.020750
0.698672 0.130093 0.020158
0.731185 0.131128 0.019561
0.764009 0.132151 0.018959
0.797122 0.133159 0.018354
0.830515 0.134154 0.017745
0.864197 0.135138 0.017131
0.000000 0.127641 0.032418
0.000000 0.127312 0.032066
0.012229 0.127063 0.031710
0.035030 0.127935 0.031283
0.058593 0.129479 0.030806
0.082647 0.131015 0.030322
0.107176 0.132532 0.029831
0.132170 0.134031 0.029333
0.157630 0.135519 0.028827
0.183540 0.136990 0.028316
0.209890 0.138443 0.027798
0.236678 0.139882 0.027273
0.263895 0.141307 0.026742
0.291526 0.142714 0.026205
0.319566 0.144106 0.025663
0.348014 0.145484 0.025114
0.376850 0.146845 0.024560
0.406065 0.148188 0.024001
0.435668 0.149519 0.023435
0.465634 0.150833 0.022865
0.495954 0.152130 0.022290
0.526632 0.153413 0.021710
0.557652 0.154679 0.021125
0.589001 0.155929 0.020535
0.620678 0.157163 0.019941
0.652675 0.158383 0.019342
0.684977 0.159585 0.018739
0.717578 0.160771 0.018133
0.750478 0.161943 0.017522
0.783657 0.163098 0.016907
0.817107 0.164236 0.016289
0.850833 0.165359 0.015667
0.884813 0.166466 0.015041
0.000000 0.150692 0.031111
0.000000 0.152482 0.030631
0.015219 0.154251 0.030144
0.039112 0.155998 0.029650
0.063483 0.157734 0.029149
0.088319 0.159449 0.028641
0.113610 0.161142 0.028128
0.139355 0.162821 0.027607
0.165541 0.164481 0.027080
0.192156 0.166121 0.026548
0.219198 0.167743 0.026009
0.246658 0.169349 0.025464
0.274522 0.170933 0.024913
0.302785 0.172500 0.024357
0.331443 0.174050 0.023795
0.360480 0.175580 0.023228
0.389888 0.177090 0.022656
0.419669 0.178585 0.022079
0.449804 0.180059 0.021497
0.480284 0.181514 0.020911
0.511109 0.182952 0.020319
0.542266 0.184371 0.019723
0.573742 0.185770 0.019123
0.605535 0.187152 0.018519
0.637638 0.188515 0.017910
0.670035 0.189858 0.017298
0.702720 0.191183 0.016682
0.735693 0.192490 0.016063
0.768935 0.193778 0.015440
0.802439 0.195046 0.014813
0.836205 0.196296 0.014183
0.870216 0.197528 0.013551
0.904464 0.198739 0.012915
0.000000 0.179643 0.029468
0.000000 0.181604 0.028965
0.018496 0.183541 0.028455
0.043181 0.185464 0.027939
0.068321 0.187363 0.027416
0.093906 0.189237 0.026887
0.119934 0.191095 0.026352
0.146392 0.192931 0.025810
0.173269 0.194743 0.025264
0.200562 0.196536 0.024711
0.228262 0.198309 0.024153
0.256356 0.200058 0.023590
0.284838 0.201786 0.023021
0.313704 0.203495 0.022447
0.342940 0.205181 0.021868
0.372535 0.206844 0.021284
0.402492 0.208490 0.020696
0.432793 0.210112 0.020103
0.463428 0.211711 0.019505
0.494398 0.213291 0.018904
0.525689 0.214850 0.018298
0.557289 0.216386 0.017688
0.589195 0.217900 0.017074
0.621400 0.219395 0.016457
0.653889 0.220866 0.015836
0.686656 0.222316 0.015212
0.719698 0.223745 0.014584
0.753001 0.225153 0.013953
0.786554 0.226537 0.013320
0.820358 0.227902 0.012683
0.854397 0.229244 0.012044
0.888663 0.230564 0.011402
0.923151 0.231863 0.010757
0.000000 0.209947 0.027749
0.000000 0.212061 0.027224
0.021787 0.214158 0.026693
0.047228 0.216228 0.026155
0.073104 0.218271 0.025612
0.099411 0.220294 0.025063
0.126137 0.222293 0.024508
0.153273 0.224265 0.023948
0.180814 0.226214 0.023383
0.208751 0.228141 0.022812
0.237071 0.230042 0.022237
0.265769 0.231918 0.021656
0.294841 0.233773 0.021070
0.324271 0.235602 0.020480
0.354051 0.237405 0.019886
0.384181 0.239188 0.019287
0.414645 0.240945 0.018684
0.445433 0.242676 0.018076
0.476544 0.244385 0.017465
0.507965 0.246069 0.016850
0.539686 0.247728 0.016231
0.571702 0.249363 0.015609
0.604006 0.250975 0.014984
0.636583 0.252562 0.014355
0.669428 0.254123 0.013723
0.702538 0.255662 0.013088
0.735897 0.257176 0.012451
0.769497 0.258664 0.011810
0.803336 0.260129 0.011167
0.837400 0.261570 0.010522
0.871680 0.262985 0.009875
0.906172 0.264377 0.009225
0.940865 0.265743 0.008573
0.000000 0.241512 0.025958
0.000000 0.243770 0.025413
0.025083 0.245998 0.024862
0.051246 0.248196 0.024305
0.077829 0.250371 0.023743
0.104822 0.252519 0.023176
0.132213 0.254638 0.022603
0.159998 0.256731 0.022025
0.188169 0.258799 0.021443
0.216713 0.260838 0.020856
0.245624 0.262849 0.020265
0.274898 0.264837 0.019668
0.304519 0.266796 0.019068
0.334481 0.268726 0.018463
0.364781 0.270633 0.017854
0.395404 0.272511 0.017242
0.426342 0.274361 0.016625
0.457591 0.276185 0.016005
0.489140 0.277983 0.015382
0.520978 0.279752 0.014755
0.553101 0.281494 0.014125
0.585500 0.283211 0.013492
0.618163 0.284899 0.012856
0.651083 0.286559 0.012218
0.684257 0.288194 0.011576
0.717669 0.289801 0.010933
0.751312 0.291380 0.010287
0.785183 0.292933 0.009638
0.819269 0.294458 0.008988
0.853560 0.295955 0.008336
0.888052 0.297426 0.007682
0.922735 0.298869 0.007026
0.957599 0.300285 0.006369
0.000000 0.274253 0.024101
0.001931 0.276625 0.023537
0.028379 0.278965 0.022968
0.055235 0.281280 0.022393
0.082489 0.283564 0.021814
0.110133 0.285816 0.021230
0.138160 0.288040 0.020641
0.166561 0.290236 0.020047
0.195326 0.292400 0.019450
0.224447 0.294534 0.018848
0.253919 0.296641 0.018241
0.283729 0.298716 0.017632
0.313869 0.300760 0.017018
0.344335 0.302778 0.016400
0.375115 0.304764 0.015779
0.406199 0.306719 0.015154
0.437583 0.308646 0.014526
0.469257 0.310543 0.013895
0.501209 0.312410 0.013261
0.533435 0.314246 0.012624
0.565927 0.316054 0.011985
0.598673 0.317830 0.011342
0.631665 0.319577 0.010698
0.664899 0.321294 0.010051
0.698362 0.322981 0.009402
0.732045 0.324637 0.008751
0.765945 0.326265 0.008098
0.800049 0.327862 0.007443
0.834348 0.329428 0.006787
0.868837 0.330964 0.006129
0.903507 0.332471 0.005470
0.938347 0.333947 0.004810
0.973350 0.335393 0.004149
0.000000 0.308065 0.022183
0.004545 0.310534 0.021602
0.031671 0.312974 0.021016
0.059185 0.315381 0.020425
0.087078 0.317754 0.019830
0.115343 0.320095 0.019231
0.143972 0.322405 0.018627
0.172954 0.324681 0.018020
0.202281 0.326924 0.017408
0.231949 0.329137 0.016793
0.261944 0.331316 0.016174
0.292259 0.333461 0.015551
0.322889 0.335576 0.014926
0.353822 0.337658 0.014297
0.385049 0.339705 0.013665
0.416565 0.341721 0.013030
0.448360 0.343705 0.012392
0.480424 0.345655 0.011751
0.512750 0.347573 0.011108
0.545331 0.349458 0.010463
0.578156 0.351310 0.009815
0.611217 0.353129 0.009165
0.644508 0.354917 0.008513
0.678018 0.356670 0.007860
0.711739 0.358391 0.007205
0.745664 0.360079 0.006548
0.779783 0.361735 0.005890
0.814088 0.363357 0.005230
0.848571 0.364946 0.004570
0.883224 0.366503 0.003908
0.918037 0.368026 0.003246
0.953002 0.369516 0.002583
0.988113 0.370974 0.001919
0.000000 0.342854 0.020209
0.007182 0.345406 0.019613
0.034953 0.347924 0.019012
0.063092 0.350403 0.018407
0.091592 0.352849 0.017798
0.120445 0.355261 0.017185
0.149641 0.357636 0.016568
0.179172 0.359974 0.015948
0.209032 0.362281 0.015324
0.239209 0.364550 0.014697
0.269696 0.366782 0.014067
0.300486 0.368982 0.013433
0.331570 0.371145 0.012797
0.362937 0.373272 0.012159
0.394581 0.375364 0.011517
0.426495 0.377421 0.010873
0.458666 0.379442 0.010227
0.491090 0.381427 0.009579
0.523757 0.383378 0.008928
0.556658 0.385292 0.008276
0.589784 0.387170 0.007621
0.623130 0.389014 0.006966
0.656684 0.390822 0.006308
0.690438 0.392593 0.005650
0.724386 0.394330 0.004990
0.758517 0.396031 0.004329
0.792824 0.397695 0.003667
0.827298 0.399324 0.003005
0.861931 0.400918 0.002341
0.896713 0.402475 0.001678
0.931638 0.403997 0.001014
0.966697 0.405483 0.000349
1.000000 0.406933 0.000000
0.000000 0.378531 0.018186
0.009837 0.381145 0.017575
0.038219 0.383719 0.016961
0.066951 0.386256 0.016343
0.096025 0.388756 0.015721
0.125432 0.391216 0.015096
0.155163 0.393638 0.014468
0.185212 0.396024 0.013836
0.215569 0.398370 0.013202
0.246224 0.400677 0.012565
0.277172 0.402948 0.011925
0.308402 0.405180 0.011283
0.339906 0.407373 0.010638
0.371676 0.409528 0.009991
0.403705 0.411645 0.009342
0.435981 0.413723 0.008691
0.468498 0.415763 0.008038
0.501249 0.417766 0.007383
0.534223 0.419729 0.006726
0.567411 0.421654 0.006069
0.600808 0.423541 0.005410
0.634403 0.425389 0.004749
0.668188 0.427199 0.004088
0.702155 0.428970 0.003426
0.736295 0.430703 0.002763
0.770600 0.432397 0.002100
0.805062 0.434053 0.001436
0.839672 0.435670 0.000772
0.874421 0.437248 0.000107
0.909302 0.438788 0.000000
0.944306 0.440289 0.000000
0.979424 0.441752 0.000000
1.000000 0.443176 0.000000
0.000000 0.414999 0.016117
0.012504 0.417654 0.015494
0.041465 0.420268 0.014868
0.070757 0.422844 0.014238
0.100371 0.425377 0.013606
0.130300 0.427868 0.012971
0.160535 0.430320 0.012332
0.191067 0.432731 0.011692
0.221888 0.435099 0.011048
0.252990 0.437428 0.010403
0.284364 0.439716 0.009755
0.316001 0.441961 0.009105
0.347894 0.444166 0.008453
0.380034 0.446331 0.007799
0.412412 0.448453 0.007144
0.445021 0.450535 0.006487
0.477851 0.452576 0.005829
0.510894 0.454575 0.005169
0.544142 0.456533 0.004509
0.577587 0.458450 0.003847
0.611220 0.460326 0.003185
0.645032 0.462160 0.002522
0.679015 0.463953 0.001858
0.713161 0.465705 0.001194
0.747462 0.467415 0.000530
0.781908 0.469084 0.000000
0.816492 0.470712 0.000000
0.851205 0.472298 0.000000
0.886038 0.473843 0.000000
0.920984 0.475346 0.000000
0.956034 0.476808 0.000000
0.991179 0.478229 0.000000
1.000000 0.479608 0.000000
0.000000 0.452161 0.014009
0.015177 0.454841 0.013375
0.044684 0.457478 0.012739
0.074503 0.460070 0.012099
0.104626 0.462618 0.011458
0.135044 0.465124 0.010813
0.165749 0.467585 0.010167
0.196731 0.470001 0.009518
0.227985 0.472376 0.008868
0.259499 0.474705 0.008215
0.291267 0.476991 0.007561
0.323279 0.479233 0.006905
0.355528 0.481431 0.006247
0.388005 0.483585 0.005589
0.420700 0.485695 0.004929
0.453608 0.487761 0.004268
0.486718 0.489783 0.003606
0.520021 0.491761 0.002943
0.553511 0.493695 0.002280
0.587178 0.495585 0.001616
0.621014 0.497431 0.000952
0.655011 0.499232 0.000288
0.689160 0.500990 0.000000
0.723452 0.502703 0.000000
0.757880 0.504373 0.000000
0.792435 0.505998 0.000000
0.827108 0.507579 0.000000
0.861891 0.509115 0.000000
0.896776 0.510608 0.000000
0.931754 0.512056 0.000000
0.966818 0.513460 0.000000
1.000000 0.514819 0.000000
1.000000 0.516134 0.000000
0.000000 0.489926 0.011866
0.017852 0.492612 0.011223
0.047872 0.495251 0.010578
0.078185 0.497841 0.009931
0.108784 0.500388 0.009282
0.139658 0.502887 0.008630
0.170799 0.505338 0.007977
0.202201 0.507744 0.007322
0.233853 0.510103 0.006666
0.265747 0.512415 0.006008
0.297876 0.514680 0.005348
0.330231 0.516899 0.004688
0.362802 0.519071 0.004027
0.395583 0.521196 0.003365
0.428564 0.523275 0.002702
0.461737 0.525306 0.002038
0.495093 0.527291 0.001374
0.528625 0.529229 0.000710
0.562324 0.531120 0.000046
0.596180 0.532964 0.000000
0.630187 0.534762 0.000000
0.664335 0.536512 0.000000
0.698617 0.538215 0.000000
0.733023 0.539872 0.000000
0.767545 0.541481 0.000000
0.802176 0.543043 0.000000
0.836906 0.544559 0.000000
0.871726 0.546027 0.000000
0.906629 0.547448 0.000000
0.941607 0.548822 0.000000
0.976650 0.550149 0.000000
1.000000 0.551428 0.000000
1.000000 0.552662 0.000000
0.000000 0.528200 0.009695
0.020523 0.530871 0.009045
0.051023 0.533492 0.008393
0.081798 0.536066 0.007739
0.112839 0.538589 0.007083
0.144136 0.541062 0.006426
0.175682 0.543487 0.005768
0.207469 0.545862 0.005108
0.239487 0.548187 0.004447
0.271729 0.550463 0.003786
0.304186 0.552690 0.003123
0.336850 0.554866 0.002460
0.369711 0.556993 0.001797
0.402763 0.559071 0.001133
0.435996 0.561099 0.000468
0.469402 0.563077 0.000000
0.502973 0.565006 0.000000
0.536700 0.566885 0.000000
0.570574 0.568714 0.000000
0.604588 0.570494 0.000000
0.638732 0.572224 0.000000
0.673000 0.573904 0.000000
0.707381 0.575534 0.000000
0.741868 0.577114 0.000000
0.776452 0.578645 0.000000
0.811125 0.580126 0.000000
0.845878 0.581557 0.000000
0.880703 0.582938 0.000000
0.915593 0.584270 0.000000
0.950536 0.585550 0.000000
0.985527 0.586781 0.000000
1.000000 0.587963 0.000000
1.000000 0.589094 0.000000
0.000000 0.566885 0.007500
0.023184 0.569524 0.006844
0.054132 0.572111 0.006187
0.085336 0.574646 0.005528
0.116786 0.577127 0.004868
0.148474 0.579558 0.004207
0.180392 0.581936 0.003545
0.212531 0.584261 0.002882
0.244883 0.586534 0.002219
0.277439 0.588755 0.001555
0.310191 0.590923 0.000891
0.343131 0.593039 0.000226
0.376250 0.595103 0.000000
0.409540 0.597114 0.000000
0.442993 0.599073 0.000000
0.476599 0.600979 0.000000
0.510351 0.602833 0.000000
0.544240 0.604635 0.000000
0.578257 0.606383 0.000000
0.612395 0.608079 0.000000
0.646645 0.609723 0.000000
0.680998 0.611314 0.000000
0.715446 0.612852 0.000000
0.749981 0.614338 0.000000
0.784595 0.615772 0.000000
0.819277 0.617152 0.000000
0.854021 0.618479 0.000000
0.888820 0.619755 0.000000
0.923660 0.620977 0.000000
0.958537 0.622146 0.000000
0.993444 0.623263 0.000000
1.000000 0.624327 0.000000
1.000000 0.625337 0.000000
0.000000 0.605889 0.005288
0.025831 0.608477 0.004627
0.057194 0.611010 0.003966
0.088793 0.613487 0.003304
0.120620 0.615910 0.002641
0.152666 0.618278 0.001977
0.184922 0.620590 0.001313
0.217381 0.622847 0.000649
0.250034 0.625049 0.000000
0.282872 0.627196 0.000000
0.315887 0.629288 0.000000
0.349070 0.631324 0.000000
0.382414 0.633306 0.000000
0.415909 0.635232 0.000000
0.449548 0.637102 0.000000
0.483322 0.638918 0.000000
0.517222 0.640678 0.000000
0.551240 0.642383 0.000000
0.585368 0.644032 0.000000
0.619597 0.645626 0.000000
0.653920 0.647165 0.000000
0.688325 0.648648 0.000000
0.722808 0.650076 0.000000
0.757359 0.651449 0.000000
0.791967 0.652764 0.000000
0.826627 0.654026 0.000000
0.861331 0.655233 0.000000
0.896066 0.656382 0.000000
0.930827 0.657476 0.000000
0.965607 0.658516 0.000000
1.000000 0.659499 0.000000
1.000000 0.660426 0.000000
1.000000 0.661299 0.000000
0.000000 0.645118 0.003062
0.028457 0.647635 0.002399
0.060202 0.650095 0.001735
0.092165 0.652497 0.001071
0.124335 0.654841 0.000407
0.156706 0.657127 0.000000
0.189269 0.659355 0.000000
0.222014 0.661526 0.000000
0.254935 0.663638 0.000000
0.288022 0.665692 0.000000
0.321266 0.667688 0.000000
0.354661 0.669626 0.000000
0.388196 0.671507 0.000000
0.421864 0.673328 0.000000
0.455656 0.675092 0.000000
0.489565 0.676799 0.000000
0.523581 0.678446 0.000000
0.557695 0.680035 0.000000
0.591901 0.681567 0.000000
0.626189 0.683040 0.000000
0.660550 0.684454 0.000000
0.694977 0.685811 0.000000
0.729462 0.687110 0.000000
0.763993 0.688349 0.000000
0.798565 0.689531 0.000000
0.833171 0.690655 0.000000
0.867797 0.691719 0.000000
0.902439 0.692725 0.000000
0.937089 0.693674 0.000000
0.971736 0.694564 0.000000
1.000000 0.695394 0.000000
1.000000 0.696168 0.000000
1.000000 0.696883 0.000000
0.000000 0.684475 0.000830
0.031058 0.686904 0.000165
0.063153 0.689272 0.000000
0.095445 0.691580 0.000000
0.127927 0.693826 0.000000
0.160590 0.696012 0.000000
0.193425 0.698137 0.000000
0.226425 0.700202 0.000000
0.259581 0.702206 0.000000
0.292883 0.704148 0.000000
0.326325 0.706030 0.000000
0.359898 0.707852 0.000000
0.393592 0.709611 0.000000
0.427400 0.711310 0.000000
0.461313 0.712949 0.000000
0.495323 0.714526 0.000000
0.529422 0.716042 0.000000
0.563601 0.717498 0.000000
0.597851 0.718893 0.000000
0.632164 0.720225 0.000000
0.666532 0.721498 0.000000
0.700947 0.722710 0.000000
0.735398 0.723858 0.000000
0.769880 0.724947 0.000000
0.804385 0.725976 0.000000
0.838899 0.726942 0.000000
0.873419 0.727847 0.000000
0.907936 0.728692 0.000000
0.942438 0.729475 0.000000
0.976919 0.730195 0.000000
1.000000 0.730857 0.000000
1.000000 0.731456 0.000000
1.000000 0.731993 0.000000
0.001404 0.723868 0.000000
0.033628 0.726189 0.000000
0.066039 0.728447 0.000000
0.098629 0.730641 0.000000
0.131390 0.732772 0.000000
0.164312 0.734838 0.000000
0.197388 0.736842 0.000000
0.230609 0.738782 0.000000
0.263966 0.740658 0.000000
0.297452 0.742470 0.000000
0.331058 0.744220 0.000000
0.364775 0.745904 0.000000
0.398596 0.747525 0.000000
0.432511 0.749084 0.000000
0.466512 0.750577 0.000000
0.500591 0.752007 0.000000
0.534740 0.753374 0.000000
0.568950 0.754676 0.000000
0.603211 0.755914 0.000000
0.637518 0.757089 0.000000
0.671861 0.758201 0.000000
0.706229 0.759247 0.000000
0.740617 0.760229 0.000000
0.775017 0.761150 0.000000
0.809416 0.762004 0.000000
0.843810 0.762794 0.000000
0.878191 0.763522 0.000000
0.912547 0.764185 0.000000
0.946870 0.764783 0.000000
0.981156 0.765319 0.000000
1.000000 0.765790 0.000000
1.000000 0.766195 0.000000
1.000000 0.766538 0.000000
0.003636 0.763201 0.000000
0.036162 0.765396 0.000000
0.068857 0.767525 0.000000
0.101711 0.769587 0.000000
0.134717 0.771582 0.000000
0.167866 0.773511 0.000000
0.201150 0.775375 0.000000
0.234559 0.777170 0.000000
0.268086 0.778900 0.000000
0.301723 0.780565 0.000000
0.335459 0.782161 0.000000
0.369289 0.783691 0.000000
0.403203 0.785156 0.000000
0.437192 0.786552 0.000000
0.471248 0.787882 0.000000
0.505364 0.789147 0.000000
0.539530 0.790345 0.000000
0.573737 0.791474 0.000000
0.607978 0.792539 0.000000
0.642246 0.793538 0.000000
0.676527 0.794467 0.000000
0.710818 0.795330 0.000000
0.745111 0.796129 0.000000
0.779392 0.796858 0.000000
0.813657 0.797521 0.000000
0.847899 0.798119 0.000000
0.882105 0.798648 0.000000
0.916268 0.799110 0.000000
0.950382 0.799507 0.000000
0.984438 0.799837 0.000000
1.000000 0.800098 0.000000
1.000000 0.800293 0.000000
1.000000 0.800424 0.000000
0.005858 0.802381 0.000000
0.038655 0.804431 0.000000
0.071600 0.806411 0.000000
0.104686 0.808322 0.000000
0.137905 0.810164 0.000000
0.171248 0.811937 0.000000
0.204705 0.813640 0.000000
0.238270 0.815274 0.000000
0.271935 0.816840 0.000000
0.305688 0.818334 0.000000
0.339524 0.819760 0.000000
0.373434 0.821118 0.000000
0.407408 0.822405 0.000000
0.441438 0.823622 0.000000
0.475517 0.824772 0.000000
0.509636 0.825851 0.000000
0.543785 0.826860 0.000000
0.577958 0.827800 0.000000
0.612147 0.828673 0.000000
0.646339 0.829472 0.000000
0.680530 0.830203 0.000000
0.714712 0.830867 0.000000
0.748872 0.831458 0.000000
0.783005 0.831981 0.000000
0.817104 0.832435 0.000000
0.851157 0.832818 0.000000
0.885156 0.833131 0.000000
0.919096 0.833376 0.000000
0.952967 0.833551 0.000000
0.986756 0.833654 0.000000
1.000000 0.833689 0.000000
1.000000 0.833657 0.000000
1.000000 0.833550 0.000000
0.008067 0.841312 0.000000
0.041100 0.843198 0.000000
0.074264 0.845011 0.000000
0.107549 0.846752 0.000000
0.140948 0.848423 0.000000
0.174451 0.850019 0.000000
0.208051 0.851544 0.000000
0.241739 0.852999 0.000000
0.275506 0.854379 0.000000
0.309345 0.855687 0.000000
0.343247 0.856925 0.000000
0.377202 0.858089 0.000000
0.411204 0.859180 0.000000
0.445244 0.860201 0.000000
0.479312 0.861150 0.000000
0.513401 0.862024 0.000000
0.547503 0.862827 0.000000
0.581609 0.863560 0.000000
0.615709 0.864216 0.000000
0.649796 0.864802 0.000000
0.683864 0.865318 0.000000
0.717900 0.865758 0.000000
0.751898 0.866126 0.000000
0.785851 0.866424 0.000000
0.819748 0.866648 0.000000
0.853580 0.866798 0.000000
0.887342 0.866878 0.000000
0.921025 0.866886 0.000000
0.954615 0.866818 0.000000
