_backup/뉴턴_LUT/뉴턴_추구미_100.cube
TITLE "newton_match_v2"
LUT_3D_SIZE 9
0.000000 0.000000 0.000000
0.098828 0.000000 0.000000
0.187982 0.000000 0.000000
0.267299 0.000000 0.000000
0.336777 0.000000 0.000000
0.396418 0.000000 0.000000
0.450693 0.000000 0.000000
0.528294 0.000000 0.000000
0.658407 0.000000 0.000000
0.000000 0.074784 0.000000
0.067774 0.064707 0.000000
0.136601 0.058602 0.000000
0.204660 0.052705 0.000000
0.286268 0.050190 0.000000
0.398177 0.050745 0.000000
0.528789 0.050849 0.000000
0.677684 0.050240 0.000000
0.878155 0.050749 0.000000
0.000000 0.127586 0.000000
0.050325 0.128761 0.000000
0.141452 0.135050 0.000000
0.239631 0.144969 0.000000
0.360922 0.154837 0.000000
0.521240 0.169492 0.000000
0.721065 0.185691 0.000000
1.000000 0.212640 0.000000
1.000000 0.228249 0.000000
0.000000 0.246210 0.000000
0.047787 0.265900 0.000000
0.177934 0.293057 0.000000
0.336814 0.321571 0.000000
0.538794 0.373294 0.000000
0.760105 0.406236 0.000000
1.000000 0.429551 0.000000
1.000000 0.415533 0.000000
1.000000 0.394746 0.000000
0.000000 0.490485 0.000000
0.042272 0.555833 0.000000
0.233071 0.596337 0.000000
0.441581 0.615576 0.000000
0.610740 0.583100 0.000000
0.754710 0.562486 0.000000
0.900561 0.544809 0.000000
1.000000 0.533535 0.000000
1.000000 0.525713 0.000000
0.000000 0.810883 0.000000
0.011241 0.778126 0.000000
0.196905 0.747120 0.000000
0.375072 0.721295 0.000000
0.552723 0.704903 0.000000
0.715878 0.683480 0.000000
0.867548 0.676843 0.000000
1.000000 0.671129 0.000000
1.000000 0.659097 0.000000
0.000000 0.902214 0.000000
0.000000 0.885711 0.000000
0.157023 0.873725 0.000000
0.335642 0.858778 0.000000
0.513172 0.845191 0.000000
0.685159 0.826587 0.000000
0.833094 0.795392 0.000000
0.970482 0.781297 0.000000
1.000000 0.767006 0.000000
0.000000 1.000000 0.000000
0.000000 1.000000 0.000000
0.120424 1.000000 0.000000
0.293240 0.978348 0.000000
0.461528 0.955741 0.000000
0.624613 0.932315 0.000000
0.781478 0.907608 0.000000
0.914281 0.872905 0.000000
1.000000 0.855389 0.000000
0.000000 1.000000 0.000000
0.000000 1.000000 0.000000
0.083538 1.000000 0.000000
0.248605 1.000000 0.000000
0.409934 1.000000 0.000000
0.563708 1.000000 0.000000
0.713914 0.995216 0.000000
0.864587 0.976710 0.000000
1.000000 0.966730 0.000000
0.000000 0.000000 0.108754
0.097913 0.000000 0.098107
0.187919 0.000000 0.087666
0.267825 0.000000 0.077775
0.337623 0.000000 0.068463
0.397309 0.000000 0.059735
0.460410 0.000000 0.053155
0.557052 0.000000 0.050444
0.701076 0.000000 0.050406
0.000000 0.071609 0.075617
0.066273 0.062655 0.066435
0.140909 0.054288 0.057839
0.216052 0.048910 0.052405
0.310350 0.046955 0.050651
0.432814 0.046549 0.050628
0.568979 0.044897 0.049334
0.733799 0.043075 0.047955
0.949285 0.041466 0.046969
0.000000 0.126735 0.051502
0.050458 0.131689 0.050620
0.145747 0.139130 0.064900
0.249532 0.148044 0.062057
0.384757 0.159687 0.060598
0.557945 0.174618 0.060618
0.780979 0.193147 0.061158
1.000000 0.216429 0.061863
1.000000 0.227786 0.057785
0.000000 0.250313 0.048394
0.047516 0.274753 0.047738
0.183672 0.304173 0.046595
0.360431 0.344085 0.093874
0.565977 0.389742 0.095271
0.792279 0.417284 0.085911
1.000000 0.425021 0.073197
1.000000 0.405999 0.057644
1.000000 0.386014 0.043794
0.000000 0.517720 0.045278
0.040314 0.572857 0.040658
0.235662 0.608908 0.032810
0.436282 0.609722 0.022043
0.602543 0.575230 0.101330
0.749053 0.556856 0.088535
0.901737 0.541534 0.069540
1.000000 0.530808 0.052292
1.000000 0.522420 0.037049
0.000000 0.801443 0.019344
0.007366 0.765352 0.007731
0.191384 0.736387 0.000000
0.370020 0.714905 0.000000
0.548228 0.700155 0.000000
0.713577 0.681241 0.080532
0.866188 0.674921 0.072331
1.000000 0.666973 0.055773
1.000000 0.654927 0.038175
0.000000 0.893915 0.000000
0.000000 0.879376 0.000000
0.152863 0.866854 0.000000
0.331860 0.854647 0.000000
0.507581 0.838269 0.000000
0.678464 0.819232 0.000000
0.827289 0.789808 0.062877
0.964976 0.776293 0.055990
1.000000 0.761360 0.041002
0.000000 1.000000 0.000000
0.000000 1.000000 0.000000
0.116441 0.993203 0.000000
0.288339 0.970037 0.000000
0.455863 0.947648 0.000000
0.618123 0.924279 0.000000
0.774608 0.900161 0.000000
0.909815 0.868602 0.045210
1.000000 0.849909 0.039751
0.000000 1.000000 0.000000
0.000000 1.000000 0.000000
0.079771 1.000000 0.000000
0.244065 1.000000 0.000000
0.403932 1.000000 0.000000
0.557708 1.000000 0.000000
0.706861 0.986620 0.000000
0.866939 0.979774 0.000000
1.000000 0.970199 0.030451
0.000000 0.000000 0.214534
0.094309 0.000000 0.198625
0.182685 0.000000 0.183046
0.260965 0.000000 0.168010
0.329138 0.000000 0.153546
0.387874 0.000000 0.139906
0.462343 0.000000 0.134262
0.576503 0.000000 0.138530
0.727851 0.000000 0.147593
0.000000 0.068495 0.164681
0.063284 0.059741 0.150349
0.137324 0.051961 0.137625
0.214812 0.047439 0.133101
0.317459 0.046612 0.139646
0.442860 0.045985 0.148572
0.582259 0.044101 0.155612
0.764687 0.042779 0.167602
0.996080 0.041078 0.182752
0.000000 0.126203 0.133266
0.049959 0.133120 0.140850
0.149132 0.140992 0.149497
0.265228 0.147718 0.156990
0.414753 0.159790 0.170244
0.601307 0.173472 0.185321
0.864972 0.195812 0.209804
1.000000 0.211908 0.227783
1.000000 0.218600 0.235810
0.000000 0.256266 0.159178
0.046840 0.282080 0.172596
0.186920 0.311296 0.187439
0.377623 0.360454 0.238022
0.586915 0.398051 0.251036
0.821800 0.422083 0.257528
1.000000 0.416912 0.248094
1.000000 0.394796 0.229715
1.000000 0.375690 0.213850
0.000000 0.533928 0.216973
0.037564 0.581267 0.229939
0.236245 0.616564 0.237003
0.428532 0.600421 0.223827
0.594879 0.567873 0.264898
0.743390 0.549787 0.244756
0.903071 0.535781 0.224589
1.000000 0.524986 0.208836
1.000000 0.515501 0.195622
0.000000 0.789755 0.219822
0.003593 0.755787 0.202485
0.186235 0.726905 0.186944
0.364871 0.708300 0.174329
0.543838 0.695541 0.163267
0.710292 0.678067 0.237485
0.865476 0.672858 0.226255
1.000000 0.662585 0.207503
1.000000 0.648767 0.189068
0.000000 0.889191 0.171910
0.000000 0.877034 0.161074
0.149226 0.862873 0.149922
0.328070 0.850490 0.139134
0.502276 0.831802 0.127420
0.672591 0.812863 0.115846
0.822389 0.785092 0.214191
0.960050 0.771443 0.203189
1.000000 0.755989 0.184800
0.000000 1.000000 0.136616
0.000000 1.000000 0.124859
0.112598 0.986598 0.113277
0.283871 0.963116 0.101658
0.450547 0.940248 0.090349
0.611321 0.915756 0.079146
0.767137 0.892010 0.068289
0.902565 0.861643 0.187468
1.000000 0.844453 0.178154
0.000000 1.000000 0.099075
0.000000 1.000000 0.087781
0.075968 1.000000 0.076616
0.239491 1.000000 0.065871
0.398034 1.000000 0.055416
0.551565 1.000000 0.045248
0.700293 0.978687 0.035382
0.867624 0.980960 0.026521
1.000000 1.000000 0.176789
0.000000 0.000000 0.316744
0.090764 0.000000 0.295606
0.177521 0.000000 0.274873
0.254181 0.000000 0.254683
0.320734 0.000000 0.235064
0.381211 0.000000 0.218335
0.461042 0.000000 0.215080
0.587842 0.000000 0.229780
0.742439 0.000000 0.248207
0.000000 0.065450 0.250174
0.060365 0.056896 0.230688
0.134824 0.050066 0.216704
0.217562 0.046824 0.218022
0.325624 0.046342 0.234285
0.451707 0.045213 0.251067
0.596655 0.043289 0.267929
0.790089 0.042008 0.295421
1.000000 0.039822 0.326653
0.000000 0.128999 0.222101
0.050389 0.137216 0.240010
0.152181 0.143769 0.255724
0.273043 0.151134 0.273662
0.427887 0.163385 0.301524
0.620860 0.177192 0.333712
0.897064 0.200601 0.386108
1.000000 0.212941 0.419546
1.000000 0.219281 0.443044
0.000000 0.266504 0.281419
0.046732 0.293824 0.310674
0.195383 0.327265 0.346508
0.395026 0.373463 0.395993
0.617708 0.400322 0.425116
0.859605 0.418319 0.444937
1.000000 0.400723 0.426940
1.000000 0.377888 0.403327
1.000000 0.357958 0.382775
0.000000 0.557209 0.406308
0.035126 0.597332 0.432606
0.233325 0.615220 0.442401
0.420565 0.590790 0.421683
0.589014 0.562176 0.425653
0.743906 0.543075 0.399600
0.910784 0.529256 0.382680
1.000000 0.519269 0.370908
1.000000 0.508366 0.359383
0.000000 0.777349 0.415901
0.000000 0.746498 0.394354
0.182044 0.721040 0.375893
0.361278 0.704701 0.362329
0.541149 0.693100 0.351251
0.708943 0.676735 0.394398
0.866730 0.670699 0.379265
1.000000 0.657030 0.358920
1.000000 0.642480 0.341264
0.000000 0.885267 0.359747
0.000000 0.873331 0.348653
0.145536 0.858567 0.336471
0.323676 0.844746 0.324715
0.497494 0.826187 0.311226
0.666537 0.806270 0.297364
0.818074 0.780936 0.364286
0.956016 0.766617 0.348376
1.000000 0.749334 0.326714
0.000000 1.000000 0.321383
0.000000 1.000000 0.307880
0.108533 0.977825 0.293949
0.279145 0.955250 0.280145
0.444744 0.931794 0.266276
0.604453 0.907117 0.252273
0.760762 0.885129 0.239228
0.895613 0.854972 0.327827
1.000000 0.838817 0.314573
0.000000 1.000000 0.276959
0.000000 1.000000 0.263135
0.072301 1.000000 0.249304
0.235697 1.000000 0.236652
0.392658 1.000000 0.222911
0.545421 0.994689 0.210220
0.698010 0.976738 0.199185
0.866884 0.980537 0.192553
1.000000 1.000000 0.322879
0.000000 0.000000 0.415305
0.087271 0.000000 0.388984
0.172403 0.000000 0.363100
0.247438 0.000000 0.337759
0.312368 0.000000 0.312986
0.378975 0.000000 0.298062
0.473468 0.000000 0.304819
0.609613 0.000000 0.330621
0.761405 0.000000 0.355202
0.000000 0.062477 0.332113
0.057519 0.054124 0.307479
0.134133 0.048843 0.298619
0.224189 0.046972 0.311660
0.337920 0.046551 0.338622
0.465867 0.044873 0.362445
0.621283 0.043081 0.392716
0.822831 0.041452 0.435731
1.000000 0.039038 0.487488
0.000000 0.131759 0.316785
0.050243 0.139976 0.344105
0.154800 0.146133 0.367769
0.284112 0.156271 0.403164
0.448344 0.169645 0.449325
0.660633 0.186481 0.507899
0.936993 0.206926 0.580576
1.000000 0.215821 0.625028
1.000000 0.217847 0.652647
0.000000 0.275226 0.412281
0.046284 0.304658 0.460147
0.206706 0.348274 0.530562
0.410346 0.387758 0.596031
0.635416 0.410476 0.636884
0.854925 0.414042 0.648731
1.000000 0.392824 0.621818
1.000000 0.371466 0.594348
1.000000 0.352524 0.570419
0.000000 0.573505 0.605601
0.032254 0.609580 0.644323
0.228670 0.609309 0.644687
0.412130 0.580467 0.614815
0.587072 0.555026 0.588509
0.758669 0.534540 0.567427
0.933818 0.520086 0.552732
1.000000 0.508746 0.541341
1.000000 0.495770 0.528204
0.000000 0.764786 0.607409
0.000000 0.735759 0.582144
0.177690 0.714454 0.563078
0.357004 0.699766 0.549274
0.536597 0.688274 0.537993
0.707145 0.674822 0.550033
0.869347 0.664975 0.531165
1.000000 0.650297 0.513799
1.000000 0.633506 0.496921
0.000000 0.879164 0.546086
0.000000 0.866640 0.534336
0.141865 0.854346 0.522746
0.318893 0.837952 0.508684
0.491677 0.818837 0.493043
0.659463 0.798437 0.476722
0.812893 0.775934 0.512379
0.952707 0.760660 0.491100
1.000000 0.742306 0.468145
0.000000 1.000000 0.505292
0.000000 0.992816 0.489481
0.104563 0.969618 0.472916
0.274388 0.947196 0.456865
0.439177 0.923799 0.440485
0.598397 0.899679 0.423916
0.754505 0.878381 0.408824
0.889953 0.849532 0.466865
1.000000 0.832921 0.448809
0.000000 1.000000 0.453354
0.000000 1.000000 0.436655
0.068647 1.000000 0.420202
0.230871 1.000000 0.404835
0.387504 1.000000 0.388748
0.539296 0.986102 0.373380
0.699481 0.980052 0.365346
0.867993 0.982208 0.360285
1.000000 1.000000 0.466873
0.000000 0.000000 0.510376
0.083854 0.000000 0.478842
0.167368 0.000000 0.447788
0.240783 0.000000 0.417284
0.304733 0.000000 0.388169
0.380308 0.000000 0.381060
0.489746 0.000000 0.402712
0.632327 0.000000 0.439262
0.785601 0.000000 0.470863
0.000000 0.059566 0.410439
0.055172 0.051825 0.383712
0.132741 0.047358 0.379589
0.228556 0.046566 0.407721
0.345009 0.045937 0.444261
0.476113 0.044047 0.477091
0.646569 0.042744 0.527879
0.862265 0.041018 0.591611
1.000000 0.038875 0.677349
0.000000 0.133260 0.413675
0.049431 0.141055 0.449444
0.156724 0.147835 0.484160
0.292753 0.159988 0.539352
0.463208 0.173647 0.603581
0.703301 0.196311 0.704807
0.972819 0.212115 0.788155
1.000000 0.218669 0.842731
1.000000 0.213329 0.854798
0.000000 0.282628 0.550376
0.045136 0.311976 0.614950
0.213564 0.362001 0.722611
0.417715 0.394526 0.797927
0.645917 0.415899 0.852702
0.847000 0.408205 0.848893
1.000000 0.384736 0.812016
1.000000 0.364513 0.781302
1.000000 0.348060 0.758161
0.000000 0.581948 0.807039
0.028965 0.617006 0.860077
0.222705 0.599825 0.840586
0.404116 0.570706 0.804185
0.577799 0.546061 0.773837
0.751193 0.528210 0.752947
0.927210 0.514822 0.738333
1.000000 0.503228 0.726257
1.000000 0.491779 0.714372
0.000000 0.755183 0.797447
0.000000 0.726426 0.767676
0.173384 0.707974 0.748775
0.353020 0.695390 0.736072
0.531631 0.682911 0.723476
0.709777 0.671033 0.711514
0.882185 0.655492 0.695660
1.000000 0.638045 0.677774
1.000000 0.619687 0.658904
0.000000 0.876906 0.734555
0.000000 0.862668 0.720927
0.138213 0.850212 0.708800
0.314196 0.831339 0.691346
0.486486 0.812510 0.673963
0.653155 0.791524 0.654833
0.808274 0.771168 0.658250
0.954254 0.753829 0.633778
1.000000 0.734033 0.612577
0.000000 1.000000 0.687943
0.000000 0.986111 0.670102
0.100756 0.962685 0.650954
0.269831 0.939762 0.632234
0.433348 0.915212 0.612516
0.591867 0.891513 0.593468
0.746220 0.869267 0.575484
0.884312 0.844067 0.604089
1.000000 0.826667 0.581028
0.000000 1.000000 0.627715
0.000000 1.000000 0.607846
0.065022 1.000000 0.589289
0.226127 1.000000 0.570811
0.382270 1.000000 0.552741
0.533618 0.978304 0.535141
0.699208 0.980936 0.532377
0.899982 1.000000 0.548500
1.000000 0.996567 0.609777
0.000000 0.000000 0.601796
0.080495 0.000000 0.565092
0.162390 0.000000 0.528882
0.234186 0.000000 0.493222
0.299334 0.000000 0.463489
0.379334 0.000000 0.462489
0.499047 0.000000 0.500034
0.644208 0.000000 0.546213
0.802990 0.000000 0.588507
0.000000 0.056726 0.485217
0.053297 0.049971 0.461338
0.134096 0.046830 0.470382
0.234325 0.046366 0.511633
0.351656 0.045184 0.554334
0.487726 0.043250 0.598930
0.667400 0.041948 0.668763
0.887843 0.039727 0.748989
1.000000 0.038076 0.882315
0.000000 0.137446 0.525368
0.049192 0.143961 0.566324
0.160735 0.151498 0.614257
0.301675 0.163780 0.685519
0.478641 0.177738 0.769324
0.728032 0.200902 0.900964
0.989963 0.213062 0.992054
1.000000 0.219292 1.000000
1.000000 0.207900 1.000000
0.000000 0.294588 0.708272
0.045085 0.328352 0.801129
0.219575 0.374491 0.927714
0.424649 0.400873 1.000000
0.651868 0.418342 1.000000
0.834611 0.400246 1.000000
0.997623 0.377481 0.999805
1.000000 0.357566 0.964664
1.000000 0.342706 0.942485
0.000000 0.598323 1.000000
0.025149 0.614865 1.000000
0.216711 0.590137 1.000000
0.397289 0.562592 0.992212
0.570465 0.538930 0.958606
0.745544 0.523175 0.938785
0.924306 0.511619 0.926402
1.000000 0.499244 0.912487
1.000000 0.487857 0.900330
0.000000 0.745876 0.984778
0.000000 0.720785 0.955054
0.169825 0.704498 0.936900
0.350012 0.692938 0.924998
0.528049 0.679324 0.910334
0.705789 0.667069 0.897465
0.875427 0.649566 0.877488
1.000000 0.632567 0.858113
1.000000 0.613840 0.836307
0.000000 0.872936 0.921790
0.000000 0.858356 0.906980
0.134283 0.844301 0.892719
0.309914 0.825787 0.873736
0.481056 0.805766 0.853144
0.647209 0.785044 0.831795
0.808424 0.764296 0.810403
0.962898 0.742296 0.787665
1.000000 0.721451 0.766133
0.000000 0.999647 0.868436
0.000000 0.977302 0.847690
0.096871 0.954760 0.826807
0.264996 0.931275 0.805145
0.427540 0.906626 0.782517
0.586355 0.884863 0.762418
0.738232 0.860491 0.740113
0.879046 0.838469 0.738687
1.000000 0.821473 0.715304
0.000000 1.000000 0.800209
0.000000 1.000000 0.777969
0.061604 1.000000 0.758704
0.221712 1.000000 0.735490
0.377040 0.994163 0.714896
0.531359 0.976766 0.699807
0.697994 0.980509 0.699849
0.894292 1.000000 0.720146
1.000000 0.992358 0.751365
0.000000 0.000000 0.689648
0.077204 0.000000 0.647766
0.157479 0.000000 0.606392
0.227652 0.000000 0.565574
0.297481 0.000000 0.543147
0.389531 0.000000 0.560232
0.517648 0.000000 0.612318
0.661040 0.000000 0.662347
0.827402 0.000000 0.717437
0.000000 0.053976 0.556647
0.052118 0.048770 0.545035
0.137554 0.046975 0.573788
0.242539 0.046546 0.627911
0.362262 0.044840 0.676759
0.507970 0.043079 0.739541
0.695552 0.041437 0.826979
0.931215 0.039022 0.933108
1.000000 0.036248 1.000000
0.000000 0.140009 0.638338
0.048648 0.146207 0.687436
0.166209 0.156530 0.760150
0.315282 0.170016 0.854183
0.508878 0.187144 0.974521
0.759982 0.207283 1.000000
1.000000 0.216072 1.000000
1.000000 0.217572 1.000000
1.000000 0.202049 1.000000
0.000000 0.305102 0.875326
0.045348 0.349348 1.000000
0.226258 0.388332 1.000000
0.435407 0.410818 1.000000
0.646872 0.413741 1.000000
0.822195 0.392315 1.000000
0.986723 0.371058 1.000000
1.000000 0.352269 1.000000
1.000000 0.338785 1.000000
0.000000 0.610248 1.000000
0.021178 0.608897 1.000000
0.210566 0.579902 1.000000
0.390510 0.554521 1.000000
0.565701 0.534230 1.000000
0.742352 0.519865 1.000000
0.921562 0.508501 1.000000
1.000000 0.495472 1.000000
1.000000 0.483466 1.000000
0.000000 0.735142 1.000000
0.000000 0.714014 1.000000
0.165875 0.699382 1.000000
0.345648 0.687798 1.000000
0.523892 0.674997 1.000000
0.699322 0.660762 1.000000
0.869290 0.644108 1.000000
1.000000 0.625918 1.000000
1.000000 0.607779 1.000000
0.000000 0.866425 1.000000
0.000000 0.854047 1.000000
0.130252 0.837635 1.000000
0.304974 0.818442 1.000000
0.475019 0.797983 1.000000
0.640626 0.777784 1.000000
0.800659 0.756771 0.982035
0.954530 0.735088 0.956789
1.000000 0.716369 0.935318
0.000000 0.992430 1.000000
0.000000 0.969200 1.000000
0.093006 0.946745 1.000000
0.260337 0.923318 0.976644
0.422291 0.899188 0.951679
0.580592 0.877822 0.929624
0.731344 0.852992 0.903882
0.878384 0.830437 0.880533
1.000000 0.817190 0.867042
0.000000 1.000000 0.970785
0.000000 1.000000 0.946054
0.057952 1.000000 0.923308
0.217411 1.000000 0.898686
0.371842 0.985585 0.875239
0.531862 0.980329 0.869536
0.698406 0.982375 0.870294
0.888132 1.000000 0.890382
1.000000 0.988124 0.890814
0.000000 0.000000 0.774007
0.073987 0.000000 0.726927
0.152646 0.000000 0.680376
0.221751 0.000000 0.635964
0.298205 0.000000 0.628055
0.402625 0.000000 0.667966
0.536382 0.000000 0.732173
0.681453 0.000000 0.788418
0.865558 0.000000 0.867269
0.000000 0.051690 0.629402
0.050628 0.047276 0.626204
0.139443 0.046518 0.676422
0.246885 0.045888 0.740763
0.369634 0.043993 0.799558
0.527881 0.042707 0.889843
0.727820 0.040956 1.000000
0.995331 0.038864 1.000000
1.000000 0.034658 1.000000
0.000000 0.141159 0.750359
0.047870 0.147970 0.812496
0.170228 0.160181 0.909991
0.324567 0.173819 1.000000
0.540473 0.196806 1.000000
0.787785 0.212319 1.000000
1.000000 0.218736 1.000000
1.000000 0.213059 1.000000
1.000000 0.196028 1.000000
0.000000 0.312654 1.000000
0.044288 0.362481 1.000000
0.228460 0.394656 1.000000
0.441208 0.416075 1.000000
0.639623 0.407708 1.000000
0.809271 0.384184 1.000000
0.974157 0.364047 1.000000
1.000000 0.347707 1.000000
1.000000 0.334966 1.000000
0.000000 0.617208 1.000000
0.017128 0.599224 1.000000
0.204672 0.570215 1.000000
0.383123 0.545561 1.000000
0.559148 0.527842 1.000000
0.736234 0.514509 1.000000
0.914198 0.502840 1.000000
1.000000 0.491537 1.000000
1.000000 0.477754 1.000000
0.000000 0.725947 1.000000
0.000000 0.707649 1.000000
0.162166 0.695240 1.000000
0.341284 0.682643 1.000000
0.519860 0.670828 1.000000
0.693591 0.655153 1.000000
0.861833 0.637679 1.000000
1.000000 0.619294 1.000000
1.000000 0.601393 1.000000
0.000000 0.862484 1.000000
0.000000 0.849976 1.000000
0.126247 0.830995 1.000000
0.300447 0.812159 1.000000
0.469556 0.791143 1.000000
0.634293 0.770821 1.000000
0.793401 0.749728 1.000000
0.946644 0.728259 1.000000
1.000000 0.708816 1.000000
0.000000 0.985623 1.000000
0.000000 0.962254 1.000000
0.089223 0.939275 1.000000
0.255509 0.914670 1.000000
0.416715 0.891016 1.000000
0.573477 0.868718 1.000000
0.724374 0.845391 1.000000
0.870470 0.822785 1.000000
1.000000 0.819770 1.000000
0.000000 1.000000 1.000000
0.000000 1.000000 1.000000
0.054355 1.000000 1.000000
0.213085 1.000000 1.000000
0.367108 0.978187 1.000000
0.530734 0.980912 1.000000
0.723527 1.000000 1.000000
0.882048 0.999839 1.000000
1.000000 0.981077 1.000000
