_backup/뉴턴_LUT/뉴턴_팝_A.cube
TITLE "newton_pop_A"
LUT_3D_SIZE 33
0.000000 0.000000 0.000000
0.027683 0.000000 0.000000
0.054875 0.000000 0.000000
0.081610 0.000000 0.000000
0.107891 0.000000 0.000000
0.133776 0.000000 0.000000
0.159311 0.000000 0.000000
0.184511 0.000000 0.000000
0.209412 0.000000 0.000000
0.234062 0.000000 0.000000
0.258486 0.000000 0.000000
0.282704 0.000000 0.000000
0.306765 0.000000 0.000000
0.330695 0.000000 0.000000
0.354515 0.000000 0.000000
0.378264 0.000000 0.000000
0.401967 0.000000 0.000000
0.425651 0.000000 0.000000
0.449344 0.000000 0.000000
0.473071 0.000000 0.000000
0.496858 0.000000 0.000000
0.520733 0.000000 0.000000
0.544715 0.000000 0.000000
0.570787 0.000000 0.000000
0.599732 0.000000 0.000000
0.628987 0.000000 0.000000
0.658525 0.000000 0.000000
0.688364 0.000000 0.000000
0.718478 0.000000 0.000000
0.748856 0.000000 0.000000
0.779511 0.000000 0.000000
0.810431 0.000000 0.000000
0.841599 0.000000 0.000000
0.000000 0.027116 0.000000
0.026891 0.026891 0.000000
0.053363 0.026681 0.000000
0.079439 0.026480 0.000000
0.105162 0.026290 0.000000
0.130569 0.026114 0.000000
0.155688 0.025948 0.000000
0.180550 0.025793 0.000000
0.205196 0.025649 0.000000
0.229653 0.025517 0.000000
0.253946 0.025395 0.000000
0.278115 0.025283 0.000000
0.302185 0.025182 0.000000
0.326183 0.025091 0.000000
0.350140 0.025010 0.000000
0.374081 0.024939 0.000000
0.398035 0.024877 0.000000
0.422027 0.024825 0.000000
0.446080 0.024782 0.000000
0.470220 0.024748 0.000000
0.497587 0.024879 0.000000
0.526074 0.025051 0.000000
0.554856 0.025221 0.000000
0.583951 0.025389 0.000000
0.613326 0.025555 0.000000
0.642978 0.025719 0.000000
0.672922 0.025882 0.000000
0.703134 0.026042 0.000000
0.733605 0.026200 0.000000
0.764344 0.026357 0.000000
0.795340 0.026511 0.000000
0.826579 0.026664 0.000000
0.858060 0.026814 0.000000
0.000000 0.052818 0.000000
0.026226 0.052451 0.000000
0.052104 0.052104 0.000000
0.077670 0.051780 0.000000
0.102959 0.051479 0.000000
0.128000 0.051200 0.000000
0.152826 0.050942 0.000000
0.177470 0.050706 0.000000
0.201962 0.050490 0.000000
0.226329 0.050295 0.000000
0.250603 0.050121 0.000000
0.274812 0.049966 0.000000
0.298983 0.049830 0.000000
0.323143 0.049714 0.000000
0.347317 0.049617 0.000000
0.371533 0.049538 0.000000
0.396539 0.049567 0.000000
0.424013 0.049884 0.000000
0.452034 0.050226 0.000000
0.480369 0.050565 0.000000
0.508996 0.050900 0.000000
0.537913 0.051230 0.000000
0.567131 0.051557 0.000000
0.596626 0.051880 0.000000
0.626390 0.052199 0.000000
0.656437 0.052515 0.000000
0.686746 0.052827 0.000000
0.717308 0.053134 0.000000
0.748128 0.053438 0.000000
0.779199 0.053738 0.000000
0.810507 0.054034 0.000000
0.842049 0.054326 0.000000
0.873831 0.054614 0.000000
0.000000 0.077503 0.000000
0.025687 0.077062 0.000000
0.051103 0.076655 0.000000
0.076281 0.076281 0.000000
0.101250 0.075937 0.000000
0.126042 0.075625 0.000000
0.150688 0.075344 0.000000
0.175217 0.075093 0.000000
0.199657 0.074871 0.000000
0.224037 0.074679 0.000000
0.248382 0.074515 0.000000
0.272723 0.074379 0.000000
0.297082 0.074270 0.000000
0.322816 0.074496 0.000000
0.350063 0.075013 0.000000
0.377628 0.075525 0.000000
0.405497 0.076031 0.000000
0.433671 0.076530 0.000000
0.462150 0.077025 0.000000
0.490916 0.077513 0.000000
0.519965 0.077995 0.000000
0.549307 0.078472 0.000000
0.578918 0.078943 0.000000
0.608793 0.079408 0.000000
0.638941 0.079868 0.000000
0.669345 0.080321 0.000000
0.699996 0.080769 0.000000
0.730897 0.081211 0.000000
0.762041 0.081647 0.000000
0.793415 0.082077 0.000000
0.825018 0.082502 0.000000
0.856851 0.082921 0.000000
0.888896 0.083334 0.000000
0.000000 0.101536 0.000000
0.025273 0.101093 0.000000
0.050346 0.100693 0.000000
0.075249 0.100332 0.000000
0.100012 0.100012 0.000000
0.124663 0.099731 0.000000
0.149231 0.099488 0.000000
0.173745 0.099283 0.000000
0.198230 0.099115 0.000000
0.222747 0.098999 0.000000
0.248952 0.099581 0.000000
0.275737 0.100268 0.000000
0.302838 0.100946 0.000000
0.330257 0.101618 0.000000
0.357987 0.102282 0.000000
0.386015 0.102937 0.000000
0.414341 0.103585 0.000000
0.442963 0.104227 0.000000
0.471867 0.104859 0.000000
0.501046 0.105483 0.000000
0.530509 0.106102 0.000000
0.560235 0.106711 0.000000
0.590219 0.107313 0.000000
0.620467 0.107907 0.000000
0.650965 0.108494 0.000000
0.681702 0.109072 0.000000
0.712682 0.109643 0.000000
0.743899 0.110207 0.000000
0.775338 0.110762 0.000000
0.806998 0.111310 0.000000
0.838880 0.111851 0.000000
0.870969 0.112383 0.000000
0.903258 0.112907 0.000000
0.000000 0.125264 0.000000
0.024976 0.124881 0.000000
0.049819 0.124547 0.000000
0.074557 0.124261 0.000000
0.099218 0.124022 0.000000
0.123828 0.123828 0.000000
0.148770 0.123975 0.000000
0.174706 0.124790 0.000000
0.201029 0.125643 0.000000
0.227682 0.126490 0.000000
0.254652 0.127326 0.000000
0.281932 0.128151 0.000000
0.309523 0.128968 0.000000
0.337416 0.129775 0.000000
0.365601 0.130572 0.000000
0.394076 0.131359 0.000000
0.422841 0.132138 0.000000
0.451879 0.132906 0.000000
0.481187 0.133663 0.000000
0.510770 0.134413 0.000000
0.540610 0.135152 0.000000
0.570701 0.135881 0.000000
0.601048 0.136602 0.000000
0.631637 0.137312 0.000000
0.662460 0.138012 0.000000
0.693517 0.138703 0.000000
0.724803 0.139385 0.000000
0.756306 0.140057 0.000000
0.788022 0.140718 0.000000
0.819953 0.141371 0.000000
0.852083 0.142014 0.000000
0.884407 0.142646 0.000000
0.916930 0.143270 0.000000
0.000000 0.149002 0.000000
0.024789 0.148735 0.000000
0.049508 0.148524 0.000000
0.074544 0.149089 0.000000
0.100080 0.150120 0.000000
0.125954 0.151144 0.000000
0.152155 0.152155 0.000000
0.178677 0.153151 0.000000
0.205520 0.154140 0.000000
0.232674 0.155116 0.000000
0.260131 0.156079 0.000000
0.287891 0.157031 0.000000
0.315946 0.157973 0.000000
0.344287 0.158902 0.000000
0.372910 0.159819 0.000000
0.401815 0.160726 0.000000
0.430987 0.161620 0.000000
0.460421 0.162502 0.000000
0.490123 0.163374 0.000000
0.520074 0.164234 0.000000
0.550271 0.165081 0.000000
0.580714 0.165918 0.000000
0.611393 0.166744 0.000000
0.642300 0.167556 0.000000
0.673433 0.168358 0.000000
0.704787 0.169149 0.000000
0.736352 0.169927 0.000000
0.768123 0.170694 0.000000
0.800100 0.171450 0.000000
0.832270 0.172194 0.000000
0.864627 0.172925 0.000000
0.897175 0.173647 0.000000
0.929898 0.174356 0.000000
0.000000 0.174376 0.000000
0.025082 0.175579 0.000000
0.050504 0.176766 0.000000
0.076259 0.177937 0.000000
0.102343 0.179100 0.000000
0.128747 0.180246 0.000000
0.155467 0.181378 0.000000
0.182499 0.182499 0.000000
0.209835 0.183605 0.000000
0.237468 0.184697 0.000000
0.265395 0.185776 0.000000
0.293610 0.186843 0.000000
0.322105 0.187894 0.000000
0.350874 0.188932 0.000000
0.379917 0.189959 0.000000
0.409221 0.190970 0.000000
0.438781 0.191967 0.000000
0.468599 0.192952 0.000000
0.498661 0.193924 0.000000
0.528961 0.194880 0.000000
0.559500 0.195825 0.000000
0.590267 0.196756 0.000000
0.621256 0.197672 0.000000
0.652463 0.198576 0.000000
0.683884 0.199466 0.000000
0.715508 0.200342 0.000000
0.747332 0.201205 0.000000
0.779354 0.202055 0.000000
0.811563 0.202891 0.000000
0.843951 0.203712 0.000000
0.876522 0.204522 0.000000
0.909262 0.205317 0.000000
0.942165 0.206099 0.000000
0.000000 0.203844 0.000000
0.025645 0.205164 0.000000
0.051616 0.206466 0.000000
0.077909 0.207758 0.000000
0.104516 0.209033 0.000000
0.131431 0.210289 0.000000
0.158650 0.211534 0.000000
0.186167 0.212762 0.000000
0.213973 0.213973 0.000000
0.242066 0.215170 0.000000
0.270440 0.216352 0.000000
0.299087 0.217518 0.000000
0.328001 0.218667 0.000000
0.357181 0.219804 0.000000
0.386615 0.220923 0.000000
0.416298 0.222026 0.000000
0.446232 0.223116 0.000000
0.476402 0.224189 0.000000
0.506804 0.225246 0.000000
0.537436 0.226289 0.000000
0.568291 0.227316 0.000000
0.599359 0.228327 0.000000
0.630639 0.229323 0.000000
0.662125 0.230304 0.000000
0.693807 0.231269 0.000000
0.725682 0.232218 0.000000
0.757748 0.233153 0.000000
0.789993 0.234072 0.000000
0.822411 0.234975 0.000000
0.855004 0.235863 0.000000
0.887759 0.236736 0.000000
0.920670 0.237592 0.000000
0.953736 0.238434 0.000000
0.000000 0.234252 0.000000
0.026186 0.235676 0.000000
0.052686 0.237089 0.000000
0.079493 0.238481 0.000000
0.106602 0.239854 0.000000
0.134007 0.241213 0.000000
0.161702 0.242553 0.000000
0.189680 0.243875 0.000000
0.217938 0.245180 0.000000
0.246469 0.246469 0.000000
0.275266 0.247739 0.000000
0.304323 0.248991 0.000000
0.333638 0.250229 0.000000
0.363201 0.251447 0.000000
0.393006 0.252647 0.000000
0.423053 0.253832 0.000000
0.453330 0.254998 0.000000
0.483832 0.256146 0.000000
0.514556 0.257278 0.000000
0.545496 0.258393 0.000000
0.576643 0.259489 0.000000
0.607993 0.260568 0.000000
0.639543 0.261631 0.000000
0.671282 0.262675 0.000000
0.703206 0.263702 0.000000
0.735314 0.264713 0.000000
0.767593 0.265705 0.000000
0.800040 0.266680 0.000000
0.832652 0.267638 0.000000
0.865421 0.268579 0.000000
0.898338 0.269501 0.000000
0.931403 0.270407 0.000000
0.964607 0.271296 0.000000
0.000000 0.265534 0.000000
0.026706 0.267057 0.000000
0.053712 0.268559 0.000000
0.081012 0.270039 0.000000
0.108601 0.271503 0.000000
0.136473 0.272947 0.000000
0.164622 0.274370 0.000000
0.193042 0.275774 0.000000
0.221729 0.277161 0.000000
0.250674 0.278526 0.000000
0.279872 0.279872 0.000000
0.309321 0.281201 0.000000
0.339011 0.282509 0.000000
0.368936 0.283797 0.000000
0.399095 0.285068 0.000000
0.429477 0.286318 0.000000
0.460077 0.287548 0.000000
0.490892 0.288760 0.000000
0.521915 0.289953 0.000000
0.553139 0.291126 0.000000
0.584558 0.292279 0.000000
0.616170 0.293414 0.000000
0.647964 0.294529 0.000000
0.679936 0.295624 0.000000
0.712083 0.296701 0.000000
0.744396 0.297759 0.000000
0.776869 0.298796 0.000000
0.809500 0.299815 0.000000
0.842280 0.300814 0.000000
0.875202 0.301794 0.000000
0.908264 0.302755 0.000000
0.941458 0.303696 0.000000
0.974778 0.304618 0.000000
0.000000 0.297633 0.000000
0.027203 0.299234 0.000000
0.054693 0.300812 0.000000
0.082465 0.302372 0.000000
0.110513 0.303910 0.000000
0.138830 0.305426 0.000000
0.167411 0.306920 0.000000
0.196251 0.308395 0.000000
0.225343 0.309847 0.000000
0.254682 0.311278 0.000000
0.284263 0.312689 0.000000
0.314078 0.314078 0.000000
0.344121 0.315444 0.000000
0.374390 0.316791 0.000000
0.404876 0.318117 0.000000
0.435572 0.319420 0.000000
0.466477 0.320703 0.000000
0.497581 0.321964 0.000000
0.528880 0.323204 0.000000
0.560367 0.324423 0.000000
0.592038 0.325621 0.000000
0.623886 0.326797 0.000000
0.655904 0.327952 0.000000
0.688090 0.329086 0.000000
0.720434 0.330199 0.000000
0.752932 0.331290 0.000000
0.785580 0.332361 0.000000
0.818369 0.333410 0.000000
0.851295 0.334437 0.000000
0.884352 0.335444 0.000000
0.917534 0.336429 0.000000
0.950835 0.337393 0.000000
0.984249 0.338336 0.000000
0.000000 0.330475 0.000000
0.027678 0.332142 0.000000
0.055631 0.333788 0.000000
0.083853 0.335411 0.000000
0.112336 0.337010 0.000000
0.141077 0.338586 0.000000
0.170070 0.340140 0.000000
0.199307 0.341669 0.000000
0.228783 0.343175 0.000000
0.258494 0.344659 0.000000
0.288433 0.346120 0.000000
0.318593 0.347556 0.000000
0.348971 0.348971 0.000000
0.379558 0.350361 0.000000
0.410350 0.351728 0.000000
0.441341 0.353073 0.000000
0.472526 0.354395 0.000000
0.503898 0.355692 0.000000
0.535451 0.356967 0.000000
0.567181 0.358219 0.000000
0.599080 0.359448 0.000000
0.631142 0.360653 0.000000
0.663365 0.361836 0.000000
0.695740 0.362995 0.000000
0.728260 0.364130 0.000000
0.760923 0.365243 0.000000
0.793721 0.366333 0.000000
0.826648 0.367399 0.000000
0.859699 0.368442 0.000000
0.892867 0.369462 0.000000
0.926148 0.370459 0.000000
0.959535 0.371433 0.000000
0.993022 0.372383 0.000000
0.000000 0.363995 0.000000
0.028132 0.365719 0.000000
0.056526 0.367418 0.000000
0.085174 0.369090 0.000000
0.114073 0.370738 0.000000
0.143216 0.372362 0.000000
0.172597 0.373960 0.000000
0.202209 0.375532 0.000000
0.232049 0.377080 0.000000
0.262110 0.378603 0.000000
0.292384 0.380099 0.000000
0.322869 0.381573 0.000000
0.353557 0.383020 0.000000
0.384442 0.384442 0.000000
0.415519 0.385839 0.000000
0.446783 0.387212 0.000000
0.478226 0.388558 0.000000
0.509843 0.389880 0.000000
0.541630 0.391177 0.000000
0.573579 0.392448 0.000000
0.605684 0.393695 0.000000
0.637942 0.394916 0.000000
0.670345 0.396113 0.000000
0.702887 0.397284 0.000000
0.735563 0.398430 0.000000
0.768367 0.399551 0.000000
0.801294 0.400647 0.000000
0.834337 0.401718 0.000000
0.867490 0.402763 0.000000
0.900749 0.403784 0.000000
0.934106 0.404779 0.000000
0.967557 0.405750 0.000000
1.000000 0.406695 0.000000
0.000000 0.398131 0.000000
0.028564 0.399897 0.000000
0.057376 0.401634 0.000000
0.086431 0.403345 0.000000
0.115723 0.405030 0.000000
0.145245 0.406686 0.000000
0.174992 0.408316 0.000000
0.204960 0.409919 0.000000
0.235140 0.411495 0.000000
0.265528 0.413043 0.000000
0.296118 0.414566 0.000000
0.326905 0.416061 0.000000
0.357881 0.417528 0.000000
0.389042 0.418969 0.000000
0.420383 0.420383 0.000000
0.451895 0.421769 0.000000
0.483575 0.423128 0.000000
0.515417 0.424461 0.000000
0.547414 0.425767 0.000000
0.579561 0.427045 0.000000
0.611852 0.428297 0.000000
0.644282 0.429521 0.000000
0.676843 0.430718 0.000000
0.709532 0.431889 0.000000
0.742341 0.433032 0.000000
0.775265 0.434148 0.000000
0.808299 0.435238 0.000000
0.841436 0.436300 0.000000
0.874670 0.437335 0.000000
0.907997 0.438343 0.000000
0.941409 0.439324 0.000000
0.974902 0.440278 0.000000
1.000000 0.441206 0.000000
0.000000 0.432817 0.000000
0.028974 0.434610 0.000000
0.058183 0.436374 0.000000
0.087622 0.438111 0.000000
0.117284 0.439817 0.000000
0.147165 0.441494 0.000000
0.177258 0.443144 0.000000
0.207556 0.444764 0.000000
0.238055 0.446354 0.000000
0.268750 0.447917 0.000000
0.299633 0.449450 0.000000
0.330699 0.450954 0.000000
0.361943 0.452429 0.000000
0.393359 0.453875 0.000000
0.424940 0.455292 0.000000
0.456680 0.456680 0.000000
0.488576 0.458040 0.000000
0.520620 0.459370 0.000000
0.552806 0.460671 0.000000
0.585129 0.461944 0.000000
0.617583 0.463187 0.000000
0.650162 0.464402 0.000000
0.682861 0.465587 0.000000
0.715674 0.466744 0.000000
0.748594 0.467871 0.000000
0.781616 0.468970 0.000000
0.814735 0.470039 0.000000
0.847944 0.471080 0.000000
0.881238 0.472092 0.000000
0.914611 0.473074 0.000000
0.948057 0.474028 0.000000
0.981570 0.474953 0.000000
1.000000 0.475849 0.000000
0.000000 0.467984 0.000000
0.029362 0.469793 0.000000
0.058946 0.471572 0.000000
0.088747 0.473320 0.000000
0.118759 0.475036 0.000000
0.148976 0.476722 0.000000
0.179391 0.478377 0.000000
0.210000 0.480000 0.000000
0.240797 0.481594 0.000000
0.271775 0.483156 0.000000
0.302929 0.484687 0.000000
0.334254 0.486188 0.000000
0.365743 0.487658 0.000000
0.397391 0.489096 0.000000
0.429191 0.490504 0.000000
0.461138 0.491881 0.000000
0.493227 0.493227 0.000000
0.525450 0.494542 0.000000
0.557804 0.495826 0.000000
0.590281 0.497079 0.000000
0.622877 0.498301 0.000000
0.655584 0.499493 0.000000
0.688399 0.500653 0.000000
0.721313 0.501783 0.000000
0.754323 0.502882 0.000000
0.787422 0.503950 0.000000
0.820604 0.504987 0.000000
0.853863 0.505993 0.000000
0.887194 0.506968 0.000000
0.920591 0.507912 0.000000
0.954049 0.508826 0.000000
0.987560 0.509708 0.000000
1.000000 0.510560 0.000000
0.000000 0.503569 0.000000
0.029728 0.505382 0.000000
0.059666 0.507161 0.000000
0.089807 0.508907 0.000000
0.120146 0.510621 0.000000
0.150677 0.512302 0.000000
0.181394 0.513949 0.000000
0.212291 0.515565 0.000000
0.243363 0.517147 0.000000
0.274604 0.518696 0.000000
0.306007 0.520213 0.000000
0.337568 0.521697 0.000000
0.369281 0.523148 0.000000
0.401138 0.524566 0.000000
0.433136 0.525951 0.000000
0.465268 0.527304 0.000000
0.497528 0.528623 0.000000
0.529910 0.529910 0.000000
0.562409 0.531164 0.000000
0.595019 0.532385 0.000000
0.627733 0.533573 0.000000
0.660547 0.534729 0.000000
0.693455 0.535852 0.000000
0.726450 0.536941 0.000000
0.759527 0.537998 0.000000
0.792680 0.539023 0.000000
0.825904 0.540014 0.000000
0.859191 0.540972 0.000000
0.892538 0.541898 0.000000
0.925938 0.542791 0.000000
0.959384 0.543651 0.000000
0.992872 0.544478 0.000000
1.000000 0.545273 0.000000
0.000000 0.539508 0.000000
0.030073 0.541310 0.000000
0.060342 0.543076 0.000000
0.090801 0.544809 0.000000
0.121446 0.546506 0.000000
0.152269 0.548168 0.000000
0.183265 0.549797 0.000000
0.214429 0.551390 0.000000
0.245755 0.552948 0.000000
0.277236 0.554472 0.000000
0.308867 0.555961 0.000000
0.340642 0.557415 0.000000
0.372556 0.558834 0.000000
0.404602 0.560219 0.000000
0.436775 0.561569 0.000000
0.469070 0.562884 0.000000
0.501479 0.564164 0.000000
0.533998 0.565410 0.000000
0.566620 0.566620 0.000000
0.599341 0.567796 0.000000
0.632153 0.568938 0.000000
0.665052 0.570044 0.000000
0.698031 0.571116 0.000000
0.731084 0.572153 0.000000
0.764207 0.573155 0.000000
0.797393 0.574123 0.000000
0.830636 0.575055 0.000000
0.863930 0.575953 0.000000
0.897271 0.576817 0.000000
0.930651 0.577645 0.000000
0.964065 0.578439 0.000000
0.997508 0.579198 0.000000
1.000000 0.579922 0.000000
0.000000 0.575732 0.000000
0.030395 0.577510 0.000000
0.060974 0.579252 0.000000
0.091730 0.580957 0.000000
0.122658 0.582625 0.000000
0.153752 0.584257 0.000000
0.185006 0.585852 0.000000
0.216414 0.587410 0.000000
0.247971 0.588932 0.000000
0.279671 0.590417 0.000000
0.311508 0.591865 0.000000
0.343476 0.593276 0.000000
0.375569 0.594651 0.000000
0.407782 0.595989 0.000000
0.440109 0.597291 0.000000
0.472544 0.598555 0.000000
0.505081 0.599783 0.000000
0.537714 0.600975 0.000000
0.570438 0.602129 0.000000
0.603247 0.603247 0.000000
0.636136 0.604329 0.000000
0.669097 0.605373 0.000000
0.702125 0.606381 0.000000
0.735216 0.607352 0.000000
0.768363 0.608287 0.000000
0.801559 0.609185 0.000000
0.834799 0.610046 0.000000
0.868080 0.610871 0.000000
0.901391 0.611658 0.000000
0.934729 0.612409 0.000000
0.968090 0.613124 0.000000
1.000000 0.613801 0.000000
1.000000 0.614442 0.000000
0.000000 0.612177 0.000000
0.030696 0.613920 0.000000
0.061562 0.615623 0.000000
0.092593 0.617288 0.000000
0.123783 0.618914 0.000000
0.155125 0.620502 0.000000
0.186615 0.622051 0.000000
0.218246 0.623561 0.000000
0.250013 0.625033 0.000000
0.281910 0.626466 0.000000
0.313930 0.627860 0.000000
0.346069 0.629216 0.000000
0.378320 0.630533 0.000000
0.410678 0.631812 0.000000
0.443136 0.633052 0.000000
0.475690 0.634253 0.000000
0.508333 0.635416 0.000000
0.541059 0.636540 0.000000
0.573863 0.637626 0.000000
0.606739 0.638673 0.000000
0.639681 0.639681 0.000000
0.672683 0.640650 0.000000
0.705740 0.641581 0.000000
0.738846 0.642474 0.000000
0.771993 0.643328 0.000000
0.805178 0.644143 0.000000
0.838396 0.644920 0.000000
0.871637 0.645657 0.000000
0.904899 0.646356 0.000000
0.938176 0.647018 0.000000
0.971459 0.647639 0.000000
1.000000 0.648222 0.000000
1.000000 0.648768 0.000000
0.000000 0.648779 0.000000
0.030975 0.650472 0.000000
0.062107 0.652124 0.000000
0.093391 0.653735 0.000000
0.124820 0.655307 0.000000
0.156390 0.656837 0.000000
0.188093 0.658327 0.000000
0.219925 0.659776 0.000000
0.251880 0.661185 0.000000
0.283951 0.662554 0.000000
0.316134 0.663881 0.000000
0.348421 0.665169 0.000000
0.380809 0.666416 0.000000
0.413289 0.667621 0.000000
0.445858 0.668787 0.000000
0.478509 0.669912 0.000000
0.511235 0.670996 0.000000
0.544032 0.672040 0.000000
0.576895 0.673044 0.000000
0.609816 0.674007 0.000000
0.642789 0.674928 0.000000
0.675810 0.675810 0.000000
0.708874 0.676652 0.000000
0.741971 0.677452 0.000000
0.775099 0.678212 0.000000
0.808253 0.678932 0.000000
0.841423 0.679611 0.000000
0.874605 0.680249 0.000000
0.907796 0.680847 0.000000
0.940987 0.681404 0.000000
0.974172 0.681920 0.000000
1.000000 0.682397 0.000000
1.000000 0.682833 0.000000
0.000000 0.685470 0.000000
0.031232 0.687100 0.000000
0.062608 0.688688 0.000000
0.094123 0.690234 0.000000
0.125770 0.691737 0.000000
0.157545 0.693197 0.000000
0.189440 0.694615 0.000000
0.221451 0.695991 0.000000
0.253572 0.697324 0.000000
0.285797 0.698614 0.000000
0.318119 0.699862 0.000000
0.350534 0.701068 0.000000
0.383035 0.702231 0.000000
0.415617 0.703352 0.000000
0.448274 0.704430 0.000000
0.480999 0.705466 0.000000
0.513788 0.706458 0.000000
0.546635 0.707409 0.000000
0.579533 0.708318 0.000000
0.612476 0.709183 0.000000
0.645460 0.710006 0.000000
0.678479 0.710788 0.000000
0.711525 0.711525 0.000000
0.744595 0.712221 0.000000
0.777682 0.712875 0.000000
0.810779 0.713485 0.000000
0.843881 0.714054 0.000000
0.876985 0.714580 0.000000
0.910081 0.715063 0.000000
0.943164 0.715504 0.000000
0.976231 0.715903 0.000000
1.000000 0.716259 0.000000
1.000000 0.716571 0.000000
0.000000 0.722185 0.000000
0.031467 0.723740 0.000000
0.063065 0.725251 0.000000
0.094789 0.726717 0.000000
0.126633 0.728139 0.000000
0.158590 0.729516 0.000000
0.190656 0.730850 0.000000
0.222825 0.732139 0.000000
0.255089 0.733382 0.000000
0.287445 0.734582 0.000000
0.319886 0.735738 0.000000
0.352406 0.736849 0.000000
0.384999 0.737915 0.000000
0.417660 0.738938 0.000000
0.450383 0.739915 0.000000
0.483162 0.740848 0.000000
0.515991 0.741738 0.000000
0.548865 0.742582 0.000000
0.581777 0.743382 0.000000
0.614722 0.744138 0.000000
0.647695 0.744850 0.000000
0.680688 0.745516 0.000000
0.713697 0.746138 0.000000
0.746717 0.746717 0.000000
0.779739 0.747250 0.000000
0.812759 0.747739 0.000000
0.845773 0.748184 0.000000
0.878773 0.748584 0.000000
0.911753 0.748940 0.000000
0.944709 0.749252 0.000000
0.977634 0.749519 0.000000
1.000000 0.749741 0.000000
1.000000 0.749919 0.000000
0.000000 0.758859 0.000000
0.031680 0.760326 0.000000
0.063479 0.761747 0.000000
0.095390 0.763121 0.000000
0.127408 0.764448 0.000000
0.159527 0.765730 0.000000
0.191741 0.766965 0.000000
0.224045 0.768154 0.000000
0.256432 0.769296 0.000000
0.288897 0.770393 0.000000
0.321434 0.771442 0.000000
0.354037 0.772445 0.000000
0.386701 0.773403 0.000000
0.419420 0.774313 0.000000
0.452186 0.775177 0.000000
0.484997 0.775996 0.000000
0.517845 0.776768 0.000000
0.550723 0.777492 0.000000
0.583628 0.778171 0.000000
0.616554 0.778805 0.000000
0.649492 0.779390 0.000000
0.682439 0.779930 0.000000
0.715389 0.780425 0.000000
0.748335 0.780871 0.000000
0.781271 0.781271 0.000000
0.814195 0.781627 0.000000
0.847096 0.781935 0.000000
0.879970 0.782196 0.000000
0.912814 0.782412 0.000000
0.945620 0.782582 0.000000
0.978379 0.782703 0.000000
1.000000 0.782780 0.000000
1.000000 0.782812 0.000000
0.000000 0.795426 0.000000
0.031871 0.796792 0.000000
0.063849 0.798110 0.000000
0.095925 0.799378 0.000000
0.128096 0.800599 0.000000
0.160354 0.801772 0.000000
0.192695 0.802895 0.000000
0.225112 0.803971 0.000000
0.257600 0.805000 0.000000
0.290152 0.805978 0.000000
0.322764 0.806909 0.000000
0.355429 0.807793 0.000000
0.388141 0.808627 0.000000
0.420894 0.809413 0.000000
0.453684 0.810151 0.000000
0.486505 0.810841 0.000000
0.519348 0.811482 0.000000
0.552211 0.812075 0.000000
0.585087 0.812621 0.000000
0.617968 0.813116 0.000000
0.650852 0.813565 0.000000
0.683731 0.813966 0.000000
0.716599 0.814317 0.000000
0.749450 0.814620 0.000000
0.782281 0.814876 0.000000
0.815082 0.815082 0.000000
0.847850 0.815240 0.000000
0.880579 0.815351 0.000000
0.913264 0.815414 0.000000
0.945895 0.815427 0.000000
0.978471 0.815392 0.000000
1.000000 0.815311 0.000000
1.000000 0.815178 0.000000
0.000000 0.831822 0.000000
0.032041 0.833073 0.000000
0.064175 0.834273 0.000000
0.096395 0.835425 0.000000
0.128696 0.836526 0.000000
0.161072 0.837575 0.000000
0.193517 0.838576 0.000000
0.226026 0.839527 0.000000
0.258592 0.840426 0.000000
0.291210 0.841275 0.000000
0.323875 0.842075 0.000000
0.356579 0.842824 0.000000
0.389318 0.843522 0.000000
0.422086 0.844172 0.000000
0.454877 0.844771 0.000000
0.487683 0.845318 0.000000
0.520502 0.845817 0.000000
0.553328 0.846266 0.000000
0.586151 0.846662 0.000000
0.618968 0.847010 0.000000
0.651776 0.847308 0.000000
0.684563 0.847554 0.000000
0.717328 0.847751 0.000000
0.750064 0.847899 0.000000
0.782765 0.847995 0.000000
0.815423 0.848040 0.000000
0.848037 0.848037 0.000000
0.880598 0.847984 0.000000
0.913099 0.847878 0.000000
