_backup/뉴턴_LUT/뉴턴_팝_B.cube
TITLE "newton_pop_B"
LUT_3D_SIZE 33
0.000000 0.000000 0.000000
0.026155 0.000000 0.000000
0.051608 0.000000 0.000000
0.076408 0.000000 0.000000
0.100558 0.000000 0.000000
0.124145 0.000000 0.000000
0.147230 0.000000 0.000000
0.169838 0.000000 0.000000
0.192017 0.000000 0.000000
0.213838 0.000000 0.000000
0.235337 0.000000 0.000000
0.256542 0.000000 0.000000
0.277521 0.000000 0.000000
0.298315 0.000000 0.000000
0.318951 0.000000 0.000000
0.339484 0.000000 0.000000
0.359953 0.000000 0.000000
0.380394 0.000000 0.000000
0.400849 0.000000 0.000000
0.421352 0.000000 0.000000
0.441940 0.000000 0.000000
0.462655 0.000000 0.000000
0.483521 0.000000 0.000000
0.507374 0.000000 0.000000
0.535331 0.000000 0.000000
0.563732 0.000000 0.000000
0.592535 0.000000 0.000000
0.621769 0.000000 0.000000
0.651396 0.000000 0.000000
0.681402 0.000000 0.000000
0.711802 0.000000 0.000000
0.742580 0.000000 0.000000
0.773713 0.000000 0.000000
0.000000 0.025344 0.000000
0.025024 0.025024 0.000000
0.049447 0.024723 0.000000
0.073306 0.024435 0.000000
0.096660 0.024165 0.000000
0.119564 0.023913 0.000000
0.142055 0.023676 0.000000
0.164179 0.023454 0.000000
0.185994 0.023249 0.000000
0.207540 0.023060 0.000000
0.228852 0.022885 0.000000
0.249985 0.022726 0.000000
0.270978 0.022581 0.000000
0.291868 0.022451 0.000000
0.312699 0.022336 0.000000
0.333508 0.022234 0.000000
0.354335 0.022146 0.000000
0.375217 0.022071 0.000000
0.396185 0.022010 0.000000
0.417278 0.021962 0.000000
0.442981 0.022149 0.000000
0.470284 0.022394 0.000000
0.498009 0.022637 0.000000
0.526179 0.022877 0.000000
0.554752 0.023115 0.000000
0.583719 0.023349 0.000000
0.613102 0.023581 0.000000
0.642870 0.023810 0.000000
0.673007 0.024036 0.000000
0.703527 0.024259 0.000000
0.734414 0.024480 0.000000
0.765648 0.024698 0.000000
0.797229 0.024913 0.000000
0.000000 0.048669 0.000000
0.024072 0.048145 0.000000
0.047649 0.047649 0.000000
0.070778 0.047185 0.000000
0.093512 0.046756 0.000000
0.115893 0.046357 0.000000
0.137966 0.045988 0.000000
0.159779 0.045651 0.000000
0.181374 0.045343 0.000000
0.202791 0.045065 0.000000
0.224076 0.044815 0.000000
0.245267 0.044594 0.000000
0.266404 0.044401 0.000000
0.287526 0.044235 0.000000
0.308667 0.044095 0.000000
0.329869 0.043982 0.000000
0.352198 0.044025 0.000000
0.378055 0.044477 0.000000
0.404692 0.044966 0.000000
0.431777 0.045450 0.000000
0.459280 0.045928 0.000000
0.487197 0.046400 0.000000
0.515545 0.046868 0.000000
0.544287 0.047329 0.000000
0.573415 0.047784 0.000000
0.602945 0.048236 0.000000
0.632851 0.048681 0.000000
0.663118 0.049120 0.000000
0.693754 0.049554 0.000000
0.724749 0.049983 0.000000
0.756081 0.050405 0.000000
0.787749 0.050822 0.000000
0.819758 0.051235 0.000000
0.000000 0.070540 0.000000
0.023303 0.069911 0.000000
0.046219 0.069328 0.000000
0.068794 0.068794 0.000000
0.091071 0.068304 0.000000
0.113096 0.067858 0.000000
0.134912 0.067456 0.000000
0.156560 0.067097 0.000000
0.178082 0.066781 0.000000
0.199517 0.066506 0.000000
0.220903 0.066271 0.000000
0.242283 0.066077 0.000000
0.263689 0.065922 0.000000
0.287058 0.066244 0.000000
0.312590 0.066983 0.000000
0.338575 0.067715 0.000000
0.364995 0.068437 0.000000
0.391851 0.069150 0.000000
0.419143 0.069857 0.000000
0.446845 0.070554 0.000000
0.474950 0.071242 0.000000
0.503474 0.071925 0.000000
0.532383 0.072598 0.000000
0.561669 0.073261 0.000000
0.591345 0.073918 0.000000
0.621386 0.074566 0.000000
0.651780 0.075205 0.000000
0.682531 0.075837 0.000000
0.713631 0.076460 0.000000
0.745058 0.077075 0.000000
0.776811 0.077681 0.000000
0.808894 0.078280 0.000000
0.841280 0.078870 0.000000
0.000000 0.091480 0.000000
0.022712 0.090848 0.000000
0.045137 0.090275 0.000000
0.067320 0.089760 0.000000
0.089303 0.089303 0.000000
0.111126 0.088901 0.000000
0.132830 0.088554 0.000000
0.154458 0.088261 0.000000
0.176043 0.088022 0.000000
0.197675 0.087855 0.000000
0.221717 0.088687 0.000000
0.246588 0.089668 0.000000
0.271911 0.090637 0.000000
0.297689 0.091597 0.000000
0.323910 0.092546 0.000000
0.350558 0.093482 0.000000
0.377630 0.094407 0.000000
0.405126 0.095324 0.000000
0.433024 0.096227 0.000000
0.461315 0.097119 0.000000
0.490013 0.098002 0.000000
0.519086 0.098873 0.000000
0.548528 0.099732 0.000000
0.578346 0.100582 0.000000
0.608521 0.101420 0.000000
0.639039 0.102246 0.000000
0.669904 0.103062 0.000000
0.701105 0.103867 0.000000
0.732625 0.104661 0.000000
0.764461 0.105443 0.000000
0.796615 0.106215 0.000000
0.829063 0.106976 0.000000
0.861797 0.107725 0.000000
0.000000 0.111984 0.000000
0.022287 0.111438 0.000000
0.044384 0.110960 0.000000
0.066331 0.110552 0.000000
0.088168 0.110210 0.000000
0.109933 0.109933 0.000000
0.132171 0.110143 0.000000
0.155830 0.111307 0.000000
0.180041 0.112526 0.000000
0.204724 0.113735 0.000000
0.229860 0.114930 0.000000
0.255439 0.116109 0.000000
0.281461 0.117275 0.000000
0.307916 0.118429 0.000000
0.334788 0.119567 0.000000
0.362074 0.120691 0.000000
0.389772 0.121804 0.000000
0.417863 0.122901 0.000000
0.446339 0.123983 0.000000
0.475207 0.125054 0.000000
0.504443 0.126111 0.000000
0.534037 0.127152 0.000000
0.563997 0.128181 0.000000
0.594302 0.129196 0.000000
0.624942 0.130196 0.000000
0.655917 0.131183 0.000000
0.687219 0.132157 0.000000
0.718830 0.133116 0.000000
0.750746 0.134062 0.000000
0.782968 0.134994 0.000000
0.815476 0.135912 0.000000
0.848260 0.136816 0.000000
0.881328 0.137707 0.000000
0.000000 0.132503 0.000000
0.022020 0.132121 0.000000
0.043940 0.131820 0.000000
0.066313 0.132627 0.000000
0.089400 0.134100 0.000000
0.112969 0.135563 0.000000
0.137007 0.137007 0.000000
0.161502 0.138431 0.000000
0.186457 0.139843 0.000000
0.211856 0.141237 0.000000
0.237688 0.142613 0.000000
0.263951 0.143973 0.000000
0.290637 0.145319 0.000000
0.317731 0.146645 0.000000
0.345229 0.147955 0.000000
0.373128 0.149251 0.000000
0.401410 0.150529 0.000000
0.430066 0.151788 0.000000
0.459104 0.153035 0.000000
0.488499 0.154263 0.000000
0.518244 0.155473 0.000000
0.548342 0.156669 0.000000
0.578776 0.157848 0.000000
0.609536 0.159009 0.000000
0.640619 0.160155 0.000000
0.672018 0.161284 0.000000
0.703717 0.162396 0.000000
0.735711 0.163491 0.000000
0.768000 0.164571 0.000000
0.800564 0.165634 0.000000
0.833396 0.166679 0.000000
0.866500 0.167709 0.000000
0.899855 0.168723 0.000000
0.000000 0.155359 0.000000
0.022439 0.157077 0.000000
0.045363 0.158772 0.000000
0.068762 0.160446 0.000000
0.092632 0.162107 0.000000
0.116960 0.163745 0.000000
0.141738 0.165361 0.000000
0.166962 0.166962 0.000000
0.192621 0.168544 0.000000
0.218704 0.170103 0.000000
0.245207 0.171645 0.000000
0.272122 0.173168 0.000000
0.299435 0.174670 0.000000
0.327142 0.176153 0.000000
0.355239 0.177619 0.000000
0.383709 0.179064 0.000000
0.412544 0.180488 0.000000
0.441749 0.181896 0.000000
0.471301 0.183284 0.000000
0.501194 0.184650 0.000000
0.531428 0.186000 0.000000
0.561989 0.187330 0.000000
0.592865 0.188639 0.000000
0.624054 0.189929 0.000000
0.655548 0.191202 0.000000
0.687333 0.192453 0.000000
0.719403 0.193685 0.000000
0.751756 0.194900 0.000000
0.784375 0.196094 0.000000
0.817252 0.197268 0.000000
0.850389 0.198424 0.000000
0.883767 0.199560 0.000000
0.917379 0.200677 0.000000
0.000000 0.184063 0.000000
0.023243 0.185949 0.000000
0.046952 0.187809 0.000000
0.071120 0.189655 0.000000
0.095737 0.191475 0.000000
0.120794 0.193270 0.000000
0.146286 0.195048 0.000000
0.172202 0.196803 0.000000
0.198533 0.198533 0.000000
0.225273 0.200243 0.000000
0.252415 0.201932 0.000000
0.279945 0.203597 0.000000
0.307859 0.205239 0.000000
0.336151 0.206862 0.000000
0.364808 0.208461 0.000000
0.393819 0.210037 0.000000
0.423188 0.211594 0.000000
0.452896 0.213127 0.000000
0.482934 0.214637 0.000000
0.513302 0.216127 0.000000
0.543987 0.217595 0.000000
0.574977 0.219039 0.000000
0.606270 0.220462 0.000000
0.637857 0.221863 0.000000
0.669725 0.223242 0.000000
0.701868 0.224598 0.000000
0.734283 0.225933 0.000000
0.766954 0.227246 0.000000
0.799874 0.228535 0.000000
0.833041 0.229804 0.000000
0.866441 0.231051 0.000000
0.900064 0.232275 0.000000
0.933908 0.233477 0.000000
0.000000 0.214110 0.000000
0.024016 0.216145 0.000000
0.048480 0.218162 0.000000
0.073383 0.220151 0.000000
0.098716 0.222113 0.000000
0.124474 0.224054 0.000000
0.150646 0.225969 0.000000
0.177222 0.227857 0.000000
0.204197 0.229722 0.000000
0.231563 0.231563 0.000000
0.259308 0.233377 0.000000
0.287426 0.235166 0.000000
0.315912 0.236934 0.000000
0.344752 0.238674 0.000000
0.373937 0.240388 0.000000
0.403468 0.242081 0.000000
0.433329 0.243747 0.000000
0.463510 0.245387 0.000000
0.494009 0.247005 0.000000
0.524816 0.248597 0.000000
0.555918 0.250163 0.000000
0.587312 0.251705 0.000000
0.618989 0.253223 0.000000
0.650938 0.254715 0.000000
0.683152 0.256182 0.000000
0.715627 0.257625 0.000000
0.748348 0.259043 0.000000
0.781307 0.260436 0.000000
0.814503 0.261805 0.000000
0.847922 0.263148 0.000000
0.881555 0.264466 0.000000
0.915397 0.265760 0.000000
0.949439 0.267030 0.000000
0.000000 0.245406 0.000000
0.024758 0.247582 0.000000
0.049945 0.249727 0.000000
0.075552 0.251841 0.000000
0.101573 0.253933 0.000000
0.127998 0.255995 0.000000
0.154817 0.258028 0.000000
0.182024 0.260035 0.000000
0.209612 0.262016 0.000000
0.237570 0.263966 0.000000
0.265889 0.265889 0.000000
0.294566 0.267787 0.000000
0.323587 0.269656 0.000000
0.352944 0.271495 0.000000
0.382635 0.273311 0.000000
0.412646 0.275097 0.000000
0.442967 0.276854 0.000000
0.473596 0.278586 0.000000
0.504522 0.280290 0.000000
0.535734 0.281965 0.000000
0.567226 0.283613 0.000000
0.598992 0.285234 0.000000
0.631020 0.286827 0.000000
0.663301 0.288392 0.000000
0.695833 0.289931 0.000000
0.728602 0.291441 0.000000
0.761599 0.292923 0.000000
0.794822 0.294378 0.000000
0.828257 0.295806 0.000000
0.861896 0.297206 0.000000
0.895734 0.298578 0.000000
0.929762 0.299923 0.000000
0.963968 0.301240 0.000000
0.000000 0.277868 0.000000
0.025468 0.280156 0.000000
0.051347 0.282411 0.000000
0.077628 0.284639 0.000000
0.104304 0.286836 0.000000
0.131364 0.289001 0.000000
0.158801 0.291136 0.000000
0.186609 0.293243 0.000000
0.214776 0.295317 0.000000
0.243295 0.297361 0.000000
0.272161 0.299377 0.000000
0.301361 0.301361 0.000000
0.330887 0.303313 0.000000
0.360735 0.305238 0.000000
0.390894 0.307131 0.000000
0.421353 0.308992 0.000000
0.452109 0.310825 0.000000
0.483152 0.312628 0.000000
0.514471 0.314399 0.000000
0.546060 0.316140 0.000000
0.577912 0.317851 0.000000
0.610015 0.319532 0.000000
0.642363 0.321181 0.000000
0.674950 0.322802 0.000000
0.707764 0.324392 0.000000
0.740796 0.325950 0.000000
0.774043 0.327479 0.000000
0.807492 0.328978 0.000000
0.841135 0.330446 0.000000
0.874967 0.331884 0.000000
0.908977 0.333292 0.000000
0.943157 0.334669 0.000000
0.977499 0.336015 0.000000
0.000000 0.311392 0.000000
0.026147 0.313774 0.000000
0.052687 0.316126 0.000000
0.079611 0.318445 0.000000
0.106909 0.320728 0.000000
0.134575 0.322980 0.000000
0.162600 0.325200 0.000000
0.190974 0.327384 0.000000
0.219690 0.329535 0.000000
0.248742 0.331656 0.000000
0.278119 0.333742 0.000000
0.307811 0.335794 0.000000
0.337815 0.337815 0.000000
0.368119 0.339802 0.000000
0.398714 0.341755 0.000000
0.429595 0.343676 0.000000
0.460752 0.345564 0.000000
0.492175 0.347418 0.000000
0.523858 0.349239 0.000000
0.555794 0.351028 0.000000
0.587971 0.352783 0.000000
0.620382 0.354504 0.000000
0.653022 0.356194 0.000000
0.685878 0.357849 0.000000
0.718943 0.359472 0.000000
0.752212 0.361062 0.000000
0.785673 0.362618 0.000000
0.819318 0.364141 0.000000
0.853141 0.365632 0.000000
0.887132 0.367089 0.000000
0.921283 0.368513 0.000000
0.955585 0.369904 0.000000
0.990032 0.371262 0.000000
0.000000 0.345885 0.000000
0.026796 0.348348 0.000000
0.053965 0.350775 0.000000
0.081499 0.353165 0.000000
0.109390 0.355519 0.000000
0.137630 0.357839 0.000000
0.166209 0.360121 0.000000
0.195120 0.362367 0.000000
0.224356 0.364579 0.000000
0.253907 0.366754 0.000000
0.283763 0.368892 0.000000
0.313920 0.370997 0.000000
0.344367 0.373065 0.000000
0.375096 0.375096 0.000000
0.406099 0.377092 0.000000
0.437368 0.379052 0.000000
0.468894 0.380976 0.000000
0.500668 0.382864 0.000000
0.532685 0.384717 0.000000
0.564934 0.386534 0.000000
0.597406 0.388314 0.000000
0.630096 0.390059 0.000000
0.662992 0.391768 0.000000
0.696088 0.393441 0.000000
0.729376 0.395079 0.000000
0.762846 0.396680 0.000000
0.796491 0.398245 0.000000
0.830302 0.399775 0.000000
0.864272 0.401269 0.000000
0.898391 0.402727 0.000000
0.932652 0.404149 0.000000
0.967046 0.405535 0.000000
1.000000 0.406886 0.000000
0.000000 0.381259 0.000000
0.027413 0.383781 0.000000
0.055180 0.386263 0.000000
0.083294 0.388707 0.000000
0.111747 0.391114 0.000000
0.140529 0.393481 0.000000
0.169632 0.395808 0.000000
0.199049 0.398099 0.000000
0.228771 0.400350 0.000000
0.258789 0.402562 0.000000
0.289098 0.404737 0.000000
0.319685 0.406872 0.000000
0.350544 0.408968 0.000000
0.381668 0.411027 0.000000
0.413047 0.413047 0.000000
0.444672 0.415027 0.000000
0.476536 0.416969 0.000000
0.508632 0.418873 0.000000
0.540949 0.420738 0.000000
0.573480 0.422564 0.000000
0.606218 0.424352 0.000000
0.639153 0.426102 0.000000
0.672276 0.427812 0.000000
0.705581 0.429484 0.000000
0.739058 0.431117 0.000000
0.772700 0.432712 0.000000
0.806498 0.434268 0.000000
0.840444 0.435786 0.000000
0.874529 0.437264 0.000000
0.908745 0.438705 0.000000
0.943085 0.440106 0.000000
0.977539 0.441469 0.000000
1.000000 0.442794 0.000000
0.000000 0.417417 0.000000
0.027998 0.419978 0.000000
0.056333 0.422499 0.000000
0.084996 0.424980 0.000000
0.113978 0.427418 0.000000
0.143271 0.429813 0.000000
0.172868 0.432170 0.000000
0.202759 0.434484 0.000000
0.232936 0.436756 0.000000
0.263393 0.438989 0.000000
0.294119 0.441179 0.000000
0.325106 0.443327 0.000000
0.356347 0.445434 0.000000
0.387834 0.447501 0.000000
0.419557 0.449525 0.000000
0.451508 0.451508 0.000000
0.483680 0.453450 0.000000
0.516064 0.455350 0.000000
0.548651 0.457209 0.000000
0.581434 0.459027 0.000000
0.614405 0.460803 0.000000
0.647553 0.462538 0.000000
0.680873 0.464232 0.000000
0.714355 0.465884 0.000000
0.747992 0.467495 0.000000
0.781774 0.469064 0.000000
0.815693 0.470592 0.000000
0.849742 0.472079 0.000000
0.883912 0.473524 0.000000
0.918194 0.474928 0.000000
0.952581 0.476290 0.000000
0.987064 0.477612 0.000000
1.000000 0.478891 0.000000
0.000000 0.454263 0.000000
0.028553 0.456847 0.000000
0.057423 0.459389 0.000000
0.086603 0.461885 0.000000
0.116084 0.464336 0.000000
0.145858 0.466746 0.000000
0.175916 0.469110 0.000000
0.206250 0.471429 0.000000
0.236853 0.473706 0.000000
0.267715 0.475938 0.000000
0.298828 0.478125 0.000000
0.330184 0.480268 0.000000
0.361776 0.482368 0.000000
0.393594 0.484423 0.000000
0.425630 0.486434 0.000000
0.457876 0.488401 0.000000
0.490324 0.490324 0.000000
0.522965 0.492202 0.000000
0.555792 0.494037 0.000000
0.588795 0.495827 0.000000
0.621967 0.497573 0.000000
0.655299 0.499276 0.000000
0.688784 0.500933 0.000000
0.722412 0.502547 0.000000
0.756176 0.504117 0.000000
0.790066 0.505642 0.000000
0.824076 0.507124 0.000000
0.858197 0.508561 0.000000
0.892420 0.509954 0.000000
0.926737 0.511303 0.000000
0.961141 0.512609 0.000000
0.995621 0.513869 0.000000
1.000000 0.515085 0.000000
0.000000 0.491706 0.000000
0.029076 0.494296 0.000000
0.058451 0.496837 0.000000
0.088117 0.499331 0.000000
0.118066 0.501780 0.000000
0.148288 0.504181 0.000000
0.178777 0.506535 0.000000
0.209523 0.508843 0.000000
0.240519 0.511103 0.000000
0.271755 0.513316 0.000000
0.303225 0.515483 0.000000
0.334919 0.517603 0.000000
0.366829 0.519675 0.000000
0.398948 0.521701 0.000000
0.431266 0.523680 0.000000
0.463775 0.525612 0.000000
0.496468 0.527497 0.000000
0.529336 0.529336 0.000000
0.562370 0.531127 0.000000
0.595562 0.532872 0.000000
0.628905 0.534569 0.000000
0.662389 0.536220 0.000000
0.696007 0.537824 0.000000
0.729750 0.539381 0.000000
0.763610 0.540890 0.000000
0.797579 0.542354 0.000000
0.831649 0.543770 0.000000
0.865809 0.545139 0.000000
0.900054 0.546462 0.000000
0.934376 0.547738 0.000000
0.968763 0.548966 0.000000
1.000000 0.550147 0.000000
1.000000 0.551283 0.000000
0.000000 0.529654 0.000000
0.029568 0.532228 0.000000
0.059416 0.534751 0.000000
0.089537 0.537227 0.000000
0.119922 0.539652 0.000000
0.150563 0.542026 0.000000
0.181450 0.544352 0.000000
0.212577 0.546628 0.000000
0.243935 0.548854 0.000000
0.275515 0.551031 0.000000
0.307310 0.553158 0.000000
0.339310 0.555235 0.000000
0.371508 0.557263 0.000000
0.403896 0.559241 0.000000
0.436465 0.561169 0.000000
0.469207 0.563048 0.000000
0.502113 0.564877 0.000000
0.535176 0.566656 0.000000
0.568386 0.568386 0.000000
0.601737 0.570066 0.000000
0.635218 0.571697 0.000000
0.668824 0.573278 0.000000
0.702544 0.574809 0.000000
0.736370 0.576290 0.000000
0.770296 0.577722 0.000000
0.804312 0.579104 0.000000
0.838408 0.580436 0.000000
0.872579 0.581719 0.000000
0.906816 0.582953 0.000000
0.941108 0.584136 0.000000
0.975449 0.585270 0.000000
1.000000 0.586354 0.000000
1.000000 0.587389 0.000000
0.000000 0.568011 0.000000
0.030029 0.570550 0.000000
0.060320 0.573039 0.000000
0.090864 0.575475 0.000000
0.121654 0.577858 0.000000
0.152681 0.580189 0.000000
0.183937 0.582468 0.000000
0.215413 0.584693 0.000000
0.247102 0.586867 0.000000
0.278994 0.588988 0.000000
0.311082 0.591057 0.000000
0.343358 0.593074 0.000000
0.375813 0.595037 0.000000
0.408439 0.596949 0.000000
0.441227 0.598808 0.000000
0.474170 0.600615 0.000000
0.507258 0.602369 0.000000
0.540485 0.604071 0.000000
0.573841 0.605721 0.000000
0.607318 0.607318 0.000000
0.640908 0.608863 0.000000
0.674603 0.610355 0.000000
0.708393 0.611794 0.000000
0.742273 0.613182 0.000000
0.776233 0.614517 0.000000
0.810262 0.615799 0.000000
0.844356 0.617030 0.000000
0.878507 0.618208 0.000000
0.912701 0.619333 0.000000
0.946935 0.620405 0.000000
0.981200 0.621427 0.000000
1.000000 0.622395 0.000000
1.000000 0.623310 0.000000
0.000000 0.606682 0.000000
0.030458 0.609171 0.000000
0.061160 0.611605 0.000000
0.092097 0.613983 0.000000
0.123261 0.616306 0.000000
0.154643 0.618574 0.000000
0.186236 0.620787 0.000000
0.218030 0.622945 0.000000
0.250019 0.625047 0.000000
0.282192 0.627094 0.000000
0.314543 0.629086 0.000000
0.347063 0.631023 0.000000
0.379743 0.632905 0.000000
0.412576 0.634732 0.000000
0.445552 0.636503 0.000000
0.478664 0.638219 0.000000
0.511904 0.639880 0.000000
0.545263 0.641486 0.000000
0.578733 0.643037 0.000000
0.612306 0.644532 0.000000
0.645973 0.645973 0.000000
0.679725 0.647358 0.000000
0.713557 0.648688 0.000000
0.747458 0.649963 0.000000
0.781419 0.651182 0.000000
0.815433 0.652347 0.000000
0.849494 0.653457 0.000000
0.883589 0.654510 0.000000
0.917713 0.655509 0.000000
0.951858 0.656454 0.000000
0.986013 0.657342 0.000000
1.000000 0.658175 0.000000
1.000000 0.658954 0.000000
0.000000 0.645577 0.000000
0.030857 0.647995 0.000000
0.061938 0.650355 0.000000
0.093236 0.652658 0.000000
0.124743 0.654902 0.000000
0.156449 0.657089 0.000000
0.188347 0.659217 0.000000
0.220429 0.661288 0.000000
0.252686 0.663300 0.000000
0.285109 0.665255 0.000000
0.317691 0.667152 0.000000
0.350424 0.668991 0.000000
0.383298 0.670772 0.000000
0.416306 0.672495 0.000000
0.449440 0.674160 0.000000
0.482691 0.675767 0.000000
0.516050 0.677316 0.000000
0.549511 0.678807 0.000000
0.583064 0.680241 0.000000
0.616701 0.681617 0.000000
0.650413 0.682934 0.000000
0.684193 0.684193 0.000000
0.718034 0.685396 0.000000
0.751923 0.686538 0.000000
0.785856 0.687624 0.000000
0.819825 0.688653 0.000000
0.853818 0.689622 0.000000
0.887829 0.690534 0.000000
0.921852 0.691389 0.000000
0.955874 0.692185 0.000000
0.989889 0.692922 0.000000
1.000000 0.693603 0.000000
1.000000 0.694226 0.000000
0.000000 0.684600 0.000000
0.031224 0.686929 0.000000
0.062654 0.689197 0.000000
0.094282 0.691405 0.000000
0.126100 0.693552 0.000000
0.158099 0.695639 0.000000
0.190272 0.697664 0.000000
0.222609 0.699630 0.000000
0.255103 0.701534 0.000000
0.287745 0.703377 0.000000
0.320527 0.705160 0.000000
0.353441 0.706883 0.000000
0.386478 0.708544 0.000000
0.419631 0.710145 0.000000
0.452891 0.711686 0.000000
0.486249 0.713165 0.000000
0.519697 0.714583 0.000000
0.553228 0.715942 0.000000
0.586833 0.717240 0.000000
0.620502 0.718476 0.000000
0.654229 0.719652 0.000000
0.688006 0.720769 0.000000
0.721822 0.721822 0.000000
0.755671 0.722816 0.000000
0.789546 0.723751 0.000000
0.823434 0.724622 0.000000
0.857331 0.725434 0.000000
0.891228 0.726186 0.000000
0.925115 0.726876 0.000000
0.958984 0.727505 0.000000
0.992830 0.728075 0.000000
1.000000 0.728584 0.000000
1.000000 0.729031 0.000000
0.000000 0.723657 0.000000
0.031560 0.725879 0.000000
0.063307 0.728037 0.000000
0.095234 0.730132 0.000000
0.127332 0.732163 0.000000
0.159593 0.734131 0.000000
0.192009 0.736035 0.000000
0.224571 0.737877 0.000000
0.257270 0.739653 0.000000
0.290100 0.741367 0.000000
0.323051 0.743019 0.000000
0.356115 0.744605 0.000000
0.389284 0.746129 0.000000
0.422550 0.747590 0.000000
0.455904 0.748986 0.000000
0.489338 0.750319 0.000000
0.522845 0.751589 0.000000
0.556414 0.752796 0.000000
0.590038 0.753938 0.000000
0.623710 0.755018 0.000000
0.657422 0.756035 0.000000
0.691162 0.756986 0.000000
0.724924 0.757876 0.000000
0.758703 0.758703 0.000000
0.792484 0.759464 0.000000
0.826263 0.760162 0.000000
0.860033 0.760799 0.000000
0.893783 0.761370 0.000000
0.927504 0.761878 0.000000
0.961191 0.762324 0.000000
0.994834 0.762706 0.000000
1.000000 0.763023 0.000000
1.000000 0.763278 0.000000
0.000000 0.762656 0.000000
0.031864 0.764751 0.000000
0.063898 0.766781 0.000000
0.096093 0.768744 0.000000
0.128440 0.770640 0.000000
0.160931 0.772471 0.000000
0.193559 0.774236 0.000000
0.226314 0.775934 0.000000
0.259188 0.777566 0.000000
0.292174 0.779133 0.000000
0.325263 0.780631 0.000000
0.358446 0.782064 0.000000
0.391716 0.783433 0.000000
0.425064 0.784733 0.000000
0.458481 0.785967 0.000000
0.491960 0.787136 0.000000
0.525493 0.788239 0.000000
0.559069 0.789274 0.000000
0.592683 0.790245 0.000000
0.626327 0.791150 0.000000
0.659988 0.791986 0.000000
0.693662 0.792757 0.000000
0.727342 0.793464 0.000000
0.761014 0.794101 0.000000
0.794673 0.794673 0.000000
0.828314 0.795181 0.000000
0.861923 0.795621 0.000000
0.895493 0.795994 0.000000
0.929020 0.796303 0.000000
0.962492 0.796545 0.000000
0.995899 0.796719 0.000000
1.000000 0.796829 0.000000
1.000000 0.796874 0.000000
0.000000 0.801502 0.000000
0.032138 0.803453 0.000000
0.064426 0.805335 0.000000
0.096857 0.807147 0.000000
0.129422 0.808891 0.000000
0.162113 0.810567 0.000000
0.194921 0.812172 0.000000
0.227838 0.813709 0.000000
0.260857 0.815178 0.000000
0.293967 0.816576 0.000000
0.327162 0.817906 0.000000
0.360434 0.819168 0.000000
0.393773 0.820360 0.000000
0.427171 0.821482 0.000000
0.460621 0.822537 0.000000
0.494114 0.823523 0.000000
0.527640 0.824438 0.000000
0.561194 0.825286 0.000000
0.594767 0.826066 0.000000
0.628348 0.826773 0.000000
0.661931 0.827414 0.000000
0.695509 0.827987 0.000000
0.729069 0.828488 0.000000
0.762607 0.828921 0.000000
0.796115 0.829287 0.000000
0.829582 0.829582 0.000000
0.863000 0.829807 0.000000
0.896363 0.829966 0.000000
0.929663 0.830056 0.000000
0.962885 0.830074 0.000000
0.996030 0.830025 0.000000
1.000000 0.829909 0.000000
1.000000 0.829719 0.000000
0.000000 0.840102 0.000000
0.032380 0.841890 0.000000
0.064892 0.843605 0.000000
0.097528 0.845249 0.000000
0.130280 0.846823 0.000000
0.163139 0.848322 0.000000
0.196096 0.849751 0.000000
0.229145 0.851110 0.000000
0.262275 0.852394 0.000000
0.295479 0.853607 0.000000
0.328750 0.854750 0.000000
0.362078 0.855820 0.000000
0.395454 0.856818 0.000000
0.428873 0.857745 0.000000
0.462324 0.858601 0.000000
0.495798 0.859383 0.000000
0.529289 0.860095 0.000000
0.562789 0.860737 0.000000
0.596287 0.861303 0.000000
0.629776 0.861799 0.000000
0.663251 0.862226 0.000000
0.696697 0.862578 0.000000
0.730111 0.862858 0.000000
0.763484 0.863069 0.000000
0.796806 0.863207 0.000000
0.830069 0.863272 0.000000
0.863267 0.863267 0.000000
0.896391 0.863191 0.000000
0.929428 0.863040 0.000000
