_backup/뉴턴_LUT/뉴턴_룩_유니버설.cube
TITLE "newton_look_universal"
LUT_3D_SIZE 33
0.000000 0.000000 0.000000
0.032040 0.000000 0.000000
0.063740 0.000000 0.000000
0.095122 0.000000 0.000000
0.126189 0.000000 0.000000
0.156981 0.000000 0.000000
0.187530 0.000000 0.000000
0.217847 0.000000 0.000000
0.247956 0.000000 0.000000
0.277890 0.000000 0.000000
0.307668 0.000000 0.000000
0.337303 0.000000 0.000000
0.366829 0.000000 0.000000
0.396264 0.000000 0.000000
0.425622 0.000000 0.000000
0.454931 0.000000 0.000000
0.484208 0.000000 0.000000
0.513472 0.000000 0.000000
0.542742 0.000000 0.000000
0.572036 0.000000 0.000000
0.601372 0.000000 0.000000
0.630768 0.000000 0.000000
0.660239 0.000000 0.000000
0.691161 0.000000 0.000000
0.724078 0.000000 0.000000
0.757210 0.000000 0.000000
0.790537 0.000000 0.000000
0.824075 0.000000 0.000000
0.857803 0.000000 0.000000
0.891715 0.000000 0.000000
0.925819 0.000000 0.000000
0.960107 0.000000 0.000000
0.994567 0.000000 0.000000
0.000000 0.029875 0.000000
0.028638 0.028638 0.000000
0.058832 0.028039 0.000000
0.089560 0.027222 0.000000
0.120201 0.026350 0.000000
0.150661 0.025473 0.000000
0.180931 0.024599 0.000000
0.211027 0.023733 0.000000
0.240973 0.022877 0.000000
0.270788 0.022031 0.000000
0.300488 0.021193 0.000000
0.330100 0.020364 0.000000
0.359643 0.019544 0.000000
0.389135 0.018731 0.000000
0.418598 0.017925 0.000000
0.448049 0.017126 0.000000
0.477507 0.016333 0.000000
0.506991 0.015546 0.000000
0.536516 0.014763 0.000000
0.566100 0.013985 0.000000
0.597911 0.013259 0.000000
0.630494 0.012540 0.000000
0.663284 0.011814 0.000000
0.696289 0.011081 0.000000
0.729490 0.010342 0.000000
0.762883 0.009597 0.000000
0.796479 0.008845 0.000000
0.830261 0.008088 0.000000
0.864224 0.007324 0.000000
0.898372 0.006555 0.000000
0.932699 0.005779 0.000000
0.967194 0.004998 0.000000
1.000000 0.004212 0.000000
0.000000 0.058824 0.000000
0.025382 0.057688 0.000000
0.056215 0.056215 0.000000
0.085447 0.055630 0.000000
0.115209 0.054909 0.000000
0.145156 0.054086 0.000000
0.175099 0.053221 0.000000
0.204981 0.052345 0.000000
0.234787 0.051470 0.000000
0.264522 0.050601 0.000000
0.294200 0.049741 0.000000
0.323836 0.048892 0.000000
0.353448 0.048054 0.000000
0.383052 0.047227 0.000000
0.412665 0.046411 0.000000
0.442307 0.045605 0.000000
0.472487 0.044856 0.000000
0.504356 0.044253 0.000000
0.536601 0.043656 0.000000
0.569065 0.043052 0.000000
0.601732 0.042439 0.000000
0.634601 0.041818 0.000000
0.667679 0.041189 0.000000
0.700949 0.040553 0.000000
0.734408 0.039909 0.000000
0.768062 0.039257 0.000000
0.801898 0.038599 0.000000
0.835911 0.037932 0.000000
0.870104 0.037259 0.000000
0.904470 0.036579 0.000000
0.939001 0.035892 0.000000
0.973696 0.035198 0.000000
1.000000 0.034498 0.000000
0.000000 0.087106 0.000000
0.022099 0.085932 0.000000
0.052967 0.084786 0.000000
0.083139 0.083139 0.000000
0.111841 0.082561 0.000000
0.140956 0.081927 0.000000
0.170371 0.081199 0.000000
0.199929 0.080414 0.000000
0.229548 0.079603 0.000000
0.259194 0.078782 0.000000
0.288855 0.077961 0.000000
0.318537 0.077147 0.000000
0.348246 0.076343 0.000000
0.378889 0.075728 0.000000
0.410564 0.075274 0.000000
0.442465 0.074809 0.000000
0.474581 0.074331 0.000000
0.506912 0.073842 0.000000
0.539457 0.073343 0.000000
0.572204 0.072834 0.000000
0.605148 0.072314 0.000000
0.638296 0.071786 0.000000
0.671633 0.071248 0.000000
0.705154 0.070701 0.000000
0.738865 0.070145 0.000000
0.772755 0.069581 0.000000
0.806816 0.069007 0.000000
0.841052 0.068426 0.000000
0.875458 0.067836 0.000000
0.910023 0.067238 0.000000
0.944748 0.066631 0.000000
0.979633 0.066017 0.000000
1.000000 0.065395 0.000000
0.000000 0.114961 0.000000
0.018943 0.113794 0.000000
0.049569 0.112659 0.000000
0.080074 0.111553 0.000000
0.109781 0.109781 0.000000
0.138210 0.109245 0.000000
0.166972 0.108705 0.000000
0.196073 0.108096 0.000000
0.225410 0.107431 0.000000
0.254931 0.106741 0.000000
0.285668 0.106441 0.000000
0.316866 0.106173 0.000000
0.348329 0.105875 0.000000
0.380045 0.105553 0.000000
0.411998 0.105211 0.000000
0.444174 0.104850 0.000000
0.476569 0.104473 0.000000
0.509178 0.104083 0.000000
0.541989 0.103678 0.000000
0.574998 0.103260 0.000000
0.608207 0.102831 0.000000
0.641602 0.102390 0.000000
0.675180 0.101937 0.000000
0.708942 0.101474 0.000000
0.742880 0.101000 0.000000
0.776987 0.100516 0.000000
0.811263 0.100021 0.000000
0.845705 0.099518 0.000000
0.880302 0.099004 0.000000
0.915055 0.098480 0.000000
0.949962 0.097948 0.000000
0.985014 0.097406 0.000000
1.000000 0.096855 0.000000
0.000000 0.142616 0.000000
0.015884 0.141494 0.000000
0.046345 0.140407 0.000000
0.076728 0.139354 0.000000
0.107054 0.138333 0.000000
0.136477 0.136477 0.000000
0.165054 0.136208 0.000000
0.194559 0.136359 0.000000
0.224656 0.136459 0.000000
0.255242 0.136475 0.000000
0.286235 0.136420 0.000000
0.317575 0.136307 0.000000
0.349222 0.136149 0.000000
0.381144 0.135955 0.000000
0.413317 0.135730 0.000000
0.445726 0.135479 0.000000
0.478361 0.135206 0.000000
0.511206 0.134913 0.000000
0.544254 0.134601 0.000000
0.577504 0.134274 0.000000
0.610941 0.133931 0.000000
0.644561 0.133573 0.000000
0.678364 0.133202 0.000000
0.712341 0.132817 0.000000
0.746484 0.132420 0.000000
0.780793 0.132011 0.000000
0.815265 0.131590 0.000000
0.849889 0.131157 0.000000
0.884664 0.130713 0.000000
0.919590 0.130259 0.000000
0.954657 0.129793 0.000000
0.989860 0.129316 0.000000
1.000000 0.128830 0.000000
0.000000 0.170278 0.000000
0.012899 0.169235 0.000000
0.043264 0.168231 0.000000
0.073800 0.167730 0.000000
0.104655 0.167524 0.000000
0.135749 0.167306 0.000000
0.166021 0.166021 0.000000
0.195597 0.166278 0.000000
0.225610 0.166545 0.000000
0.256126 0.166748 0.000000
0.287105 0.166874 0.000000
0.318493 0.166928 0.000000
0.350235 0.166922 0.000000
0.382286 0.166865 0.000000
0.414616 0.166765 0.000000
0.447204 0.166630 0.000000
0.480024 0.166463 0.000000
0.513064 0.166269 0.000000
0.546316 0.166053 0.000000
0.579765 0.165815 0.000000
0.613401 0.165556 0.000000
0.647223 0.165280 0.000000
0.681220 0.164987 0.000000
0.715385 0.164677 0.000000
0.749714 0.164353 0.000000
0.784204 0.164014 0.000000
0.818846 0.163660 0.000000
0.853636 0.163294 0.000000
0.888573 0.162914 0.000000
0.923648 0.162522 0.000000
0.958856 0.162116 0.000000
0.994199 0.161700 0.000000
1.000000 0.161271 0.000000
0.000000 0.199011 0.000000
0.010050 0.198927 0.000000
0.040815 0.198825 0.000000
0.071814 0.198706 0.000000
0.103046 0.198575 0.000000
0.134504 0.198427 0.000000
0.166185 0.198263 0.000000
0.196838 0.196838 0.000000
0.226937 0.197154 0.000000
0.257407 0.197487 0.000000
0.288331 0.197772 0.000000
0.319693 0.197990 0.000000
0.351450 0.198138 0.000000
0.383557 0.198223 0.000000
0.415978 0.198256 0.000000
0.448678 0.198241 0.000000
0.481631 0.198185 0.000000
0.514821 0.198095 0.000000
0.548228 0.197974 0.000000
0.581837 0.197825 0.000000
0.615641 0.197651 0.000000
0.649628 0.197455 0.000000
0.683789 0.197237 0.000000
0.718117 0.197000 0.000000
0.752607 0.196745 0.000000
0.787250 0.196471 0.000000
0.822040 0.196181 0.000000
0.856977 0.195876 0.000000
0.892050 0.195555 0.000000
0.927255 0.195219 0.000000
0.962591 0.194870 0.000000
0.998049 0.194506 0.000000
1.000000 0.194128 0.000000
0.000000 0.230428 0.000000
0.007205 0.230409 0.000000
0.038348 0.230372 0.000000
0.069718 0.230322 0.000000
0.101310 0.230253 0.000000
0.133119 0.230167 0.000000
0.165144 0.230067 0.000000
0.197378 0.229951 0.000000
0.228369 0.228369 0.000000
0.258956 0.228732 0.000000
0.289869 0.229120 0.000000
0.321186 0.229470 0.000000
0.352911 0.229760 0.000000
0.385017 0.229986 0.000000
0.417463 0.230150 0.000000
0.450215 0.230258 0.000000
0.483249 0.230317 0.000000
0.516533 0.230332 0.000000
0.550048 0.230308 0.000000
0.583778 0.230250 0.000000
0.617708 0.230160 0.000000
0.651823 0.230042 0.000000
0.686116 0.229899 0.000000
0.720577 0.229732 0.000000
0.755196 0.229542 0.000000
0.789966 0.229332 0.000000
0.824884 0.229102 0.000000
0.859938 0.228853 0.000000
0.895125 0.228586 0.000000
0.930442 0.228303 0.000000
0.965880 0.228002 0.000000
1.000000 0.227685 0.000000
1.000000 0.227354 0.000000
0.000000 0.262461 0.000000
0.004283 0.262500 0.000000
0.035790 0.262524 0.000000
0.067515 0.262529 0.000000
0.099452 0.262515 0.000000
0.131599 0.262486 0.000000
0.163952 0.262440 0.000000
0.196504 0.262375 0.000000
0.229254 0.262294 0.000000
0.260545 0.260545 0.000000
0.291589 0.260944 0.000000
0.322916 0.261372 0.000000
0.354611 0.261773 0.000000
0.386681 0.262121 0.000000
0.419107 0.262408 0.000000
0.451866 0.262637 0.000000
0.484923 0.262809 0.000000
0.518252 0.262928 0.000000
0.551829 0.263003 0.000000
0.585634 0.263035 0.000000
0.619647 0.263030 0.000000
0.653855 0.262990 0.000000
0.688244 0.262920 0.000000
0.722803 0.262820 0.000000
0.757520 0.262694 0.000000
0.792391 0.262543 0.000000
0.827404 0.262369 0.000000
0.862552 0.262173 0.000000
0.897831 0.261957 0.000000
0.933232 0.261720 0.000000
0.968750 0.261464 0.000000
1.000000 0.261190 0.000000
1.000000 0.260898 0.000000
0.000000 0.295067 0.000000
0.001287 0.295160 0.000000
0.033143 0.295233 0.000000
0.065208 0.295286 0.000000
0.097478 0.295322 0.000000
0.129948 0.295339 0.000000
0.162613 0.295338 0.000000
0.195470 0.295319 0.000000
0.228516 0.295282 0.000000
0.261745 0.295227 0.000000
0.293294 0.293294 0.000000
0.324762 0.293722 0.000000
0.356480 0.294179 0.000000
0.388525 0.294614 0.000000
0.420917 0.295006 0.000000
0.453645 0.295341 0.000000
0.486686 0.295619 0.000000
0.520017 0.295841 0.000000
0.553611 0.296010 0.000000
0.587446 0.296132 0.000000
0.621502 0.296209 0.000000
0.655763 0.296247 0.000000
0.690211 0.296247 0.000000
0.724832 0.296213 0.000000
0.759619 0.296149 0.000000
0.794556 0.296055 0.000000
0.829636 0.295933 0.000000
0.864852 0.295787 0.000000
0.900194 0.295616 0.000000
0.935655 0.295422 0.000000
0.971231 0.295206 0.000000
1.000000 0.294969 0.000000
1.000000 0.294712 0.000000
0.000000 0.328209 0.000000
0.000000 0.328343 0.000000
0.030413 0.328456 0.000000
0.062804 0.328551 0.000000
0.095391 0.328627 0.000000
0.128168 0.328683 0.000000
0.161133 0.328719 0.000000
0.194281 0.328738 0.000000
0.227607 0.328736 0.000000
0.261108 0.328715 0.000000
0.294781 0.328677 0.000000
0.326550 0.326550 0.000000
0.358405 0.326993 0.000000
0.390484 0.327468 0.000000
0.422857 0.327928 0.000000
0.455545 0.328348 0.000000
0.488547 0.328717 0.000000
0.521846 0.329030 0.000000
0.555420 0.329289 0.000000
0.589247 0.329495 0.000000
0.623308 0.329652 0.000000
0.657582 0.329764 0.000000
0.692051 0.329833 0.000000
0.726703 0.329863 0.000000
0.761521 0.329857 0.000000
0.796494 0.329816 0.000000
0.831612 0.329745 0.000000
0.866865 0.329644 0.000000
0.902243 0.329515 0.000000
0.937740 0.329360 0.000000
0.973347 0.329179 0.000000
1.000000 0.328975 0.000000
1.000000 0.328748 0.000000
0.000000 0.361837 0.000000
0.000000 0.362005 0.000000
0.027604 0.362153 0.000000
0.060307 0.362281 0.000000
0.093196 0.362388 0.000000
0.126267 0.362475 0.000000
0.159516 0.362542 0.000000
0.192939 0.362588 0.000000
0.226532 0.362614 0.000000
0.260292 0.362621 0.000000
0.294212 0.362608 0.000000
0.328290 0.362574 0.000000
0.360239 0.360239 0.000000
0.392450 0.360690 0.000000
0.424858 0.361172 0.000000
0.457530 0.361643 0.000000
0.490490 0.362079 0.000000
0.523740 0.362468 0.000000
0.557267 0.362804 0.000000
0.591056 0.363087 0.000000
0.625086 0.363317 0.000000
0.659338 0.363498 0.000000
0.693796 0.363632 0.000000
0.728441 0.363722 0.000000
0.763258 0.363770 0.000000
0.798236 0.363781 0.000000
0.833361 0.363755 0.000000
0.868621 0.363696 0.000000
0.904008 0.363605 0.000000
0.939512 0.363485 0.000000
0.975124 0.363335 0.000000
1.000000 0.363159 0.000000
1.000000 0.362957 0.000000
0.000000 0.395910 0.000000
0.000000 0.396106 0.000000
0.024719 0.396280 0.000000
0.057719 0.396432 0.000000
0.090896 0.396562 0.000000
0.124247 0.396672 0.000000
0.157766 0.396760 0.000000
0.191450 0.396827 0.000000
0.225296 0.396874 0.000000
0.259298 0.396899 0.000000
0.293453 0.396903 0.000000
0.327757 0.396887 0.000000
0.362205 0.396851 0.000000
0.394294 0.394294 0.000000
0.426825 0.394742 0.000000
0.459531 0.395220 0.000000
0.492473 0.395691 0.000000
0.525676 0.396130 0.000000
0.559147 0.396526 0.000000
0.592875 0.396872 0.000000
0.626848 0.397166 0.000000
0.661051 0.397409 0.000000
0.695463 0.397601 0.000000
0.730070 0.397745 0.000000
0.764856 0.397845 0.000000
0.799806 0.397901 0.000000
0.834907 0.397918 0.000000
0.870146 0.397897 0.000000
0.905512 0.397840 0.000000
0.940996 0.397749 0.000000
0.976587 0.397626 0.000000
1.000000 0.397473 0.000000
1.000000 0.397291 0.000000
0.000000 0.430387 0.000000
0.000000 0.430601 0.000000
0.021764 0.430792 0.000000
0.055047 0.430961 0.000000
0.088498 0.431108 0.000000
0.122113 0.431232 0.000000
0.155888 0.431333 0.000000
0.189819 0.431414 0.000000
0.223902 0.431471 0.000000
0.258133 0.431506 0.000000
0.292508 0.431521 0.000000
0.327022 0.431514 0.000000
0.361672 0.431484 0.000000
0.396453 0.431434 0.000000
0.428645 0.428645 0.000000
0.461462 0.429080 0.000000
0.494433 0.429544 0.000000
0.527614 0.430003 0.000000
0.561032 0.430434 0.000000
0.594694 0.430824 0.000000
0.628595 0.431168 0.000000
0.662724 0.431460 0.000000
0.697066 0.431702 0.000000
0.731608 0.431894 0.000000
0.766333 0.432037 0.000000
0.801225 0.432135 0.000000
0.836272 0.432188 0.000000
0.871461 0.432200 0.000000
0.906778 0.432172 0.000000
0.942214 0.432107 0.000000
0.977758 0.432006 0.000000
1.000000 0.431871 0.000000
1.000000 0.431705 0.000000
0.000000 0.465223 0.000000
0.000000 0.465448 0.000000
0.018744 0.465648 0.000000
0.052295 0.465826 0.000000
0.086005 0.465980 0.000000
0.119870 0.466110 0.000000
0.153886 0.466218 0.000000
0.188050 0.466302 0.000000
0.222356 0.466363 0.000000
0.256801 0.466402 0.000000
0.291381 0.466418 0.000000
0.326091 0.466410 0.000000
0.360928 0.466381 0.000000
0.395888 0.466329 0.000000
0.430965 0.466254 0.000000
0.463222 0.463222 0.000000
0.496291 0.463634 0.000000
0.529493 0.464073 0.000000
0.562883 0.464509 0.000000
0.596485 0.464920 0.000000
0.630309 0.465293 0.000000
0.664353 0.465621 0.000000
0.698607 0.465900 0.000000
0.733060 0.466130 0.000000
0.767698 0.466309 0.000000
0.802508 0.466440 0.000000
0.837474 0.466523 0.000000
0.872585 0.466562 0.000000
0.907826 0.466558 0.000000
0.943187 0.466513 0.000000
0.978657 0.466429 0.000000
1.000000 0.466308 0.000000
1.000000 0.466151 0.000000
0.000000 0.500376 0.000000
0.000000 0.500603 0.000000
0.015661 0.500806 0.000000
0.049466 0.500984 0.000000
0.083421 0.501136 0.000000
0.117522 0.501266 0.000000
0.151765 0.501371 0.000000
0.186146 0.501451 0.000000
0.220661 0.501508 0.000000
0.255305 0.501541 0.000000
0.290076 0.501550 0.000000
0.324968 0.501535 0.000000
0.359978 0.501497 0.000000
0.395101 0.501436 0.000000
0.430334 0.501351 0.000000
0.465672 0.501243 0.000000
0.497955 0.497955 0.000000
0.531241 0.498333 0.000000
0.564642 0.498738 0.000000
0.598208 0.499140 0.000000
0.631964 0.499520 0.000000
0.665920 0.499864 0.000000
0.700076 0.500165 0.000000
0.734425 0.500418 0.000000
0.768958 0.500623 0.000000
0.803661 0.500778 0.000000
0.838523 0.500884 0.000000
0.873531 0.500943 0.000000
0.908670 0.500956 0.000000
0.943931 0.500925 0.000000
0.979301 0.500852 0.000000
1.000000 0.500739 0.000000
1.000000 0.500586 0.000000
0.000000 0.535802 0.000000
0.000000 0.536025 0.000000
0.012522 0.536220 0.000000
0.046566 0.536390 0.000000
0.080751 0.536535 0.000000
0.115073 0.536655 0.000000
0.149528 0.536749 0.000000
0.184113 0.536818 0.000000
0.218822 0.536862 0.000000
0.253651 0.536881 0.000000
0.288598 0.536876 0.000000
0.323658 0.536845 0.000000
0.358826 0.536790 0.000000
0.394098 0.536711 0.000000
0.429471 0.536608 0.000000
0.464940 0.536480 0.000000
0.500502 0.536328 0.000000
0.532775 0.532775 0.000000
0.566243 0.533110 0.000000
0.599809 0.533470 0.000000
0.633519 0.533827 0.000000
0.667397 0.534164 0.000000
0.701454 0.534467 0.000000
0.735692 0.534729 0.000000
0.770105 0.534946 0.000000
0.804686 0.535113 0.000000
0.839424 0.535233 0.000000
0.874306 0.535303 0.000000
0.909321 0.535325 0.000000
0.944458 0.535302 0.000000
0.979703 0.535232 0.000000
1.000000 0.535120 0.000000
1.000000 0.534966 0.000000
0.000000 0.571460 0.000000
0.000000 0.571668 0.000000
0.009330 0.571849 0.000000
0.043599 0.572004 0.000000
0.077999 0.572132 0.000000
0.112528 0.572234 0.000000
0.147181 0.572309 0.000000
0.181954 0.572359 0.000000
0.216843 0.572382 0.000000
0.251844 0.572379 0.000000
0.286952 0.572351 0.000000
0.322164 0.572297 0.000000
0.357476 0.572217 0.000000
0.392883 0.572113 0.000000
0.428382 0.571982 0.000000
0.463968 0.571827 0.000000
0.499637 0.571646 0.000000
0.535386 0.571440 0.000000
0.567612 0.567612 0.000000
0.601227 0.567893 0.000000
0.634924 0.568198 0.000000
0.668745 0.568500 0.000000
0.702713 0.568783 0.000000
0.736840 0.569035 0.000000
0.771129 0.569246 0.000000
0.805576 0.569413 0.000000
0.840173 0.569533 0.000000
0.874913 0.569604 0.000000
0.909784 0.569627 0.000000
0.944774 0.569601 0.000000
0.979873 0.569529 0.000000
1.000000 0.569411 0.000000
1.000000 0.569249 0.000000
0.000000 0.607306 0.000000
0.000000 0.607492 0.000000
0.006089 0.607650 0.000000
0.040568 0.607781 0.000000
0.075170 0.607884 0.000000
0.109892 0.607960 0.000000
0.144728 0.608009 0.000000
0.179675 0.608031 0.000000
0.214729 0.608025 0.000000
0.249886 0.607993 0.000000
0.285142 0.607934 0.000000
0.320492 0.607848 0.000000
0.355933 0.607735 0.000000
0.391460 0.607597 0.000000
0.427071 0.607432 0.000000
0.462759 0.607240 0.000000
0.498521 0.607023 0.000000
0.534355 0.606779 0.000000
0.570254 0.606510 0.000000
0.602396 0.602396 0.000000
0.636125 0.602614 0.000000
0.669918 0.602853 0.000000
0.703817 0.603090 0.000000
0.737843 0.603308 0.000000
0.772008 0.603496 0.000000
0.806316 0.603646 0.000000
0.840764 0.603752 0.000000
0.875348 0.603812 0.000000
0.910057 0.603824 0.000000
0.944883 0.603787 0.000000
0.979816 0.603703 0.000000
1.000000 0.603571 0.000000
1.000000 0.603392 0.000000
0.000000 0.643296 0.000000
0.000000 0.643452 0.000000
0.002805 0.643580 0.000000
0.037480 0.643679 0.000000
0.072269 0.643749 0.000000
0.107168 0.643792 0.000000
0.142173 0.643805 0.000000
0.177280 0.643791 0.000000
0.212485 0.643749 0.000000
0.247783 0.643678 0.000000
0.283172 0.643580 0.000000
0.318646 0.643455 0.000000
0.354201 0.643301 0.000000
0.389835 0.643121 0.000000
0.425541 0.642913 0.000000
0.461318 0.642677 0.000000
0.497159 0.642415 0.000000
0.533062 0.642126 0.000000
0.569022 0.641809 0.000000
0.605035 0.641466 0.000000
0.637059 0.637059 0.000000
0.670865 0.637202 0.000000
0.704721 0.637365 0.000000
0.738664 0.637526 0.000000
0.772715 0.637669 0.000000
0.806886 0.637783 0.000000
0.841182 0.637860 0.000000
0.875600 0.637894 0.000000
0.910136 0.637882 0.000000
0.944784 0.637824 0.000000
0.979533 0.637716 0.000000
1.000000 0.637561 0.000000
1.000000 0.637358 0.000000
0.000000 0.679388 0.000000
0.000000 0.679507 0.000000
0.000000 0.679595 0.000000
0.034337 0.679654 0.000000
0.069299 0.679684 0.000000
0.104361 0.679684 0.000000
0.139520 0.679655 0.000000
0.174772 0.679597 0.000000
0.210114 0.679509 0.000000
0.245540 0.679393 0.000000
0.281046 0.679248 0.000000
0.316630 0.679075 0.000000
0.352286 0.678873 0.000000
0.388010 0.678642 0.000000
0.423799 0.678382 0.000000
0.459649 0.678095 0.000000
0.495554 0.677780 0.000000
0.531512 0.677436 0.000000
0.567519 0.677065 0.000000
0.603569 0.676666 0.000000
0.639659 0.676239 0.000000
0.671529 0.671529 0.000000
0.705378 0.671589 0.000000
0.739263 0.671665 0.000000
0.773216 0.671740 0.000000
0.807260 0.671797 0.000000
0.841404 0.671825 0.000000
0.875654 0.671817 0.000000
0.910011 0.671768 0.000000
0.944468 0.671674 0.000000
0.979021 0.671533 0.000000
1.000000 0.671344 0.000000
1.000000 0.671107 0.000000
0.000000 0.715539 0.000000
0.000000 0.715612 0.000000
0.000000 0.715653 0.000000
0.031145 0.715664 0.000000
0.066264 0.715645 0.000000
0.101476 0.715595 0.000000
0.136775 0.715515 0.000000
0.172158 0.715405 0.000000
0.207621 0.715265 0.000000
0.243159 0.715094 0.000000
0.278770 0.714894 0.000000
0.314448 0.714665 0.000000
0.350190 0.714405 0.000000
0.385991 0.714116 0.000000
0.421848 0.713799 0.000000
0.457756 0.713451 0.000000
0.493712 0.713074 0.000000
0.529711 0.712669 0.000000
0.565749 0.712235 0.000000
0.601822 0.711772 0.000000
0.637926 0.711280 0.000000
0.674057 0.710760 0.000000
0.705738 0.705738 0.000000
0.739595 0.705703 0.000000
0.773474 0.705684 0.000000
0.807404 0.705661 0.000000
0.841405 0.705621 0.000000
0.875491 0.705554 0.000000
0.909664 0.705451 0.000000
0.943925 0.705307 0.000000
0.978273 0.705119 0.000000
1.000000 0.704885 0.000000
1.000000 0.704602 0.000000
0.000000 0.751706 0.000000
0.000000 0.751725 0.000000
0.000000 0.751711 0.000000
0.027908 0.751666 0.000000
0.063171 0.751590 0.000000
0.098516 0.751482 0.000000
0.133941 0.751343 0.000000
0.169440 0.751173 0.000000
0.205010 0.750971 0.000000
0.240647 0.750739 0.000000
0.276347 0.750476 0.000000
0.312106 0.750182 0.000000
0.347919 0.749857 0.000000
0.383783 0.749502 0.000000
0.419693 0.749117 0.000000
0.455645 0.748701 0.000000
0.491636 0.748256 0.000000
0.527661 0.747781 0.000000
0.563716 0.747275 0.000000
0.599798 0.746740 0.000000
0.635902 0.746175 0.000000
0.672023 0.745580 0.000000
0.708158 0.744956 0.000000
0.739616 0.739616 0.000000
0.773446 0.739476 0.000000
0.807284 0.739349 0.000000
0.841157 0.739220 0.000000
0.875084 0.739073 0.000000
0.909076 0.738898 0.000000
0.943140 0.738689 0.000000
0.977275 0.738440 0.000000
1.000000 0.738147 0.000000
1.000000 0.737808 0.000000
0.000000 0.787846 0.000000
0.000000 0.787803 0.000000
0.000000 0.787726 0.000000
0.024631 0.787617 0.000000
0.060022 0.787475 0.000000
0.095487 0.787301 0.000000
0.131022 0.787095 0.000000
0.166624 0.786856 0.000000
0.202287 0.786586 0.000000
0.238008 0.786284 0.000000
0.273782 0.785949 0.000000
0.309607 0.785583 0.000000
0.345477 0.785185 0.000000
0.381388 0.784756 0.000000
0.417337 0.784295 0.000000
0.453320 0.783804 0.000000
0.489332 0.783281 0.000000
0.525368 0.782727 0.000000
0.561426 0.782142 0.000000
0.597502 0.781528 0.000000
0.633590 0.780881 0.000000
0.669687 0.780204 0.000000
0.705790 0.779498 0.000000
0.741892 0.778760 0.000000
0.773091 0.773091 0.000000
0.806862 0.772838 0.000000
0.840624 0.772595 0.000000
0.874405 0.772347 0.000000
0.908225 0.772082 0.000000
0.942092 0.771791 0.000000
0.976012 0.771464 0.000000
1.000000 0.771098 0.000000
1.000000 0.770690 0.000000
0.000000 0.823916 0.000000
0.000000 0.823803 0.000000
0.000000 0.823655 0.000000
0.021317 0.823473 0.000000
0.056822 0.823258 0.000000
0.092393 0.823010 0.000000
0.128025 0.822728 0.000000
0.163713 0.822414 0.000000
0.199455 0.822066 0.000000
0.235245 0.821685 0.000000
0.271080 0.821271 0.000000
0.306956 0.820825 0.000000
0.342868 0.820346 0.000000
0.378813 0.819835 0.000000
0.414786 0.819291 0.000000
0.450784 0.818715 0.000000
0.486802 0.818107 0.000000
0.522836 0.817467 0.000000
0.558883 0.816795 0.000000
0.594937 0.816091 0.000000
0.630996 0.815355 0.000000
0.667055 0.814589 0.000000
0.703109 0.813790 0.000000
0.739155 0.812960 0.000000
0.775190 0.812100 0.000000
0.806098 0.806098 0.000000
0.839771 0.805718 0.000000
0.873424 0.805349 0.000000
0.907081 0.804974 0.000000
0.940757 0.804580 0.000000
0.974465 0.804160 0.000000
1.000000 0.803707 0.000000
1.000000 0.803213 0.000000
0.000000 0.859874 0.000000
0.000000 0.859682 0.000000
0.000000 0.859454 0.000000
0.017971 0.859193 0.000000
0.053576 0.858897 0.000000
0.089238 0.858566 0.000000
0.124951 0.858201 0.000000
0.160713 0.857802 0.000000
0.196518 0.857368 0.000000
0.232363 0.856901 0.000000
0.268245 0.856401 0.000000
0.304157 0.855866 0.000000
0.340097 0.855297 0.000000
0.376061 0.854696 0.000000
0.412044 0.854061 0.000000
0.448043 0.853392 0.000000
0.484053 0.852690 0.000000
0.520070 0.851957 0.000000
0.556090 0.851188 0.000000
0.592110 0.850388 0.000000
0.628125 0.849556 0.000000
0.664130 0.848690 0.000000
0.700122 0.847792 0.000000
0.736097 0.846862 0.000000
0.772051 0.845900 0.000000
0.807979 0.844905 0.000000
0.838564 0.838564 0.000000
0.872107 0.838050 0.000000
0.905614 0.837542 0.000000
