_backup/뉴턴_LUT/뉴턴_추구미_100.cube
TITLE "newton_match_v2"
LUT_3D_SIZE 33
0.000000 0.000000 0.000000
0.025488 0.000000 0.000000
0.050537 0.000000 0.000000
0.074985 0.000000 0.000000
0.098828 0.000000 0.000000
0.122021 0.000000 0.000000
0.144612 0.000000 0.000000
0.166602 0.000000 0.000000
0.187982 0.000000 0.000000
0.208717 0.000000 0.000000
0.228849 0.000000 0.000000
0.248380 0.000000 0.000000
0.267299 0.000000 0.000000
0.285575 0.000000 0.000000
0.303249 0.000000 0.000000
0.320321 0.000000 0.000000
0.336777 0.000000 0.000000
0.352595 0.000000 0.000000
0.367810 0.000000 0.000000
0.382424 0.000000 0.000000
0.396418 0.000000 0.000000
0.409777 0.000000 0.000000
0.422534 0.000000 0.000000
0.436080 0.000000 0.000000
0.450693 0.000000 0.000000
0.467825 0.000000 0.000000
0.488455 0.000000 0.000000
0.509710 0.000000 0.000000
0.528294 0.000000 0.000000
0.557684 0.000000 0.000000
0.592289 0.000000 0.000000
0.628406 0.000000 0.000000
0.658407 0.000000 0.000000
0.000000 0.021189 0.000000
0.020097 0.019187 0.000000
0.042532 0.018246 0.000000
0.065716 0.016923 0.000000
0.088531 0.015522 0.000000
0.110799 0.014121 0.000000
0.132481 0.012740 0.000000
0.153545 0.011383 0.000000
0.173992 0.010055 0.000000
0.193835 0.008758 0.000000
0.213073 0.007492 0.000000
0.231681 0.006257 0.000000
0.249671 0.005054 0.000000
0.267057 0.003883 0.000000
0.283837 0.002743 0.000000
0.299984 0.001636 0.000000
0.315515 0.000560 0.000000
0.330442 0.000000 0.000000
0.344764 0.000000 0.000000
0.358449 0.000000 0.000000
0.373290 0.000000 0.000000
0.388761 0.000000 0.000000
0.406650 0.000000 0.000000
0.427688 0.000000 0.000000
0.447568 0.000000 0.000000
0.467925 0.000000 0.000000
0.497735 0.000000 0.000000
0.531429 0.000000 0.000000
0.564163 0.000000 0.000000
0.593785 0.000000 0.000000
0.632476 0.000000 0.000000
0.674263 0.000000 0.000000
0.712255 0.000000 0.000000
0.000000 0.040741 0.000000
0.015169 0.038810 0.000000
0.038110 0.036386 0.000000
0.058484 0.035381 0.000000
0.079503 0.034107 0.000000
0.100472 0.032671 0.000000
0.121037 0.031170 0.000000
0.141091 0.029658 0.000000
0.160585 0.028155 0.000000
0.179494 0.026670 0.000000
0.197784 0.025206 0.000000
0.215473 0.023770 0.000000
0.232561 0.022363 0.000000
0.249040 0.020986 0.000000
0.264887 0.019637 0.000000
0.280128 0.018320 0.000000
0.294914 0.017043 0.000000
0.310734 0.015880 0.000000
0.327054 0.014777 0.000000
0.345783 0.013798 0.000000
0.366627 0.012892 0.000000
0.385507 0.011907 0.000000
0.407543 0.011007 0.000000
0.436930 0.010257 0.000000
0.469401 0.009502 0.000000
0.499376 0.008626 0.000000
0.528880 0.007689 0.000000
0.567043 0.006810 0.000000
0.606354 0.005860 0.000000
0.640655 0.004795 0.000000
0.673799 0.003674 0.000000
0.712341 0.002531 0.000000
0.755024 0.001340 0.000000
0.000000 0.058609 0.000000
0.010148 0.056466 0.000000
0.033007 0.054363 0.000000
0.054004 0.051560 0.000000
0.072722 0.050384 0.000000
0.091780 0.049052 0.000000
0.110859 0.047559 0.000000
0.129668 0.045979 0.000000
0.148039 0.044357 0.000000
0.165892 0.042721 0.000000
0.183197 0.041092 0.000000
0.199929 0.039478 0.000000
0.216061 0.037881 0.000000
0.231948 0.036364 0.000000
0.248457 0.035035 0.000000
0.265560 0.033844 0.000000
0.284797 0.032937 0.000000
0.305340 0.032155 0.000000
0.323987 0.031155 0.000000
0.346807 0.030524 0.000000
0.375358 0.030297 0.000000
0.406251 0.030117 0.000000
0.434006 0.029588 0.000000
0.463377 0.029077 0.000000
0.500511 0.028925 0.000000
0.537311 0.028607 0.000000
0.569004 0.027911 0.000000
0.601109 0.027160 0.000000
0.639742 0.026612 0.000000
0.679866 0.026016 0.000000
0.716805 0.025205 0.000000
0.755841 0.024387 0.000000
0.802055 0.023703 0.000000
0.000000 0.074784 0.000000
0.005509 0.072443 0.000000
0.027414 0.070141 0.000000
0.048685 0.067868 0.000000
0.067774 0.064707 0.000000
0.084971 0.063329 0.000000
0.102279 0.061876 0.000000
0.119555 0.060284 0.000000
0.136601 0.058602 0.000000
0.153272 0.056868 0.000000
0.169917 0.055252 0.000000
0.186895 0.053842 0.000000
0.204660 0.052705 0.000000
0.224007 0.051954 0.000000
0.244102 0.051311 0.000000
0.262653 0.050307 0.000000
0.286268 0.050190 0.000000
0.313422 0.050501 0.000000
0.342395 0.050875 0.000000
0.368217 0.050604 0.000000
0.398177 0.050745 0.000000
0.432920 0.051281 0.000000
0.467390 0.051561 0.000000
0.496976 0.051148 0.000000
0.528789 0.050849 0.000000
0.566152 0.050935 0.000000
0.603896 0.050889 0.000000
0.639137 0.050496 0.000000
0.677684 0.050240 0.000000
0.723349 0.050353 0.000000
0.776839 0.050805 0.000000
0.828107 0.050902 0.000000
0.878155 0.050749 0.000000
0.000000 0.089280 0.000000
0.001253 0.086736 0.000000
0.022197 0.084224 0.000000
0.042511 0.081752 0.000000
0.062195 0.079319 0.000000
0.079430 0.075835 0.000000
0.095160 0.074242 0.000000
0.111286 0.072919 0.000000
0.127836 0.071703 0.000000
0.145378 0.070868 0.000000
0.164301 0.070486 0.000000
0.183299 0.069933 0.000000
0.202109 0.069183 0.000000
0.225516 0.069781 0.000000
0.251316 0.070748 0.000000
0.277702 0.071515 0.000000
0.302436 0.071590 0.000000
0.332130 0.072566 0.000000
0.364488 0.073775 0.000000
0.395832 0.074461 0.000000
0.424514 0.074428 0.000000
0.455776 0.074667 0.000000
0.491692 0.075436 0.000000
0.526779 0.075841 0.000000
0.560882 0.075913 0.000000
0.598640 0.076293 0.000000
0.644310 0.077433 0.000000
0.693933 0.078745 0.000000
0.742218 0.079621 0.000000
0.789426 0.080141 0.000000
0.844365 0.081195 0.000000
0.907892 0.082767 0.000000
0.968504 0.083767 0.000000
0.000000 0.102085 0.000000
0.000000 0.099335 0.000000
0.017365 0.096626 0.000000
0.036724 0.093963 0.000000
0.055758 0.091833 0.000000
0.074565 0.089957 0.000000
0.091650 0.087503 0.000000
0.108830 0.087615 0.000000
0.125991 0.087290 0.000000
0.144324 0.087311 0.000000
0.166072 0.088757 0.000000
0.189941 0.090568 0.000000
0.213756 0.091702 0.000000
0.237599 0.092379 0.000000
0.265877 0.094277 0.000000
0.295809 0.096188 0.000000
0.324212 0.097143 0.000000
0.351964 0.097586 0.000000
0.382643 0.098540 0.000000
0.416662 0.099993 0.000000
0.449224 0.100763 0.000000
0.482406 0.101403 0.000000
0.519292 0.102538 0.000000
0.563916 0.104822 0.000000
0.609842 0.106921 0.000000
0.655151 0.108532 0.000000
0.700310 0.109792 0.000000
0.754695 0.112137 0.000000
0.814708 0.114882 0.000000
0.869891 0.116549 0.000000
0.921874 0.117488 0.000000
0.993662 0.120580 0.000000
1.000000 0.124914 0.000000
0.000000 0.113330 0.000000
0.000000 0.111052 0.000000
0.013132 0.109140 0.000000
0.032415 0.108147 0.000000
0.051985 0.107651 0.000000
0.071330 0.106469 0.000000
0.091605 0.106390 0.000000
0.111456 0.106412 0.000000
0.132375 0.109039 0.000000
0.153289 0.110676 0.000000
0.175282 0.112210 0.000000
0.201224 0.115285 0.000000
0.228261 0.117970 0.000000
0.254022 0.119250 0.000000
0.280345 0.120269 0.000000
0.310021 0.122193 0.000000
0.341546 0.124264 0.000000
0.372007 0.125462 0.000000
0.403914 0.126746 0.000000
0.439880 0.128858 0.000000
0.482244 0.132276 0.000000
0.524954 0.135188 0.000000
0.567403 0.137522 0.000000
0.610961 0.139673 0.000000
0.663667 0.143398 0.000000
0.719844 0.147270 0.000000
0.770398 0.149487 0.000000
0.821994 0.151507 0.000000
0.892860 0.156542 0.000000
0.975782 0.162947 0.000000
1.000000 0.169017 0.000000
1.000000 0.172272 0.000000
1.000000 0.175347 0.000000
0.000000 0.127586 0.000000
0.000000 0.127209 0.000000
0.009580 0.125964 0.000000
0.029392 0.126680 0.000000
0.050325 0.128761 0.000000
0.072518 0.131234 0.000000
0.094806 0.132162 0.000000
0.118488 0.133854 0.000000
0.141452 0.135050 0.000000
0.165140 0.138423 0.000000
0.188019 0.140131 0.000000
0.212244 0.141974 0.000000
0.239631 0.144969 0.000000
0.268280 0.147748 0.000000
0.296556 0.149535 0.000000
0.326792 0.151645 0.000000
0.360922 0.154837 0.000000
0.400537 0.159507 0.000000
0.439959 0.163238 0.000000
0.479528 0.166313 0.000000
0.521240 0.169492 0.000000
0.571723 0.174771 0.000000
0.623039 0.179488 0.000000
0.670181 0.182356 0.000000
0.721065 0.185691 0.000000
0.790190 0.192952 0.000000
0.869108 0.201574 0.000000
0.946625 0.208864 0.000000
1.000000 0.212640 0.000000
1.000000 0.217833 0.000000
1.000000 0.223348 0.000000
1.000000 0.227216 0.000000
1.000000 0.228249 0.000000
0.000000 0.147265 0.000000
0.000000 0.150033 0.000000
0.006380 0.152738 0.000000
0.027637 0.153782 0.000000
0.050114 0.156659 0.000000
0.074155 0.160385 0.000000
0.099120 0.163250 0.000000
0.123942 0.164297 0.000000
0.150021 0.165943 0.000000
0.174397 0.166505 0.000000
0.199795 0.169790 0.000000
0.225383 0.172268 0.000000
0.253232 0.175448 0.000000
0.285197 0.180259 0.000000
0.320686 0.185931 0.000000
0.356584 0.190575 0.000000
0.392963 0.194441 0.000000
0.433362 0.199309 0.000000
0.479937 0.205895 0.000000
0.526554 0.211393 0.000000
0.570161 0.214835 0.000000
0.621869 0.220509 0.000000
0.686584 0.229667 0.000000
0.760591 0.240548 0.000000
0.829778 0.248625 0.000000
0.890787 0.253340 0.000000
0.963622 0.260576 0.000000
1.000000 0.267370 0.000000
1.000000 0.271533 0.000000
1.000000 0.273193 0.000000
1.000000 0.276978 0.000000
1.000000 0.281878 0.000000
1.000000 0.284632 0.000000
0.000000 0.175825 0.000000
0.000000 0.179777 0.000000
0.002659 0.184074 0.000000
0.025804 0.186847 0.000000
0.049646 0.188372 0.000000
0.074563 0.190778 0.000000
0.101126 0.194475 0.000000
0.128282 0.197031 0.000000
0.156155 0.199148 0.000000
0.185827 0.202172 0.000000
0.214349 0.204649 0.000000
0.245569 0.211022 0.000000
0.277564 0.216550 0.000000
0.310358 0.221296 0.000000
0.348252 0.228187 0.000000
0.390418 0.236189 0.000000
0.432029 0.242324 0.000000
0.472164 0.246472 0.000000
0.523276 0.255084 0.000000
0.583856 0.266620 0.000000
0.650824 0.279206 0.000000
0.713005 0.288113 0.000000
0.770261 0.293871 0.000000
0.839276 0.302991 0.000000
0.908672 0.311042 0.000000
0.970588 0.315607 0.000000
1.000000 0.318065 0.000000
1.000000 0.323519 0.000000
1.000000 0.329242 0.000000
1.000000 0.332735 0.000000
1.000000 0.334682 0.000000
1.000000 0.334418 0.000000
1.000000 0.331334 0.000000
0.000000 0.210570 0.000000
0.000000 0.212598 0.000000
0.000000 0.216080 0.000000
0.022951 0.220260 0.000000
0.048542 0.222954 0.000000
0.075116 0.225742 0.000000
0.103297 0.229900 0.000000
0.134246 0.236582 0.000000
0.166730 0.242635 0.000000
0.200271 0.247702 0.000000
0.235054 0.252331 0.000000
0.268218 0.256080 0.000000
0.305853 0.265248 0.000000
0.342440 0.271754 0.000000
0.379978 0.277509 0.000000
0.427527 0.288709 0.000000
0.482966 0.302808 0.000000
0.542428 0.316904 0.000000
0.597076 0.326124 0.000000
0.651934 0.333910 0.000000
0.715962 0.344816 0.000000
0.779352 0.353839 0.000000
0.835678 0.358509 0.000000
0.892342 0.362510 0.000000
0.959253 0.369756 0.000000
1.000000 0.375950 0.000000
1.000000 0.380087 0.000000
1.000000 0.382723 0.000000
1.000000 0.381655 0.000000
1.000000 0.378607 0.000000
1.000000 0.374893 0.000000
1.000000 0.369845 0.000000
1.000000 0.364999 0.000000
0.000000 0.246210 0.000000
0.000000 0.249189 0.000000
0.000000 0.252614 0.000000
0.019619 0.257970 0.000000
0.047787 0.265900 0.000000
0.077588 0.272584 0.000000
0.108749 0.278247 0.000000
0.141482 0.283908 0.000000
0.177934 0.293057 0.000000
0.216543 0.301866 0.000000
0.254948 0.307573 0.000000
0.295339 0.313571 0.000000
0.336814 0.321571 0.000000
0.386728 0.337977 0.000000
0.438797 0.353258 0.000000
0.486394 0.362510 0.000000
0.538794 0.373294 0.000000
0.596443 0.385526 0.000000
0.653513 0.395353 0.000000
0.704375 0.399985 0.000000
0.760105 0.406236 0.000000
0.823204 0.415091 0.000000
0.884522 0.421756 0.000000
0.943900 0.426490 0.000000
1.000000 0.429551 0.000000
1.000000 0.427899 0.000000
1.000000 0.424994 0.000000
1.000000 0.420726 0.000000
1.000000 0.415533 0.000000
1.000000 0.410494 0.000000
1.000000 0.404877 0.000000
1.000000 0.399388 0.000000
1.000000 0.394746 0.000000
0.000000 0.286750 0.000000
0.000000 0.295615 0.000000
0.000000 0.302868 0.000000
0.016163 0.309023 0.000000
0.046710 0.316274 0.000000
0.079802 0.326879 0.000000
0.114843 0.336132 0.000000
0.150628 0.342111 0.000000
0.189316 0.350561 0.000000
0.234215 0.365433 0.000000
0.284745 0.383254 0.000000
0.336272 0.397397 0.000000
0.385634 0.405671 0.000000
0.431312 0.411793 0.000000
0.483099 0.424977 0.000000
0.533391 0.434717 0.000000
0.580050 0.439903 0.000000
0.633027 0.448364 0.000000
0.691531 0.458900 0.000000
0.747760 0.466230 0.000000
0.802736 0.471483 0.000000
0.856388 0.474952 0.000000
0.900573 0.472650 0.000000
0.944137 0.469875 0.000000
0.983944 0.465233 0.000000
1.000000 0.460006 0.000000
1.000000 0.454768 0.000000
1.000000 0.449133 0.000000
1.000000 0.443292 0.000000
1.000000 0.438869 0.000000
1.000000 0.434481 0.000000
1.000000 0.429904 0.000000
1.000000 0.424756 0.000000
0.000000 0.340095 0.000000
0.000000 0.349521 0.000000
0.000000 0.361282 0.000000
0.011864 0.370724 0.000000
0.045355 0.376934 0.000000
0.081504 0.388920 0.000000
0.121738 0.406158 0.000000
0.166421 0.425806 0.000000
0.212474 0.439995 0.000000
0.258662 0.449115 0.000000
0.310319 0.463191 0.000000
0.364324 0.476250 0.000000
0.416712 0.483968 0.000000
0.467748 0.488197 0.000000
0.512968 0.489753 0.000000
0.566548 0.501209 0.000000
0.617914 0.508982 0.000000
0.668556 0.514740 0.000000
0.716962 0.517651 0.000000
0.759040 0.515383 0.000000
0.801086 0.512831 0.000000
0.839573 0.507913 0.000000
0.877658 0.502828 0.000000
0.915031 0.497454 0.000000
0.951924 0.491975 0.000000
0.987970 0.486247 0.000000
1.000000 0.481789 0.000000
1.000000 0.477586 0.000000
1.000000 0.472781 0.000000
1.000000 0.467484 0.000000
1.000000 0.462905 0.000000
1.000000 0.459540 0.000000
1.000000 0.457041 0.000000
0.000000 0.405475 0.000000
0.000000 0.412776 0.000000
0.000000 0.427984 0.000000
0.006470 0.447892 0.000000
0.045305 0.468584 0.000000
0.086735 0.482623 0.000000
0.129951 0.493076 0.000000
0.177296 0.509175 0.000000
0.226710 0.522759 0.000000
0.275744 0.530281 0.000000
0.325251 0.535686 0.000000
0.379789 0.546301 0.000000
0.436100 0.556170 0.000000
0.491855 0.562818 0.000000
0.547086 0.567152 0.000000
0.585114 0.558634 0.000000
0.625830 0.556384 0.000000
0.665848 0.553579 0.000000
0.703020 0.548482 0.000000
0.740342 0.543611 0.000000
0.776695 0.538121 0.000000
0.813142 0.532800 0.000000
0.849432 0.527477 0.000000
0.887108 0.523077 0.000000
0.925265 0.518978 0.000000
0.962108 0.514196 0.000000
0.997802 0.508924 0.000000
1.000000 0.504619 0.000000
1.000000 0.501772 0.000000
1.000000 0.499220 0.000000
1.000000 0.495369 0.000000
1.000000 0.492278 0.000000
1.000000 0.490525 0.000000
0.000000 0.490485 0.000000
0.000000 0.512074 0.000000
0.000000 0.525222 0.000000
0.000000 0.538854 0.000000
0.042272 0.555833 0.000000
0.087558 0.569726 0.000000
0.133734 0.576393 0.000000
0.181700 0.584120 0.000000
0.233071 0.596337 0.000000
0.285656 0.606051 0.000000
0.338676 0.612893 0.000000
0.391801 0.617415 0.000000
0.441581 0.615576 0.000000
0.489673 0.611417 0.000000
0.536188 0.605723 0.000000
0.580644 0.598404 0.000000
0.610740 0.583100 0.000000
0.646348 0.577114 0.000000
0.681797 0.571493 0.000000
0.718028 0.566774 0.000000
0.754710 0.562486 0.000000
0.791826 0.558509 0.000000
0.827698 0.553663 0.000000
0.863373 0.548744 0.000000
0.900561 0.544809 0.000000
0.940855 0.542654 0.000000
0.980260 0.539852 0.000000
1.000000 0.536299 0.000000
1.000000 0.533535 0.000000
1.000000 0.532288 0.000000
1.000000 0.530172 0.000000
1.000000 0.527112 0.000000
1.000000 0.525713 0.000000
0.000000 0.585496 0.000000
0.000000 0.603341 0.000000
0.000000 0.616706 0.000000
0.000000 0.622709 0.000000
0.036649 0.633115 0.000000
0.084580 0.646746 0.000000
0.134101 0.656424 0.000000
0.184660 0.663218 0.000000
0.235834 0.667694 0.000000
0.284801 0.664446 0.000000
0.333168 0.660127 0.000000
0.379952 0.653469 0.000000
0.425513 0.645847 0.000000
0.470445 0.638383 0.000000
0.514121 0.630279 0.000000
0.556859 0.622066 0.000000
0.600619 0.615796 0.000000
0.629529 0.601039 0.000000
0.665637 0.596616 0.000000
0.700511 0.591458 0.000000
0.735786 0.586861 0.000000
0.772623 0.583541 0.000000
0.811810 0.581829 0.000000
0.849475 0.578833 0.000000
0.887136 0.575716 0.000000
0.926738 0.573702 0.000000
0.968377 0.572710 0.000000
1.000000 0.570449 0.000000
1.000000 0.567979 0.000000
1.000000 0.567043 0.000000
1.000000 0.566066 0.000000
1.000000 0.563585 0.000000
1.000000 0.560363 0.000000
0.000000 0.670496 0.000000
0.000000 0.682764 0.000000
0.000000 0.697651 0.000000
0.000000 0.707281 0.000000
0.029828 0.714066 0.000000
0.079284 0.717709 0.000000
0.128186 0.713266 0.000000
0.176824 0.708649 0.000000
0.224275 0.701093 0.000000
0.270912 0.693159 0.000000
0.316782 0.685143 0.000000
0.361775 0.676891 0.000000
0.405836 0.668410 0.000000
0.450424 0.661933 0.000000
0.494677 0.655743 0.000000
0.537979 0.649026 0.000000
0.580053 0.641616 0.000000
0.622296 0.635107 0.000000
0.650888 0.621432 0.000000
0.689030 0.619694 0.000000
0.725383 0.616446 0.000000
0.762184 0.613604 0.000000
0.801163 0.612356 0.000000
0.841132 0.611564 0.000000
0.879268 0.609186 0.000000
0.918563 0.607407 0.000000
0.960391 0.607017 0.000000
1.000000 0.606118 0.000000
1.000000 0.603449 0.000000
1.000000 0.600922 0.000000
1.000000 0.599184 0.000000
1.000000 0.597506 0.000000
1.000000 0.595573 0.000000
0.000000 0.758478 0.000000
0.000000 0.765220 0.000000
0.000000 0.766621 0.000000
0.000000 0.762082 0.000000
0.020729 0.757098 0.000000
0.069121 0.748568 0.000000
0.116829 0.740412 0.000000
0.163715 0.731723 0.000000
0.209915 0.723359 0.000000
0.255285 0.714761 0.000000
0.300608 0.707908 0.000000
0.345627 0.701571 0.000000
0.389728 0.694479 0.000000
0.432785 0.686688 0.000000
0.476075 0.680244 0.000000
0.520343 0.675758 0.000000
0.565117 0.672178 0.000000
0.608051 0.666726 0.000000
0.651538 0.662243 0.000000
0.681123 0.650299 0.000000
0.719836 0.649385 0.000000
0.756471 0.646629 0.000000
0.795240 0.645610 0.000000
0.835546 0.645545 0.000000
0.875270 0.644697 0.000000
0.912355 0.641698 0.000000
0.951450 0.639946 0.000000
0.991603 0.638669 0.000000
1.000000 0.636971 0.000000
1.000000 0.635503 0.000000
1.000000 0.633681 0.000000
1.000000 0.631969 0.000000
1.000000 0.629384 0.000000
0.000000 0.810883 0.000000
0.000000 0.804701 0.000000
0.000000 0.795881 0.000000
0.000000 0.787527 0.000000
0.011241 0.778126 0.000000
0.058495 0.769153 0.000000
0.105092 0.760977 0.000000
0.151204 0.753760 0.000000
0.196905 0.747120 0.000000
0.241791 0.739506 0.000000
0.285959 0.731657 0.000000
0.330140 0.725296 0.000000
0.375072 0.721295 0.000000
0.419689 0.717057 0.000000
0.463264 0.711537 0.000000
0.507311 0.707206 0.000000
0.552723 0.704903 0.000000
0.597571 0.701885 0.000000
0.640891 0.697261 0.000000
0.686306 0.695035 0.000000
0.715878 0.683480 0.000000
0.754050 0.682134 0.000000
0.789941 0.678812 0.000000
0.828420 0.677676 0.000000
0.867548 0.676843 0.000000
0.906005 0.675246 0.000000
0.945309 0.674039 0.000000
0.984676 0.672628 0.000000
1.000000 0.671129 0.000000
1.000000 0.668315 0.000000
1.000000 0.664881 0.000000
1.000000 0.662381 0.000000
1.000000 0.659097 0.000000
0.000000 0.834230 0.000000
0.000000 0.824369 0.000000
0.000000 0.814708 0.000000
0.000000 0.807013 0.000000
0.002209 0.799684 0.000000
0.048617 0.792540 0.000000
0.094377 0.784338 0.000000
0.139565 0.776581 0.000000
0.184542 0.770480 0.000000
0.229839 0.766821 0.000000
0.274519 0.761785 0.000000
0.318755 0.756387 0.000000
0.363336 0.752402 0.000000
0.408724 0.750207 0.000000
0.453309 0.746597 0.000000
0.497363 0.742377 0.000000
0.542845 0.740381 0.000000
0.588589 0.738611 0.000000
0.632860 0.735003 0.000000
0.675876 0.730175 0.000000
0.720429 0.727188 0.000000
0.748411 0.714542 0.000000
0.785970 0.712793 0.000000
0.823952 0.711443 0.000000
0.862335 0.710315 0.000000
0.900740 0.709017 0.000000
0.936991 0.705887 0.000000
0.973528 0.702893 0.000000
1.000000 0.700403 0.000000
1.000000 0.697446 0.000000
1.000000 0.694991 0.000000
1.000000 0.691246 0.000000
1.000000 0.688085 0.000000
0.000000 0.852932 0.000000
0.000000 0.845616 0.000000
0.000000 0.837877 0.000000
0.000000 0.829117 0.000000
0.000000 0.821390 0.000000
0.039152 0.815750 0.000000
0.084619 0.812077 0.000000
0.129661 0.806473 0.000000
0.174435 0.801179 0.000000
0.219436 0.797815 0.000000
0.264689 0.795460 0.000000
0.309252 0.791257 0.000000
0.353830 0.787495 0.000000
0.399312 0.785773 0.000000
0.444716 0.783726 0.000000
0.488900 0.779622 0.000000
0.532675 0.775181 0.000000
0.577305 0.772177 0.000000
0.622137 0.769482 0.000000
0.666528 0.766288 0.000000
0.710746 0.762986 0.000000
0.755323 0.760132 0.000000
0.781459 0.746094 0.000000
0.817060 0.742683 0.000000
0.853214 0.739940 0.000000
0.889277 0.737150 0.000000
0.925733 0.734643 0.000000
0.962297 0.732126 0.000000
0.997541 0.728534 0.000000
1.000000 0.725631 0.000000
1.000000 0.722952 0.000000
1.000000 0.719013 0.000000
1.000000 0.715146 0.000000
0.000000 0.873940 0.000000
0.000000 0.866289 0.000000
0.000000 0.861003 0.000000
0.000000 0.857284 0.000000
0.000000 0.851191 0.000000
0.030309 0.846049 0.000000
0.075473 0.843242 0.000000
0.120656 0.840706 0.000000
0.165398 0.835881 0.000000
0.210327 0.832746 0.000000
0.255687 0.831192 0.000000
0.300859 0.828794 0.000000
0.345004 0.823882 0.000000
0.389423 0.820085 0.000000
0.434176 0.817168 0.000000
0.478801 0.814089 0.000000
0.523439 0.811111 0.000000
0.567807 0.807809 0.000000
0.612352 0.804844 0.000000
0.656146 0.801013 0.000000
0.698560 0.795771 0.000000
0.741533 0.791460 0.000000
0.783654 0.786496 0.000000
0.808078 0.771508 0.000000
0.843489 0.768309 0.000000
0.878476 0.764910 0.000000
0.914119 0.762149 0.000000
0.949734 0.759344 0.000000
0.983926 0.755390 0.000000
1.000000 0.751663 0.000000
1.000000 0.748416 0.000000
1.000000 0.745412 0.000000
1.000000 0.741799 0.000000
0.000000 0.902214 0.000000
0.000000 0.895836 0.000000
0.000000 0.890942 0.000000
0.000000 0.888551 0.000000
0.000000 0.885711 0.000000
0.021732 0.880449 0.000000
0.066780 0.878092 0.000000
0.111962 0.876560 0.000000
0.157023 0.873725 0.000000
0.201405 0.868054 0.000000
0.246184 0.864903 0.000000
0.291069 0.862233 0.000000
0.335642 0.858778 0.000000
0.380391 0.855921 0.000000
0.424955 0.852744 0.000000
0.469507 0.849655 0.000000
0.513172 0.845191 0.000000
0.556014 0.839792 0.000000
0.599408 0.835592 0.000000
0.641958 0.830529 0.000000
0.685159 0.826587 0.000000
0.726838 0.821097 0.000000
0.768670 0.816120 0.000000
0.810766 0.811682 0.000000
0.833094 0.795392 0.000000
0.866905 0.791155 0.000000
0.900944 0.787372 0.000000
0.935662 0.784286 0.000000
0.970482 0.781297 0.000000
1.000000 0.777631 0.000000
1.000000 0.773940 0.000000
1.000000 0.770538 0.000000
1.000000 0.767006 0.000000
0.000000 0.933865 0.000000
0.000000 0.930306 0.000000
0.000000 0.925422 0.000000
0.000000 0.923466 0.000000
0.000000 0.921947 0.000000
0.013267 0.918388 0.000000
0.058141 0.912798 0.000000
0.103005 0.909716 0.000000
0.147934 0.907312 0.000000
0.192634 0.903734 0.000000
0.237366 0.900644 0.000000
0.282090 0.897680 0.000000
0.326689 0.894472 0.000000
0.370411 0.889305 0.000000
0.413795 0.883977 0.000000
0.457431 0.879680 0.000000
0.500426 0.874571 0.000000
0.543734 0.870386 0.000000
0.585789 0.864603 0.000000
0.628075 0.859601 0.000000
0.670598 0.855232 0.000000
0.711993 0.849750 0.000000
0.752663 0.843809 0.000000
0.793294 0.838216 0.000000
0.821088 0.820282 0.000000
0.855514 0.816798 0.000000
0.889184 0.812924 0.000000
0.922681 0.809118 0.000000
0.956613 0.805813 0.000000
0.989974 0.802082 0.000000
1.000000 0.797986 0.000000
1.000000 0.794248 0.000000
1.000000 0.790219 0.000000
0.000000 0.968911 0.000000
0.000000 0.967186 0.000000
0.000000 0.963003 0.000000
0.000000 0.957805 0.000000
0.000000 0.954708 0.000000
0.004768 0.952177 0.000000
0.049621 0.948692 0.000000
0.094402 0.945308 0.000000
0.139177 0.942375 0.000000
0.183842 0.939042 0.000000
0.227863 0.933356 0.000000
0.271761 0.928271 0.000000
0.315505 0.923445 0.000000
0.359026 0.918607 0.000000
0.402484 0.914133 0.000000
0.445035 0.908193 0.000000
0.487748 0.903174 0.000000
0.530515 0.898666 0.000000
0.572114 0.892642 0.000000
0.613394 0.886665 0.000000
0.654639 0.881116 0.000000
0.696142 0.876280 0.000000
0.737006 0.870972 0.000000
0.777278 0.865328 0.000000
0.817319 0.859787 0.000000
0.843545 0.841215 0.000000
0.876620 0.836948 0.000000
0.909313 0.832686 0.000000
0.942222 0.828862 0.000000
