_backup/뉴턴_LUT/뉴턴_추구미_60.cube
TITLE "newton_match_v2"
LUT_3D_SIZE 5
0.000000 0.000000 0.000000
0.212789 0.000000 0.000000
0.402066 0.000000 0.000000
0.570416 0.000000 0.000000
0.795044 0.000000 0.000000
0.000000 0.176552 0.000000
0.184871 0.181030 0.000000
0.416553 0.192902 0.000000
0.732639 0.211415 0.000000
1.000000 0.236949 0.000000
0.000000 0.494291 0.000000
0.239842 0.557802 0.000000
0.566444 0.549860 0.000000
0.840337 0.526885 0.000000
1.000000 0.515428 0.000000
0.000000 0.841328 0.000000
0.194214 0.824235 0.000000
0.507903 0.807115 0.000000
0.799856 0.777235 0.000000
1.000000 0.760204 0.000000
0.000000 1.000000 0.000000
0.150123 1.000000 0.000000
0.445961 1.000000 0.000000
0.728349 0.997130 0.000000
1.000000 0.980038 0.000000
0.000000 0.000000 0.228721
0.209611 0.000000 0.209828
0.397483 0.000000 0.192127
0.577406 0.000000 0.180557
0.836710 0.000000 0.188556
0.000000 0.175722 0.179959
0.189479 0.184595 0.189698
0.448852 0.195874 0.202146
0.818983 0.217487 0.225883
1.000000 0.231160 0.241486
0.000000 0.520357 0.230184
0.241747 0.569939 0.242202
0.556927 0.540724 0.258939
0.841843 0.521469 0.234754
1.000000 0.509301 0.217373
0.000000 0.833514 0.203146
0.189535 0.817724 0.189953
0.501365 0.799081 0.176452
0.793433 0.771055 0.228515
1.000000 0.753593 0.210880
0.000000 1.000000 0.159445
0.145581 1.000000 0.145969
0.438820 1.000000 0.133250
0.720176 0.987212 0.121229
1.000000 1.000000 0.206074
0.000000 0.000000 0.449183
0.203442 0.000000 0.417860
0.387421 0.000000 0.387791
0.584081 0.000000 0.382891
0.856843 0.000000 0.413121
0.000000 0.179055 0.390071
0.192880 0.187680 0.420661
0.469007 0.201787 0.469595
0.862196 0.224156 0.548345
1.000000 0.230708 0.591588
0.000000 0.544103 0.563361
0.237202 0.565585 0.586812
0.552243 0.533016 0.553105
0.860291 0.512052 0.531639
1.000000 0.497462 0.516923
0.000000 0.827498 0.527651
0.185119 0.812608 0.513648
0.495006 0.791302 0.495826
0.787736 0.765560 0.507428
1.000000 0.745384 0.480887
0.000000 1.000000 0.472012
0.141188 1.000000 0.452121
0.432503 1.000000 0.433249
0.719689 0.988031 0.419208
1.000000 1.000000 0.480124
0.000000 0.000000 0.661077
0.197434 0.000000 0.617329
0.379601 0.000000 0.578093
0.599428 0.000000 0.600020
0.881794 0.000000 0.653104
0.000000 0.182468 0.615221
0.196441 0.190899 0.668554
0.487185 0.206643 0.761594
0.893978 0.227837 0.895232
1.000000 0.224740 0.900000
0.000000 0.558994 0.900000
0.230027 0.554082 0.900000
0.542279 0.523358 0.875164
0.854583 0.506971 0.855841
1.000000 0.492714 0.840198
0.000000 0.823762 0.853074
0.180570 0.806581 0.835632
0.488634 0.783460 0.811886
0.785055 0.758578 0.786242
1.000000 0.732870 0.759680
0.000000 1.000000 0.780125
0.136962 1.000000 0.755222
0.426224 0.996498 0.728938
0.718796 0.988305 0.719909
1.000000 0.995415 0.750819
0.000000 0.000000 0.864404
0.191588 0.000000 0.808226
0.378923 0.000000 0.776833
0.621829 0.000000 0.839304
0.919335 0.000000 0.920361
0.000000 0.184695 0.850216
0.202137 0.196109 0.945995
0.524284 0.218084 1.000000
0.900000 0.231241 1.000000
1.000000 0.217617 1.000000
0.000000 0.570325 1.000000
0.222803 0.542129 1.000000
0.535489 0.516705 1.000000
0.848519 0.501704 1.000000
1.000000 0.486652 1.000000
0.000000 0.817490 1.000000
0.175748 0.798597 1.000000
0.481734 0.774686 1.000000
0.776040 0.749837 1.000000
1.000000 0.725290 1.000000
0.000000 1.000000 1.000000
0.132613 1.000000 1.000000
0.420265 0.986912 1.000000
0.734116 1.000000 1.000000
1.000000 0.988646 1.000000
